/* XPM */
static char *result[] = {
/* columns rows colors chars-per-pixel */
"90 105 250 2 ",
"   c #000001",
".  c #000B05",
"X  c #00000C",
"o  c #001504",
"O  c #000013",
"+  c #00011B",
"@  c #020B1C",
"#  c #031719",
"$  c #111A1E",
"%  c #002900",
"&  c #003800",
"*  c #002818",
"=  c #0D2C19",
"-  c #000023",
";  c #010828",
":  c #051922",
">  c #0B1C23",
",  c #011428",
"<  c #111E24",
"1  c #1C122D",
"2  c #120B30",
"3  c #240935",
"4  c #0D2124",
"5  c #032829",
"6  c #152825",
"7  c #172825",
"8  c #01362B",
"9  c #19342B",
"0  c #022832",
"q  c #003335",
"w  c #063937",
"e  c #173B33",
"r  c #253928",
"t  c #272931",
"y  c #2B3433",
"u  c #2E393A",
"i  c #353B3B",
"p  c #034800",
"a  c #124E10",
"s  c #245918",
"d  c #246512",
"f  c #004334",
"g  c #0B4C31",
"h  c #05453B",
"j  c #014D3B",
"k  c #1B453B",
"l  c #18463B",
"z  c #06523E",
"x  c #2B422B",
"c  c #294929",
"v  c #2C5128",
"b  c #35572D",
"n  c #284935",
"m  c #234D3D",
"M  c #374739",
"N  c #2B543D",
"B  c #365334",
"V  c #375936",
"C  c #3C5C3B",
"Z  c #366B26",
"A  c #376829",
"S  c #3C6436",
"D  c #415B3B",
"F  c #45683A",
"G  c #477637",
"H  c #487A33",
"J  c #4B7B3B",
"K  c #393141",
"L  c #413948",
"P  c #144D43",
"I  c #1B4D41",
"U  c #0E5642",
"Y  c #165643",
"T  c #1D5244",
"R  c #1C5B45",
"E  c #2F4A41",
"W  c #245444",
"Q  c #2A5641",
"!  c #245A46",
"~  c #2A5A45",
"^  c #245C49",
"/  c #2A5E4A",
"(  c #365B44",
")  c #26624B",
"_  c #2D644E",
"`  c #3B6145",
"'  c #31654E",
"]  c #2F6750",
"[  c #2F6850",
"{  c #306750",
"}  c #316951",
"|  c #377056",
" . c #454C47",
".. c #4A544B",
"X. c #47584A",
"o. c #51584E",
"O. c #4E4A52",
"+. c #4C5551",
"@. c #535A54",
"#. c #476944",
"$. c #536B4B",
"%. c #4E7344",
"&. c #4E7944",
"*. c #527846",
"=. c #557D4A",
"-. c #496555",
";. c #586557",
":. c #5D6A5B",
">. c #5B7455",
",. c #616D5E",
"<. c #647A5C",
"1. c #5D7261",
"2. c #646863",
"3. c #6A7866",
"4. c #737B6F",
"5. c #3F831C",
"6. c #40841F",
"7. c #48862D",
"8. c #4C813A",
"9. c #52863D",
"0. c #58963D",
"q. c #4F8040",
"w. c #568744",
"e. c #5B854B",
"r. c #5D8B4C",
"t. c #5D9346",
"y. c #5D8351",
"u. c #63984D",
"i. c #618D51",
"p. c #668959",
"a. c #659353",
"s. c #689357",
"d. c #689754",
"f. c #699B55",
"g. c #6D9C5A",
"h. c #68A54D",
"j. c #6BB548",
"k. c #6BA354",
"l. c #6DAA53",
"z. c #6FA15A",
"x. c #71AD57",
"c. c #72A55D",
"v. c #74AB5C",
"b. c #76B559",
"n. c #7ABA5D",
"m. c #6C8464",
"M. c #73826D",
"N. c #738C69",
"B. c #759966",
"V. c #7A8774",
"C. c #7B8A74",
"Z. c #7D9673",
"A. c #79AD62",
"S. c #78A864",
"D. c #7CB364",
"F. c #7EBB62",
"G. c #7FA171",
"H. c #7EC060",
"J. c #828D7A",
"K. c #84947D",
"L. c #849A79",
"P. c #81BC66",
"I. c #80B569",
"U. c #84BD6A",
"Y. c #88A67A",
"T. c #8AB776",
"R. c #8BB677",
"E. c #87C66A",
"W. c #86C16C",
"Q. c #89C46E",
"!. c #8CC671",
"~. c #8DCA71",
"^. c #91CD75",
"/. c #92C57B",
"(. c #94CC7A",
"). c #97D17C",
"_. c #878F80",
"`. c #8A9683",
"'. c #8C9B84",
"]. c #919B8A",
"[. c #8EA383",
"{. c #93A28A",
"}. c #96A98B",
"|. c #98B988",
" X c #9BA693",
".X c #9CAC92",
"XX c #9EB393",
"oX c #A1AE97",
"OX c #A1B496",
"+X c #A4B699",
"@X c #A6BA9A",
"#X c #A9BB9D",
"$X c #ACBCA1",
"%X c #B0BFA5",
"&X c #9CC687",
"*X c #9ACC84",
"=X c #9DD285",
"-X c #A1CC8D",
";X c #A2D28B",
":X c #A3D98A",
">X c #A8C698",
",X c #ABD895",
"<X c #AED49A",
"1X c #B1DA9D",
"2X c #B3E29C",
"3X c #AFC6A2",
"4X c #B2C3A6",
"5X c #B2CBA3",
"6X c #B5C5A9",
"7X c #B6CAA9",
"8X c #BACDAC",
"9X c #B7D7A5",
"0X c #B5DCA2",
"qX c #BBD2AC",
"wX c #BCDCAB",
"eX c #BDCFB0",
"rX c #BED3B1",
"tX c #B7E4A0",
"yX c #BAE2A5",
"uX c #BDE3AA",
"iX c #C2D5B4",
"pX c #C4DAB5",
"aX c #C7DAB8",
"sX c #CADEBC",
"dX c #C1E6AD",
"fX c #C4E4B2",
"gX c #C7E9B3",
"hX c #C9EBB5",
"jX c #CCE3BD",
"kX c #CDEBBB",
"lX c #D0EDBE",
"zX c #CDF2B8",
"xX c #D1F2BE",
"cX c #CFE3C0",
"vX c #D0E5C2",
"bX c #D4EBC4",
"nX c #D7EDC8",
"mX c #D9EFC9",
"MX c #D6F3C3",
"NX c #D9F7C6",
"BX c #DCF4CC",
"VX c #DEF9CB",
"CX c #E0F7CF",
"ZX c #E1FBCF",
"AX c #E0F6D0",
"SX c #E4FDD3",
"DX c #E8FFD7",
"FX c #EBFFDA",
"GX c #F1FFDF",
"HX c #F3FFE1",
/* pixels */
"{ { { { [ } } [ } } [ [ } [ [ } ] } } } | | } ] ^ P 0 ; O         X X X O X O X X O X O X O X O X O X O X X O X X       X + ; q l / _ } | | [ } [ } } [ } } } } } _ [ [ [ } } ' } ' ",
"{ { } { } [ ' [ [ ' ' } } ' } [ } } | | | | } _ ^ P q - +         X X X X X X X X X X X X X X X X X X X X X X X X         O - 8 l ! _ } | | | | | } [ } } } _ } } } [ [ } [ [ [ } [ ",
"} } { } ' [ [ ' [ } ' [ [ ' ' [ } } ] | | | } _ W I w , + X     X X O O O + + O O O + + + O O O O O + O + O O + X X X . X + , w k ^ _ { | | | } } } } _ } } [ } } } } [ [ [ } [ [ } ",
"} } } } } } [ } } [ [ } [ } [ } ] ] ] ] ] ] ] _ ~ W m r 9 4 $ < < 7 7 6 6 6 6 6 6 7 6 7 6 7 6 6 6 7 6 6 6 6 6 6 7 $ $ $ 4 9 e n W Q _ } [ [ [ [ _ } } } { } { { } _ } _ } ' } } [ ' ",
"_ } [ } [ } [ } } [ } } } } } } ] ] ] _ ] ) / ~ ~ ( Q V B B B B B B B B B B B B B B B B B B B B B B B B B B B B B B B B B B V V N ( _ ~ ^ ] ] ] } } [ } } } [ } [ [ } [ } [ } [ } } ",
"} } [ [ [ } } [ [ ' [ } } } } } ] ] / ^ T I W Q ( ( ` #.%.%.%.%.%.%.%.%.%.%.%.%.%.%.%.%.%.%.%.%.%.%.%.%.%.%.%.%.%.%.%.%.%.%.#.#.( ( W T T T ^ ^ _ _ } } | } } } } ' } [ ' [ } } [ [ ",
"_ } _ [ } [ } [ } [ [ } } } | } ] ] ^ P P q w m N #.&.e.r.r.a.a.i.i.r.i.r.i.i.i.i.i.i.r.i.i.i.i.i.i.r.i.i.i.i.i.r.a.a.a.a.y.=.%.#.N I w w h P Y _ { } } } | [ [ } ' } ' ' } ' [ } ' ",
"} } [ [ ' [ } ' [ [ ' } | | | | ] _ P h 0 ; , e V #.e.a.g.S.S.z.c.c.c.g.c.z.g.c.g.c.g.c.c.g.g.c.z.z.c.g.c.g.z.z.z.S.c.c.c.g.a.y.-.( e , ; 0 P T ) [ | | | } [ [ [ [ [ } [ [ } [ } [ ",
"} _ } } { { { } [ [ [ } | } | } } / P q ; - - 9 V *.i.g.A.I.I.P.I.D.D.D.A.D.D.A.D.D.D.A.D.A.D.D.D.D.D.D.D.D.D.D.D.D.F.D.D.S.c.i.*.D t - - - 0 P ) [ } | | } } ] } ' [ } ' [ [ [ [ [ ",
"} } } _ } [ } { [ [ [ } } | | } } / P q - - + x F e.g.A.P.W.E.E.W.U.U.U.U.U.U.U.U.U.U.U.U.U.U.U.U.U.F.W.U.U.U.F.U.W.Q.!.!.F.S.g.=.F x + - ; q I / [ } | } } } } [ } } [ [ } } [ [ [ ",
"} _ } } { } } [ } [ [ } ' ' } } ' ~ k e 0 4 r V %.i.c.D.U.~.~.~.~.E.!.W.E.!.W.E.Q.E.!.!.E.!.E.E.W.!.E.Q.Q.Q.!.!.!.~.~.~.~.W.D.c.i.J V r 4 0 e I / ] ] } } } ] { } [ ' [ [ } } } } [ ",
"} } } } } } } } } ' ' ' _ _ ) ) / ~ Q N n B D %.e.g.A.P.!.~.^.^.^.~.~.!.~.!.~.~.!.!.Q.!.!.!.!.!.!.!.!.!.!.!.E.~.~.~.^.^.~.~.F.S.g.y.J D B n N N Q / / / / ] ] ' ' } } [ ' [ } ' ' } ",
"} [ [ [ { } } } { { ' _ ) R W W Q N ( ` #.F *.r.g.c.I.U.~.~.^.^.^.~.~.~.!.~.~.Q.~.!.!.Q.Q.!.W.!.!.!.!.~.~.~.~.~.~.^.^.^.~.~.U.D.S.f.r.=.#.F ` ( Q Q W W ! ^ _ ] } } } } } } } } [ [ ",
"_ [ [ [ [ } } } { { _ / W m l l m ( F #.=.i.d.g.c.I.U.W.~.~.^.^.^.~.^.~.~.~.!.!.!.E.W.!.Q.E.!.W.Q.Q.E.!.~.~.~.~.~.^.^.^.~.~.W.U.D.S.c.a.r.=.%.#.( m l l I ! / ] [ } } } } } ' } } } ",
"[ [ } [ } } } | } { ' ^ W h q q n B #.=.a.g.c.I.U.U.U.Q.!.~.~.~.~.~.~.~.!.!.E.W.W.W.W.!.W.!.U.!.W.Q.!.E.!.!.~.~.~.~.~.~.~.!.!.W.U.D.D.S.g.i.=.#.B n q q w W / _ [ } | } } [ [ } ' } ",
"} ' } } { } } } } } _ W P q , , r V %.i.g.c.U.U.U.W.W.Q.!.E.~.E.~.E.!.E.E.!.!.W.W.W.W.U.W.U.W.W.W.W.Q.Q.E.!.E.~.E.~.!.!.!.!.Q.W.W.W.F.F.S.g.r.%.V 9 , , q l W _ } } } } } [ } ' [ [ ",
"[ } } ' [ } } } } } ] W w 0 - + 7 V *.a.I.I.U.Q.Q.Q.Q.W.U.W.W.W.W.F.W.U.U.Q.W.W.W.U.W.U.U.U.W.W.W.W.W.W.U.W.U.U.W.U.U.W.U.W.W.W.Q.!.Q.W.I.c.a.J D 7 O + 0 h W _ } | | [ [ ' [ [ } } ",
"' } } [ [ } } | } } _ W w ; + X $ b *.s.k.P.Q.~.~.Q.U.P.D.D.D.D.D.D.D.D.D.D.F.F.U.W.W.W.!.!.W.W.U.U.U.U.P.D.D.D.D.D.D.D.D.D.F.U.E.~.^.Q.U.v.s.*.D $ X + ; w W _ [ } } [ } [ [ } } } ",
"[ } ' } } } | } | } ) I q +       b J s.I.U.~.^.Q.W.D.x.c.f.f.u.d.f.f.k.S.S.D.F.U.U.W.!.W.!.W.W.W.F.D.S.v.c.k.f.f.f.d.d.f.k.S.D.P.~.^.~.W.v.f.J b       + 8 P ] [ | } | } } } } } [ ",
"[ } [ [ } } | | | } ) j q X       a G s.I.U.~.~.W.D.x.u.w.J J J G J 8.w.r.u.z.A.P.U.W.!.W.!.!.W.U.F.A.c.f.r.9.J H H H J 8.w.a.l.D.W.~.~.W.D.a.J a       X q P ^ [ | | | | } ' [ } } ",
"' } [ [ } } | | | | _ U 5         & H u.I.P.E.E.P.v.u.8.Z s p p p p s Z G w.u.c.D.U.!.!.~.~.~.!.W.D.v.u.w.G A a p p p p s A J u.v.P.~.^.W.D.u.F %         5 U R } | | | | ' } [ [ [ ",
"[ [ } ' } | | | | } ) U 5         & F u.I.P.~.E.I.k.w.F p o           & s G r.k.D.U.!.~.~.~.~.E.U.D.z.r.G s &           o p A w.z.P.E.Q.W.v.u.G &         5 U ) | | | | | [ } [ } } ",
"} [ } } [ } | | } } ) T q + X     b *.d.I.U.U.U.I.f.=.b *             o v G e.f.D.U.!.~.~.~.~.E.U.D.z.y.#.c o X           = V w.f.I.U.U.U.v.d.J v       - q Y ] } } } | [ [ [ [ [ [ ",
"' } [ [ [ [ [ ' ] ] _ / E E u i D $.=.s.I.I.P.P.v.f.<.$.E t 3 3 3 3 t i X.>.s.S.D.U.!.E.~.~.E.E.U.D.S.i.=.#.i t 3 3 3 3 t E #.y.s.A.I.U.I.I.g.y.$.D i i E E / ( } [ [ [ } ' [ [ [ } ",
"} } [ [ [ ) ) R ) ) ` -.-.1.1.3.4.N.B.L.S.S.A.S.S.B.p.3.2.2.2.2.2.2.2.2.4.B.B.D.I.P.W.Q.E.E.E.E.U.D.D.B.N.m.3.2.2.2.2.2.2.2.4.m.B.B.v.A.S.S.B.B.N.3.3.1.1.-.-.' ) N R ) ) ] ] [ } } ",
"} } [ } _ ^ m z z R ` -.3.V._.'.K.].L.L.B.s.f.s.B.B.Z.K.`.`.].].].`.]. X{.[.Y.R.U.P.F.H.H.H.H.H.U.T.R.Y.[.{.].].].`.].]._._.K.K.B.B.s.f.g.B.G.Y.[.].'.K.V.3.;.` N z U R ) _ [ [ } } ",
"} } } ' _ Y j 8 w l X.3.Z.{.oX#X#XOXR.Y.B.i.=.=.m.Z.[..X@X$X%X4X%X%X%X%X3X>X&X|.W.P.n.b.b.j.b.H.F.U./.&X>X>X4X4X%X%X%X%X$X+X.X[.L.p.>.*.y.B.L.}.@X3X$XXX{.C.3.` g 8 f j Y _ } [ } } ",
"} } } [ _ z f * # w ` M.'.+X7XiXiXiX#XY.m.$.D #.m.L..X3X8XaXsXjXcXcXvXsXrX9X>X*XE.H.b.j.j.j.j.b.F.!.&X>X9XpXsXcXcXcXcXsXaXeX>XXXK.p.$.C $.m.[.#X7XrXrX7X+X[.M.X.w * * 8 z ) [ [ } } ",
"| } } [ ) j 8   . 5 X.C.}.7XaXlXlXaX3X}.3.D r  .3.Y.#XiXjXMXBXCXAXAXBXBXbXfX0X;X/.P.b.j.j.j.j.b.P./.-X0XfXvXBXAXAXCXCXBXmXjXrX#X[.3.( r ( M.}.5XcXbXvXrX6X}.V...5     8 j ) [ } } } ",
"| } } [ ! f #     O o.C.OXqXbXCXCXlXiX.X4.D > i 3.{.4XjXBXSXDXFXFXDXSXBXMXhXwX<X*XW.F.b.x.b.n.F.!.&X<XwXhXMXBXSXDXDXFXDXSXBXjX4X[.3.M > E M..XrXvXBXZXnXqXOXJ.o.O     # f ~ [ } | } ",
"} } } _ ! f .     X o.J.#XpXmXZXDXCXiXOXJ...r D M..XqXlXAXDXFXFXDXSXAXBXbXhXwX<X;X*X!.!.W.W.!.!.*X&X<XuXhXbXBXAXSXFXFXFXDXSXbXqX.XM. .r ..V.XXrXBXSXSXmXpX#XJ.o.X     . f ! [ } | } ",
"} | | [ ! f         o.J.#XaXBXDXFXCXsX>XJ.$.V $.Z.OXqXnXSXFXFXDXAXmXvXjXfXrX9X1X>X,X-X-X=X=X=X-X;X<X0X9XwXpXjXvXmXCXDXFXFXSXnXqXXXZ.$.C $.L.3XcXAXSXDXBXpX#XJ.o.        f ! [ } } | ",
"} | } [ ! f         o.J.$XaXBXDXFXVXkX3X[.p.=.p.Y.>XpXMXSXDXSXAXvXaXqX7X5X5X5X9X1X0X0X0X0X1X1X0X0X1X5X5X5X5X7XqXsXvXAXDXDXSXmXpX#XY.p.=.p.Y.3XkXSXDXDXBXaX#XJ.o.        f ! { { } } ",
"| } } _ ! f         o.J.@XaXBXDXFXSXvX9X|.S.f.B.R.>XfXmXSXAXAXvXrX4XoX}.}.OX>X5XwXfXhXhXhXkXhXhXfXfX5X>XOX}.}..X4XiXvXmXSXAXMXfX>XR.B.a.S.&X9XkXSXFXDXBXaX#XJ.o.        f ! { } | } ",
"} } } } ! f         o.J.+XiXmXDXDXSXxX0X&XI.v.I.|.0XgXBXCXCXnXaX%X{.V.4.V.Y.+X5XpXlXMXMXNXMXNXMXlXfX9X+XY.V.4.C.{.3XpXnXCXZXBXgX1X&XI.A.I.&XwXxXZXDXDXnXiX+XK.+.        f ! { } } } ",
"[ | } _ ! f .     X o.J.oXiXbXZXSXVXxXwX-X!.P.T.&X9XhXNXZXBXvX8X.XV.@.( ;.C.XX8XjXMXZXDXDXDXZXZXMXjX7X.XC.;. .@.M..X8XvXBXZXBXhX0X&XT.U.T.-XuXkXVXDXAXbXiX+XC.o.X     . f ^ { } | } ",
"} | [ ] R j *     @ o.V..X6XsXnXBXMXhX0X;X~.!./.;XyXzXNXZXBXsX6X].,.7   u 3.}.8XjXAXFXFXGXFXFXDXCXvX7X}.3.i   7 :.].6XcXBXZXVXkXyX:X^.W.~.;X0XhXNXBXmXsX7X.XC.+.@     * j ^ _ { | [ ",
"| [ [ } ) z 8 .   5 X.M.{.$XeXsXkXhXuX<X*X~.!.(.,XuXxXVXCXAXsX4X`.@.    + ,.{.7XvXAXFXGXHXHXHXFXAXvX7X{.,.+     @.`.4XcXBXAXNXxXdX:X(.~.~.*X<XfXhXjXsXrX$X{.M.+.5   . 8 j ) [ } } [ ",
"[ [ [ } ) m f 8 5 e X.3.`..X$X7XqX9X<X-X(.!.^.).,XdXxXVXAXAXcX%XK...      ,.{.7XvXSXFXHXHXHXHXFXSXvX6X{.:.      ..`.%XsXBXSXZXxXdX,X).~.~.&X;X<XqXqX7X$X X_.3.X.e 5 8 f m ) [ } } | ",
"} } } } _ R j j f I ` 1.M._.]..XOX@X|.|.!.E.^.).2XdXNXZXDXAXcX%X`...      ;.'.6XjXCXFXFXHXHXFXFXCXjX7X].;.      ..`.4XvXCXDXZXxXdX2X=X~.E.T.R.|.XXOX.X{.K.M.1.( m f j z R _ [ } } } ",
"} } } _ ) ) R Y Y W ` -.1.3.4.C.K.L.Y.I.I.P.~.).2XdXxXZXDXZXvX6X`.o.      ;.[.4XjXVXDXFXFXHXFXDXVXjX7X'.;.      ..'.%XvXAXDXSXMXgX2X=X~.H.F.T.Y.Y.K.C.M.4.1.-.( ! m U R ) [ ' [ [ } ",
"} } } } [ } ) ) _ _ ' ( ` +.+.;.,.p.p.g.x.P.Q.;X2XgXNXZXDXAXvX6X].;.    @ ,.{.4XjXBXDXFXFXFXFXDXBXjX4X].,.@     ;.].7XvXAXDXZXMXdX2X=X~.F.x.g.s.<.,.@.+.+.+.` ' ) ) ) [ ' } [ [ [ [ ",
"[ } } } } } } } } { _ ^ I 0 ; 2 r D J t.f.b.W.).1XdXxXZXZXBXjX6X{.3.y + M 4.}.7XjXBXDXDXFXFXDXDXBXjX7X}.3.M O y 2.{.7XjXBXAXVXxXdX1X=XW.b.h.w.J D r 2 ; 0 P ! ) [ [ } } } } [ [ [ } ",
"{ } } } } } | | | } ) U q - X     & s H 0.k.U./.;XyXhXbXNXmXjX7X.XV.;.o.2.K.+XrXbXBXSXDXFXFXDXSXBXbXrXOXK.3.o.:.V..X7XjXMXNXMXhX0X,X/.D.k.t.H s &       - q U ) } | | | } } [ [ } } ",
"[ } ' } } | | | | | ) U w @       & a Z 8.u.c.T.-X<XdXgXkXkXfX7XOX[.C.C.'..X4XpXnXBXSXDXFXFXFXSXZXbXpX4X.X`.C.C.{.#XqXpXkXkXhXwX<X&XR.c.u.q.Z p % X     ; w U ] | | | } | [ [ [ ' [ ",
"} [ [ } } } } | | } ] R j 8 # . o 8 a v F 8.i.S.R.|.<X9XdXfXfXwX<X@XOXOX#X8XpXvXBXSXDXFXFXFXFXDXSXBXvXpX7X#X+XOX@X>X9XfXfXdXwX<X&XR.G.a.q.S s a & o X # q P Y ] } | | | } [ [ } } [ ",
"' [ } [ } } } | | [ ] ) U j f f f f f a v S %.p.S.R.&X>X1XyXyXwX9X9X8XqXpXsXbXBXZXSXFXFXFXFXFXDXDXAXBXbXsXpXqXqX5XwXwXyXyX1X,X&XR.B.i.%.S g g g f f f h U U ^ ] } | } | } } [ [ } ' ",
"[ } ' } } } } } [ [ ] ] ) ) ) ) z m g f 8 9 B %.p.B.I.~.;X,X1XyXfXpXjXbXnXBXBXAXSXDXDXDXFXFXDXDXDXDXAXBXBXmXvXjXfXdXyX2X,X;XR.I.B.p.%.v c f f g m R R R ^ ) ] } [ } } } } } } } [ } ",
"} [ [ } } ' [ [ } ' } } [ } } [ _ ^ I q ; + 6 B %.r.z.I.!.-X,XyXdXkXmXBXAXSXSXDXSXDXSXDXDXSXDXDXSXSXSXDXSXAXAXMXkXfXyX,X=X!.D.z.r.J B 7 + , q I ^ _ [ } } } } ] [ ' } } } } } } [ [ ",
"} ' } [ [ [ [ } } [ } [ } } } } ' / I q , - > c S H 0.h.b.!.;X,XuXkXNXAXSXSXAXAXBXVXBXBXBXBXBXCXBXVXCXAXSXSXAXmXkXuX0X=X!.b.h.t.J S x > - , q k / _ } } } } } } [ } } } [ [ ' ' [ [ ",
"} [ ' [ [ [ } } } } } ' _ } [ [ / ~ I k e r r b Z H 7.0.h.A.R.-X0XfXvXMXmXmXnXbXbXjXjXjXjXjXjXjXjXbXbXnXmXBXMXbXfX0X-XR.b.h.0.7.H A B x 9 e k W / / } _ ] ] ] { } } [ } } ' } } [ } ",
"' } [ } [ } [ | } } [ ' ) ^ ! R W Q Q ( ( D #.#.G H H 7.0.g.I.|.@X5XeXaXaXaXiXrX8X8X7X8X7X8X7X8X8X8XrXiXpXaXiXqX5X>X|.S.f.0.7.H H G F F X.C ( N W W ! R ^ ^ ] ] } } } } } [ } } [ } ",
"[ } [ } ' } } } | } ] _ R P P q l m ( #.*.=.e.e.9.J H H H 9.p.B.Y.}.XX@X#X#X+XXX.X.XXX.X}.}..X}..X.XOX+X@X#X@XXX}.Y.Z.i.q.H H H 9.w.e.e.=.*.#.( m l h h P T ^ ] } | } | } } } } } [ ",
"} [ } [ } } | } | ] ] ^ P q 0 , 0 n F =.i.g.z.g.a.r.H F A S #.>.3.m.V.C.J.C.V.V.V.M.M.M.M.M.V.M.M.V.V.C.J.C.C.V.m.3.$.#.S S A J e.f.g.g.f.i.=.#.n 0 ; 0 w P ^ ] } | | } } [ } } ' [ ",
"' } } ' } } | | } } ] W w 0 ; ; : x #.r.g.c.I.v.c.a.*.F x 9 7 y M  .X.X...o.........X.........X.........o.o.X... .M y t 9 c S =.a.z.S.D.S.g.e.F x , - - 0 h ^ ] } | | } [ [ [ } ' } ",
"[ [ [ } } } } | | } _ W h 0 - - 7 V *.s.S.U.U.U.v.f.=.D r + O O + - > < < 7 4 > $ < < > 4 > $ 4 4 < < < 4 < < > - + O X O 9 C e.s.A.F.U.P.A.s.*.V 6 + - 0 w W ] } } | } } } } [ [ } ",
"] } } { } ] { ] ] ] _ N k w 5 6 c F i.z.I.U.Q.U.D.z.e.F r + + - 2 7 t y y u y y y y y y y y y y y y y y y y y y t ; + + - r F e.z.D.W.E.W.D.z.i.F M 6 5 e k ~ _ [ [ } ] { { { { } } ",
"} } { { ] _ ] / / / ) ~ N c c b F *.a.c.P.E.~.E.D.c.i.%.C M M M ..;.,.,.,.,.,.,.:.,.:.;.:.;.:.:.:.:.:.,.2.1.:.:.;.o.D M B C %.a.c.I.W.!.W.U.c.s.w.F V B n N Q ( ) N ) ) ] ] { { } } ",
"} } } { _ / / ^ T W E N V S S F 8.t.k.D.U.Q.~.Q.U.A.f.w.&.%.>.3.M.J.L.'.].'.'.'.`.K.K.K.K.K.K.K.K.`.`.'.[.].`.`.J.N.p.<.=.=.r.f.v.P.W.!.W.U.A.c.a.e.%.#.` S ( N N ! ! / ) ] { { | } ",
"} { { { _ / W I P k E N S S J 9.t.f.x.n.U.~.~.~.W.D.l.d.a.s.B.Y.}.XX#X5X4X4X4X#X>X#X#X@X#X#X#X#X$X>X$X4X4X4X%X$XXX|.Y.Z.g.f.k.l.D.U.W.Q.!.U.I.v.c.g.a.y.&.#.( N l g l T / _ { { } } ",
"} } } ] _ ! I w q 9 n V S q.t.u.k.x.n.F.Q.E.!.!.E.F.x.l.c.S.R.|.>X8XpXsXjXsXsXaXpXpXiXpXrXpXiXpXiXpXaXsXsXcXsXaXqX3X-XR.D.A.x.b.n.P.W.W.Q.U.U.P.A.A.c.d.e.*.D n e q w I W ) { { } } ",
"} | } ] ) W e 0 , 5 c S q.t.h.b.n.F.W.W.E.E.!.Q.W.F.D.n.n.T.&X>XwXfXbXmXAXBXBXmXnXnXbXnXnXbXnXbXnXnXmXBXBXAXmXbXgXqX<X&XR.U.b.F.P.P.U.W.U.U.U.W.U.U.D.c.s.=.F x 4 ; 0 h W / { } } | ",
"} | } ] _ l q ; - - x #.y.g.A.F.Q.!.!.!.W.W.W.U.F.F.n.n.P.~.*X1XfXkXMXSXSXDXDXAXZXZXAXZXZXZXZXZXSXAXAXDXSXSXZXmXkXuX1X*X/.U.F.b.P.P.U.W.W.Q.Q.!.!.W.U.A.g.e.F x - + ; q I ) { { } } ",
"} } } ] ) l 0 + X + x %.m.S.&X*X=X=X*X/.!.D.D.D.D.n.n.H.E.(.;X1XdXkXMXCXSXSXDXFXDXDXDXDXDXDXDXDXDXSXDXDXSXSXZXMXkXuX<X&XW.F.b.b.F.P.U.U.W.Q.E.^.^.^.U.D.z.e.F r + + - q I / { } } } ",
"| } } ] ^ P 5 X   X M >.L.R.-X<X1X,X:X(.T.S.c.c.c.x.n.F.W.(.:X,XtXgXzXMXNXVXSXSXDXDXFXFXFXFXFXFXFXSXSXSXVXVXMXkXuX1X-XR.I.v.l.l.b.D.F.U.W.W.E.~.^.~.E.I.g.e.F x X O 2 6 I / ] } | } ",
"} | ] ] ^ h :       D 3.Y.@X1XdXdXyX<X-XT.B.i.t.u.h.b.F.E.).=X:X,XtXuXzXzXNXNXVXSXDXFXFXGXFXGXFXFXSXVXNXNXzXuXyX5X-XR.Y.B.a.u.u.k.x.n.F.H.E.E.~.~.~.U.I.I.e.F x X O - q I / ] } | } ",
"} } } ] ! h @     X ..M.Y.5XdXzXxXgXiX@XY.p.*.J 9.u.x.F.E.^.).=X=X,X,XyXuXhXMXNXSXDXFXGXGXGXFXFXSXZXBXMXhXuX0X,X|.R.L.s.e.*.q.t.u.l.b.n.n.E.E.~.E.E.I.I.a.e.F x + - ; q I / { } } | ",
"| } | ] R h .       ..C.OXiXjXCXCXlXdX@XL.<.C v Z w.k.F.E.^.^.).(.).=X=X2XyXhXMXBXSXFXFXGXFXFXFXSXAXMXgXuX<X*X/.I.c.i.=.F C F J t.k.b.D.H.E.E.E.P.P.I.I.d.=.F x ; - ; q I / { } } } ",
"} } } ' ^ f #     O ..C.XXrXbXAXCXlXiX+XJ.o.r % s 9.u.D.W.!.~.E.E.H.E.~.=X1XuXkXmXZXSXDXFXFXDXSXZXnXzXuX2X=X!.D.k.t.G C r r n G e.z.A.P.E.E.~.~.Q.Q.U.I.f.e.F x @ + , q I / ] } } } ",
"| | } ' ^ j *     # o.C.XXeXvXBXmXlXiXoXV.O.+   p A r.c.P.U.W.P.n.j.b.F.!.&X1XfXvXNXZXZXSXSXSXZXNXMXuX0X,X(.F.x.u.8.b = + - x $.s.S.T.!.^.^.^.^.^.U.U.I.f.=.F x ; - , w I / ] } | } ",
"[ } } [ ) z 8 .   8 +.M. X4XrXvXjXiX%X X4.L X   % b w.d.c.v.x.l.h.0.t.h.D.|.-X9XfXMXMXNXmXNXmXMXvXgXyX1X=X~.F.l.0.6.s %   + i >.B.Y.&X=X:X:X=X=X^.Q.P.I.f.=.F r @ + ; q I / ] } } } ",
"} } } ' ) z f 8 5 h -.M.'.XX4XeXiX%XoXJ.,.K X   o a S w.r.u.t.0.7.5.6.0.k.G.&X>X0XfXhXkXkXkXkXfXuXyX1X,X*X~.H.l.0.6.a o   -  .3.'.&X<X0X2X2X,X:X^.P.P.I.d.w.F r + + - q I / } } | } ",
"} } } } ) ! z z g m ` 1.C.[.}.XXoX X_.4.@.y +     & s A F H Z Z d p p Z 0.g.T.&X,XtXuXuXuXuXuX9X9X1X,X=X).!.H.b.t.7.s %   3 o.V.}.5XuXfXzXdX2X2X).^.E.b.u.9.F x + + ; q I / ] } } | ",
"} } } } [ ) R z Y ! | -.1.M.V.C.J.4.3.@.O.t +     o & & p p p p % o p p A r.G.R.&X:X2X,X1X,X,X;X;X-X*X*X*X!.F.D.k.9.s %   t ;._.@XrXkXNXNXzXgX2X:X^.E.x.u.9.D x + + - 0 I / } } | } ",
"' [ } } [ [ [ _ _ _ ` ' -.X.-.;.o.O...D y t @ + X   . o o o         X o v &.s.S.T.(.=X=X=X*X*X(.*X/./.!.!.!.!.D.k.w.Z &   u 2.`.$XaXMXVXVXxXzX2X;X^.n.l.u.J S r + + ; q I ^ ] } } | ",
"} [ } } ' } } } { ' ' / m l 9 : + O O + @ @ > # $ : > > > $ ; + O + + < B &.i.z.D.F.Q.!.E.E.Q.W.F.W.W.!.!.!.W.D.z.w.A &   u 2.].%XaXnXZXZXMXgX1X:X!.n.l.t.J S x , + , q I / ] } } } ",
"} [ ' [ } } | | | } ) R j 5               O $ t i i  .O.O.o.+.O.O.O.O.O.;.>.i.s.z.b.b.D.b.b.F.n.F.F.H.~.~.E.W.F.c.r.A & o y 2._.$XeXcXmXnXvXdX<X*XT.v.u.0.G S x 4 , 0 h T / ] } } } ",
"[ [ [ [ [ | | | | } ] R f 8 .               : u  .@.2.4.V.J.J.J._.J.4._.C.N.N.s.f.u.h.h.j.b.b.n.H.H.H.E.E.~.!.F.c.t.S a o t @.J. X%XiXaXsXrX5X>XR.A.f.t.&.G S n e q w I ^ ) ] [ } } ",
"' [ [ } } } | | | | ] R z f 8 *             :  .;.4._.].oXoX$XoX$XoXoX.X.X[.Z.B.r.t.0.0.h.h.b.F.H.H.~.~.~.~.E.W.A.a.J s * 7 O.2._. X$X%X3X>X.XR.G.s.r.&.G S S N k l I W ^ _ ] } } | ",
"} } ' } } } } } } } ] ) R z j f 8 = #       @  .3.K. X%X6XiXiXaXaXiXiXeX5XXX[.Z.m.q.S 7.t.h.D.H.!.~.~.^.^.^.~.F.A.u.&.b 6 2 i @.4.V.].].{.L.L.N.p.=.J F S ` ~ ~ W W ! ^ _ [ ] [ } [ ",
"} } ' } [ } { [ } [ [ [ [ ) ) R R j 8       > o.M.].#XiXsXvXmXAXCXmXlXjXaX6X.XJ.<.D s H 9.u.D.W.~.~.^.^.^.^.Q.U.A.f.=.V 9 + 3 K O.2.2.4.3.<.,.$.F D V V V N ( ~ ) _ _ _ } } } { { } ",
"[ [ [ } [ [ [ _ [ [ [ [ [ [ [ ) _ T 8 .     : @.C..X7XsXmXSXDXDXDXDXAXmXjXiXOXJ.,.i & a G u.v.F.E.~.^.^.^.~.Q.I.v.f.=.F r + + - 1 y i D M M i y t r 9 x m W ~ / { { { ] } } _ [ { [ ",
"} ' } [ [ } } } } [ [ [ } | } | } ! f #     # ;.J.OX7XjXCXZXDXFXFXDXSXZXlXiX.XJ.@.1   % s e.k.D.U.Q.U.~.Q.E.P.I.c.a.=.D r +                     X + , 0 l m / _ } } } } } } } { { [ ",
"[ [ [ } } [ } } } } [ [ [ | | | [ ! f #     > o.C.}.5XgXMXZXDXSXDXSXZXNXjXiX.XJ.@.-     s &.a.S.I.I.P.P.I.I.I.v.s.i.%.V r O                     X + ; 0 l W / ] | } | | } } [ [ } [ ",
"} [ [ } { } { } [ { } } | | | } [ ) f # X   @ o.N.}.>XiXkXxXNXNXZXxXNXzXdX5X}.N.+.-     a F w.d.k.c.c.c.c.c.c.s.i.=.#.M r +                 X + + , 0 w I W ) { | } | } } } { } [ [ ",
"} ' [ } [ } } } } { } } [ | [ | [ ! j :     O ..<.Y.|.5XuXgXzXzXzXzXzXdX1X>XY.m.o.-     * b %.e.i.i.a.a.i.s.y.e.*.F V x $ O X O O $ 5 * 5 8 8 8 q w l I ! ~ _ { [ | } | | [ } { [ [ ",
"[ } } ' } { { { [ } [ } | [ | } } ^ h 5 X   + B <.B.R.-X2XtX2XtX2X2X2X,X-X|.L.p...<     o c V F %.%.%.*.J F J F D D x 7 $ + + : 8 f f j z z Y l T I W ^ ~ ) [ ' [ } | } [ [ { [ [ } ",
"} } [ [ { [ } } { { } } [ [ | } } ^ l 5 + X + M $.s.I.Q.).).:X:X:X:X:X-XR.I.B.>.D 7 X X + 4 r B B B B B M M D v r r 7 $ + @ 5 9 l m ~ ) ) _ ) _ / _ / _ _ _ [ [ [ } [ [ [ [ { } [ } ",
"' [ [ } ' [ } ' { { { } } } | [ { / I q - + > x F i.z.D.U.!.~.~.E.~.Q.U.I.c.a.*.V 6 + X X + @ 4 < < 4 4 < 4 4 < $ @ + + @ $ 9 e m W _ { } } [ } } } [ } } } [ [ ' } [ [ ' } } [ } } ",
"} [ } [ [ } [ [ ] } { } } } } } { / I w 0 , 6 c F =.t.k.A.b.F.F.P.P.P.x.l.u.9.F b 6 + X X O O O O X O X X O X O + + + @ : 9 k m Q / { } | | | } } | } } } } } [ [ [ } ' [ [ } [ } [ ",
"} [ } [ [ } } } ] } } } } | } } { / W I w w e n F G w.t.h.h.k.l.l.l.l.u.u.9.J F c 4 + X X X X X X           X X + + - 5 9 k m W ~ _ ' } [ | | | } } } | } } } } } [ } } [ } } ' } [ ",
"' [ } ' } [ [ ' } } ] ] } } } } { _ ^ E I I m N V F J q.9.w.0.t.0.t.t.0.J J F b r $ + O O X X X             X O + ; 5 9 l k m ~ / _ { { | | | [ | } } } } } } } ' } [ [ ' } [ } ' [ ",
"} } ' } ' [ } ' { } } } } } } } { _ / / W W W Q ` S F F G J J J H J J H F F v c r # O X O X O X X X X       X + ; 5 e k m Q ! _ _ _ } } [ | [ [ } } } } } } ' } [ } ' [ } } [ [ } [ ",
"' [ [ } [ } } [ ] } ] } { } } } { _ _ _ / _ / ~ ~ N C V C b D D D V D b b v r r $ @ O O O O O O O O X X X X O + 5 e k W ~ ) _ _ } } } [ [ [ | [ } } } } [ } [ [ [ } } [ [ [ } ' ' } ",
"[ [ [ [ } } [ } } { } ] { } } { { { { { [ ' ' ) ~ N m n r r r = r r r r r 7 7 $ < @ + + + + + + + + + O O O + 4 9 k m ! _ ' } } [ [ { } [ [ ] ] [ } ' } } ' [ } } [ } [ } ' ' } [ } ",
"[ } ' } [ [ [ ' ] } { } { { { } { { } { | } [ _ ^ T e 6 : O X X + + + + O @ , : > > 4 4 4 4 4 4 4 > : : @ @ 4 6 e m Q _ ' { | [ } [ { } [ [ [ [ [ [ } } [ [ [ ' } } [ ' [ } [ [ } [ ",
"} [ [ } ' [ [ [ } ' [ [ } [ [ } } ' } | | } } [ N m h 5 - - + + + - - - ; ; , 5 5 9 9 9 9 9 9 9 9 9 6 6 0 6 9 e k W ~ _ } | | | } } } [ [ [ } } ' } [ [ } [ ' [ } } ' [ } ' [ [ } ' ",
"' } } ' } } } } [ [ ' } } ' } [ } } } | | | } [ ) R l q 0 ; - - ; ; , , , 0 q e e e k k e k k e e l e e e l e k m Q / _ } } | } | } } [ [ } ' } ' } ' } } } } } } [ [ [ } [ [ ' } } ",
"' } [ [ [ [ } } } [ [ } ' } } ' } } } } } | } [ / ! T l w w q q q q w w w l l k I m m m I W I I m m m m m m m W Q / _ ' } | } } } } [ [ } ' ' } } } ' [ [ [ [ [ ' [ [ ' [ } ' } } } ",
"} } ' } ' } [ [ } ' } [ [ } [ [ } } } [ } } } [ ] / ^ R W I T I T I T T T W ! W ~ ~ ! ~ Q ~ Q Q Q ! Q W W Q W / / / _ _ } } } } } [ } [ [ [ } [ } [ [ } [ } [ ' } } [ } } } [ } ' } ",
"} ' } [ [ } ' [ [ } } [ [ } } ' } } ' } [ [ } } ] ] ] / / / ) / / ] / ) / ] ] / / _ _ ) ' _ / _ _ ) ~ _ _ _ ) _ _ ' [ [ [ [ } [ } } [ [ } } [ } } [ } } [ [ } } ' [ [ [ [ ' } } } [ ",
"[ } ' } } ' } [ } [ ' } } [ [ [ } } } } } [ ' ' ] ] } { { { [ [ ] ] [ [ { ] [ } _ } _ ] ' ' _ ' } } [ [ ' [ [ } _ ' } { [ [ } [ } } ' } [ ' ' } [ [ ' [ [ [ [ ' } [ } } } } [ [ ' } ",
"} [ [ [ [ [ } } [ } [ [ [ } } [ [ [ } [ [ } } } ] } } } } } | [ [ [ [ } { } } } } } [ | | } { } | [ } } [ } [ } { } } } } } [ [ [ } ' [ [ ' [ [ } } ' [ } [ [ } [ } } } [ } ' [ [ } ",
"[ [ [ [ [ } ' [ [ ' ' } } [ ' } ' } [ ' } [ } [ { { } } } } } | } | | [ } } | } } | [ | } } | } } } | | } } [ | } } } } [ } } ' } [ [ } } } [ } [ ' } } [ [ ' } ' } [ [ [ ' } [ [ } ",
"' } [ } [ ' } [ } [ } } ' [ [ } } } [ [ } [ } } } } } } } } | } } | } } } | } } } } | } } } | } } | } | [ | [ [ } } } } } [ [ [ } [ } [ [ ' } } [ } [ } ' [ } [ } [ } [ } ' [ } [ ' "
};
