/* XPM */
static char *result[] = {
/* columns rows colors chars-per-pixel */
"90 105 248 2 ",
"   c #000000",
".  c #000C05",
"X  c #00000C",
"o  c #001504",
"O  c #000013",
"+  c #00011B",
"@  c #020C1C",
"#  c #031719",
"$  c #111A1E",
"%  c #002900",
"&  c #003800",
"*  c #002818",
"=  c #0D2C19",
"-  c #000023",
";  c #000828",
":  c #051922",
">  c #0B1C23",
",  c #011428",
"<  c #111E24",
"1  c #19112B",
"2  c #120B30",
"3  c #240935",
"4  c #052628",
"5  c #152825",
"6  c #172826",
"7  c #01362A",
"8  c #19342B",
"9  c #012933",
"0  c #003435",
"q  c #063937",
"w  c #173B33",
"e  c #253928",
"r  c #272931",
"t  c #2B3433",
"y  c #2E393A",
"u  c #353B3B",
"i  c #034800",
"p  c #124E10",
"a  c #245918",
"s  c #246512",
"d  c #004334",
"f  c #0B4C31",
"g  c #05453B",
"h  c #014D3B",
"j  c #1B453B",
"k  c #18463B",
"l  c #07523E",
"z  c #2B422B",
"x  c #294929",
"c  c #2C5128",
"v  c #35572D",
"b  c #284935",
"n  c #234D3D",
"m  c #374739",
"M  c #2B543D",
"N  c #365334",
"B  c #375936",
"V  c #3C5C3B",
"C  c #366B26",
"Z  c #376829",
"A  c #3C6436",
"S  c #415B3B",
"D  c #45683A",
"F  c #457635",
"G  c #487A33",
"H  c #4A753B",
"J  c #4B7B3A",
"K  c #393041",
"L  c #413848",
"P  c #144D43",
"I  c #1B4D41",
"U  c #0E5642",
"Y  c #165643",
"T  c #1D5244",
"R  c #1C5B45",
"E  c #2F4A41",
"W  c #245444",
"Q  c #2A5641",
"!  c #245A46",
"~  c #2A5A45",
"^  c #245C49",
"/  c #2A5E4A",
"(  c #365B44",
")  c #26624B",
"_  c #2D644E",
"`  c #34644C",
"'  c #2F6750",
"]  c #2F6850",
"[  c #306750",
"{  c #316951",
"}  c #377056",
"|  c #454C47",
" . c #445748",
".. c #4A544B",
"X. c #4C5A4D",
"o. c #51584E",
"O. c #4E4A52",
"+. c #4C5551",
"@. c #535A54",
"#. c #476944",
"$. c #536B4B",
"%. c #4E7344",
"&. c #4F7944",
"*. c #537846",
"=. c #557D4A",
"-. c #496555",
";. c #586657",
":. c #5D6A5B",
">. c #5B7455",
",. c #616D5D",
"<. c #647A5C",
"1. c #5D7261",
"2. c #646863",
"3. c #6A7866",
"4. c #737B6F",
"5. c #40841F",
"6. c #48862D",
"7. c #4C813A",
"8. c #52863D",
"9. c #58963D",
"0. c #568644",
"q. c #5B854B",
"w. c #5D8B4C",
"e. c #5D9346",
"r. c #5D8351",
"t. c #63984C",
"y. c #618D51",
"u. c #668959",
"i. c #659353",
"p. c #689357",
"a. c #689754",
"s. c #699B55",
"d. c #6D9C5A",
"f. c #68A54C",
"g. c #6BB548",
"h. c #6BA354",
"j. c #6DAA52",
"k. c #6FA15A",
"l. c #71AC56",
"z. c #72A55D",
"x. c #74AB5C",
"c. c #76B559",
"v. c #7ABA5D",
"b. c #6C8464",
"n. c #73826D",
"m. c #738C69",
"M. c #759966",
"N. c #7A8774",
"B. c #7B8A74",
"V. c #7D9673",
"C. c #79AD62",
"Z. c #78A864",
"A. c #7CB364",
"S. c #7EBB62",
"D. c #7FA171",
"F. c #7EC060",
"G. c #828D7A",
"H. c #84947D",
"J. c #849A79",
"K. c #81BD66",
"L. c #80B569",
"P. c #84BD6A",
"I. c #88A67A",
"U. c #8AB776",
"Y. c #8BB677",
"T. c #87C66A",
"R. c #86C16C",
"E. c #89C46E",
"W. c #8CC671",
"Q. c #8DCA71",
"!. c #91CD75",
"~. c #92C57B",
"^. c #94CC7B",
"/. c #96D17B",
"(. c #878F80",
"). c #8A9683",
"_. c #8C9B84",
"`. c #919B8A",
"'. c #8EA383",
"]. c #93A28A",
"[. c #96A98B",
"{. c #98B988",
"}. c #9BA693",
"|. c #9CAC92",
" X c #9EB393",
".X c #A1AE97",
"XX c #A1B496",
"oX c #A4B699",
"OX c #A6BA9A",
"+X c #A9BB9D",
"@X c #ACBCA1",
"#X c #B0BFA5",
"$X c #9CC687",
"%X c #9ACC84",
"&X c #9DD285",
"*X c #A1CC8C",
"=X c #A2D38B",
"-X c #A3D98A",
";X c #A8C698",
":X c #ABD895",
">X c #AED49A",
",X c #B1D99D",
"<X c #B3E29C",
"1X c #AFC6A2",
"2X c #B2C3A6",
"3X c #B2CBA3",
"4X c #B5C5A9",
"5X c #B6CAA9",
"6X c #BACDAC",
"7X c #B7D7A5",
"8X c #B5DCA2",
"9X c #BBD2AC",
"0X c #BCDCAB",
"qX c #BDCFB0",
"wX c #BED3B1",
"eX c #B7E4A1",
"rX c #BAE2A5",
"tX c #BEE3AA",
"yX c #C2D5B4",
"uX c #C4DAB5",
"iX c #C7DAB8",
"pX c #CADEBC",
"aX c #C1E6AD",
"sX c #C4E4B2",
"dX c #C7E9B3",
"fX c #C9EBB5",
"gX c #CCE3BD",
"hX c #CDEBBB",
"jX c #D0EDBE",
"kX c #CDF2B8",
"lX c #D1F2BE",
"zX c #CFE3C0",
"xX c #D0E5C2",
"cX c #D4EBC4",
"vX c #D7EDC8",
"bX c #D9EEC9",
"nX c #D6F3C3",
"mX c #D9F7C6",
"MX c #DCF4CC",
"NX c #DEF9CB",
"BX c #E0F7CF",
"VX c #E1FBCF",
"CX c #E0F6D0",
"ZX c #E4FDD3",
"AX c #E9FFD7",
"SX c #EBFFDA",
"DX c #F1FFDF",
"FX c #F3FFE1",
/* pixels */
"[ [ [ [ ] ] { { ] { [ [ [ { ] ] { { } { } } { ' ^ k 9 ; O X       X X X O O X O X O O X O X O X O X O X O X O X X       X O ; q I W ' { } } { { ] ] { { [ [ { { [ { { { { { { { ] ] ",
"[ [ { [ ] ] { ] ] ` [ [ { [ ] ] { { { } } } { ' ^ P 0 ; O         X X X X X X X X X X X X X X X X X X X X X X X X         O - 0 k ~ _ { } { } } { { { ] { [ ] [ [ ] { { { _ { _ ] ] ",
"{ { [ { { ` ] ] ] ] { ` ] { ] { [ { ' } { } { _ ^ I q , + X   X X X O O O O O O O + O + O O O + + O O O + O O O X X     X + , q n ^ ` { } } { { { [ { ] { ] [ ] { { [ { _ { { { { ` ",
"{ { { { ] { { ] ] { ] { { { ] { [ ' ' ' { { { ) ~ E b w 5 5 $ $ < 5 5 5 5 5 5 5 5 5 5 6 5 5 5 5 5 5 5 5 5 6 5 5 5 < $ $ 5 6 w b I ~ _ [ ] { { { [ { [ [ [ { [ { ] [ [ { ] { { _ { ] ",
"_ { ] { ] { ` ] { ] ] ] { { { { ' ' _ ' ' / / / ~ Q M B N N N N N N B N N N N N N N N B B N N N N N N N N N N N N N N N N N N M ( ~ / / ) _ ' [ ] [ ] { { { { ] { { ] ] ] ] ] { ] { ",
"{ { ] ] { ] { { { { { { { { { { ' ' ) ^ T T W Q ( ( #.` %.%.%.%.*.%.%.%.%.%.%.%.%.%.%.%.%.%.%.%.%.%.%.%.%.%.%.%.%.%.%.&.%.%.#.#.( Q Q T P T ^ / ] { { { { { { { ] ] ] ` ] ] { ] { { ",
"_ { _ ] { ] ] ] ] { ] { { { } { { ' ^ P P 0 q j ( #.&.q.w.w.i.i.y.y.r.y.y.w.y.y.y.y.w.y.y.y.w.y.y.y.y.y.y.y.y.y.y.i.i.i.y.r.q.%.#.~ I g q g P ^ ' ] { { } { { { { ` ] { { ] { ` { ] ",
"{ { ] ] ` ] ] { ` { { { } { } } ' _ P g 9 ; , w N #.q.i.d.Z.Z.k.z.z.k.z.d.z.d.z.d.k.z.d.z.d.k.k.k.k.d.k.z.d.k.k.k.Z.z.z.z.d.i.q.$.E w , ; 9 g T ) ] } } } { { ] ] ] { { ] ] ] ] ] ] ",
"] ] ] { { [ { [ ] ] ] { { } } } { / I 0 ; - - e B *.i.k.A.A.A.K.A.A.A.A.A.A.A.A.A.A.A.C.A.A.A.A.A.C.A.A.A.A.A.A.A.A.S.A.A.C.d.i.=.S e - - ; 0 P ' ] { } } { { [ ] { ] { ] { { ` ] ] ",
"] ] ] [ [ { [ { ] ] { ] } { { { [ ^ I 0 ; - + e D q.a.C.L.R.E.T.P.R.P.P.P.P.L.P.P.P.P.P.P.P.L.P.P.P.P.P.P.P.P.P.P.R.E.E.W.P.C.a.=.D e - - - 9 I ^ ] { } { { { { { ] ] ` ] ] ] { ] ] ",
"] { [ { { [ [ [ { { ] ] ] ` { { ` ^ T w 9 4 e S %.y.z.L.R.Q.Q.Q.Q.E.W.W.R.E.E.E.E.E.W.E.E.E.E.E.E.R.E.E.R.R.E.E.W.Q.Q.Q.Q.P.A.Z.i.H B e 4 4 w I ^ _ { ' { { [ [ ] { ] ] ` ] { ] ] { ",
"] { { [ { [ { { ] { ` _ _ _ ) ) ~ ~ Q b b m S H q.d.x.L.W.Q.!.!.Q.Q.W.W.Q.Q.E.Q.E.Q.E.W.E.Q.W.W.W.Q.W.W.Q.Q.T.Q.Q.Q.!.!.Q.E.S.Z.d.q.H S N b M Q Q ^ / / / ' _ ' { ] [ { { ] { { { { ",
"{ { { ` { { { { [ [ [ _ / ! T W W Q ( D D H =.w.d.z.L.P.Q.Q.!.!.!.Q.Q.Q.Q.Q.Q.E.Q.E.E.E.W.E.R.W.W.Q.Q.W.Q.Q.Q.Q.!.!.!.!.Q.Q.R.A.Z.a.w.=.%.D ` B ( ~ W I ^ / _ [ { { { { ] { ] ] ` [ ",
"{ ] ] ] { { { { { [ _ / W I k k E B ` H =.q.p.d.z.L.P.T.Q.Q.!.!.!.Q.Q.Q.Q.Q.Q.E.E.E.W.W.E.E.W.W.E.E.Q.E.W.Q.Q.Q.Q.!.!.Q.Q.Q.R.P.A.Z.d.p.q.*.%.#.( b k k I W / ' { { } { { ] ] ] [ [ ",
"` { ] ] { { { { { [ _ ^ I g 0 q b M D q.u.d.x.L.L.P.P.T.Q.Q.Q.Q.Q.Q.Q.Q.Q.E.Q.E.E.R.R.R.R.R.R.R.R.E.E.E.Q.Q.Q.Q.Q.Q.Q.Q.Q.W.W.P.S.S.A.Z.d.y.=.#.B b 0 0 q T ^ _ ] { { { { { ] ` [ ] ",
"] { ] { { { { { { [ ' W I 0 , , e B %.r.d.C.L.P.P.E.E.E.E.E.Q.E.Q.Q.E.E.E.R.R.R.R.R.R.R.R.P.R.R.R.R.R.R.E.T.E.Q.T.Q.Q.E.W.W.E.E.E.R.P.A.C.d.w.$.B w , , 0 I W _ { { { { { { { { { ] ",
"] ] { { ] { { { { { ' W g 9 - + 8 N H p.L.L.K.K.E.E.E.R.P.R.R.R.P.R.R.P.R.P.R.R.W.P.R.P.R.P.R.R.R.R.P.R.P.P.R.P.R.P.P.P.R.P.R.R.E.E.E.R.A.z.i.J S e O - 9 q W _ { { } { { { { { { { ",
"{ ] ] ] { { { } } { _ W q ; O X $ v *.p.L.L.E.Q.Q.E.P.K.A.A.A.A.A.C.A.A.A.S.L.P.P.R.R.R.W.R.R.R.R.P.P.P.K.A.A.A.A.A.A.A.A.A.L.P.T.Q.Q.Q.P.C.a.*.v $ X O , q W ' { { { { { { ] ] ] ] ",
"] ] { ] { { { } { { ) I 0 +       v H a.L.P.Q.Q.E.R.A.l.z.s.s.t.a.s.s.h.Z.x.A.A.P.P.R.W.R.W.E.R.P.P.A.A.x.z.k.s.a.s.t.s.h.h.x.A.R.Q.Q.Q.R.x.a.H c       + 0 I ' { } } { { { { { { ] ",
"{ { ` ] { { } } } { ) U 9 X       p H i.L.P.Q.Q.R.A.l.t.0.J J J F J 7.0.w.t.h.C.L.P.R.R.W.W.E.R.P.S.C.k.s.w.8.7.J G G J 0.0.i.l.A.R.Q.Q.R.A.a.H p       X 4 U ) { } } } { { ] { ] ] ",
"{ { { { { { } } } { _ h 4         & H t.L.T.Q.E.K.x.t.7.C a i i i i a C F 0.i.x.A.P.W.Q.Q.Q.Q.E.P.A.x.t.0.F C p i i i i p Z J t.x.P.Q.Q.E.x.i.F &         4 h ) } } } } } [ { ] ] ] ",
"_ { _ { { } } } } } ) U 4         % G t.l.K.Q.E.L.h.0.D i o           & a F w.h.A.P.E.Q.Q.Q.Q.E.P.A.h.w.H a &           o i Z 0.k.K.R.Q.T.x.i.F &         4 U ) { } } } { { ] ] ] ] ",
"{ { { { [ { } } { { _ P q + X     c H a.L.K.P.P.L.s.=.v *             o c H w.s.A.P.E.Q.Q.Q.Q.T.P.A.k.w.#.x o .           * V 0.a.A.R.E.P.A.i.J c       - q P ) { } } { { [ { ] ] { ",
"{ { { { [ _ { ` ' ' _ / E E y u S $.=.p.L.L.P.K.x.s.<.$.E r 3 3 3 3 r u X.=.u.Z.A.P.E.E.Q.Q.T.T.P.A.Z.u.=.#.u 3 3 3 3 3 r E $.=.d.C.A.L.L.C.d.r.$.S u u E E / ` ` ] ] ] ` { ] { { { ",
"{ { _ { _ _ ) ) ) ) ` -.-.1.1.3.4.n.G.z.Z.x.C.z.Z.d.b.3.2.2.2.2.2.2.2.4.4.m.M.A.L.P.R.T.T.T.T.T.P.L.Z.D.m.3.3.2.2.2.2.2.2.2.4.b.M.M.C.C.C.Z.Z.m.m.3.3.1.1.-.X.` ) ~ ^ ) ) _ ] ] ] { ",
"{ { [ _ _ ) l l l n ` ;.3.B.(._.`.I.J.J.M.d.d.d.M.m.J.J.).).`.`.`.).`.`._.'.I.Y.P.K.K.F.F.F.F.F.K.P.U.I.I.].`.`.`.).`.`.(.(.H.G.M.d.p.a.d.M.D.I.'.]._.H.N.3.1.` n l l Y ) _ [ ] { { ",
"{ { [ ] _ Y h d 7 k  .3.B.].XX+X+XXXY.I.m.r.=.>.u.J.I.|.OX@X#X#X#X#X#X#X;XOX$X{.P.K.v.v.c.g.c.F.S.P.Y.$X;X;X2X4X#X#X#X#X@XoX|.I.V.m.=.=.r.m.I.[. X1X@X X].B.3.( k 7 d h Y _ ] [ ] ] ",
"{ { { ] _ l 7 * * q X.b._.oX5XyXyXyXOX].b.%.S X.b.J.|.2X9XiXpXgXzXzXxXzXuX7X:X%XE.v.c.g.g.g.g.c.L.W.$X>X0XiXpXzXzXzXzXzXiX9X2XXXJ.3.$.V $.b.'.OX6XwXwX5XOX_.b.X.7 * * d l ) [ { } ] ",
"} { ] { ^ h 7     4 X.m.|.4XuXxXjXpX3X[.3.S e S 3._.+XyXgXnXMXBXCXCXMXbXcXsX7X*X~.K.c.g.g.g.g.c.K.~.*X8XsXjXbXMXBXBXBXMXbXgXyXOXI.3.S e ( b.[.3XpXcXcXwX2X|.n.X.4     7 h / _ ] ] { ",
"} { { { ) d #     O o.B.XX9XjXBXBXjXyX|.4.S ; S 3.].2XpXMXZXAXAXSXAXZXNXnXfX0X:X%XW.v.c.g.c.c.K.W.%X:X0XhXnXBXZXAXAXSXSXZXMXgX4X].3.u > E n.|.wXcXMXCXcXyXXXG.o.O     # f ^ ] { } ] ",
"{ ] } _ ! d       X o.G.OXuXbXZXAXBXyXOXN...e S n.[.9XjXVXSXSXSXAXZXNXbXcXgX0X>X*X~.W.R.R.R.W.W.%X*X>X0XsXjXnXZXZXAXSXSXSXVXjX6X|.n.| e ..N. XwXMXZXZXbXuXOXG.o.X     . d ^ ] { ] } ",
"{ } ] { ! d         o.G.+XiXBXAXAXBXsX+XG.$.B $.V.XXyXnXZXSXSXAXCXbXcXgXuX0X7X8X>X:X=X*X=X*X*X=X*X>X,X7XuXiXgXxXbXCXAXSXSXVXcXyX XV.$.B >.H.1XgXCXAXAXMXiXOXG.o.        d ^ ] { } { ",
"} ] { _ ! d         o.G.@XiXNXAXAXZXhX1X'.u.=.u.I.;XuXbXZXSXZXCXcXiX6X5X3X1X>X7X8X8X8X8X8XeX8X8X8X8X3X3X3X3X5XqXiXxXBXZXSXZXnXuXOXI.u.=.u.'.3XhXCXSXAXMXiX+XG.o.        g Q _ { } { ",
"] } { { ^ d         o.G.oXiXbXAXSXZXhX7X{.Z.p.M.Y.;XsXMXCXZXMXxXwX2XXX|.|.XX;X3X0XsXsXfXfXfXfXdXsX0X7X;X X[.[. X#XuXxXMXZXCXbXsX1XY.k.p.Z.{.7XjXZXAXAXMXiXOXG.o.        d ! ] { { { ",
"{ } { { ! d         o.G.OXiXbXAXAXVXkX0X%XL.x.L.{.,XdXnXCXBXvXiX@X].B.n.B.I.oX5XuXhXnXmXmXmXmXnXhXsX3XoXI.B.4.B.].@XuXvXCXNXmXdX>X$XL.C.L.*X7XjXVXAXAXbXuXoXG.X.        d ^ ] { { } ",
"} ] { _ ^ d .     X o.N..XyXvXCXZXNXnXrX$X~.K.U.*X8XfXmXBXBXxX6X|.N.@.E ;.B.|.6XgXmXBXZXAXZXZXVXmXgX5X|.B.;.| o.N.|.6XzXMXCXmXhX,X*XU.P.W.*X0XkXNXAXCXcXyX.XB.@.X     . d ^ ] { } { ",
"] ] ] ] ~ h *     @ o.B.|.5XpXvXNXnXdX8X=XW.W.^.=XrXhXNXVXCXgX4X`.,.6   u 3.[.6XxXBXAXSXSXDXSXAXMXxX6X].3.u   6 :.`.2XzXMXZXmXkX<X-X!.T.Q.=X8XsXnXMXbXpX5X|.B.+.@     * d ^ { { } { ",
"] } { ] ) l 7     4 X.n.].@XqXpXgXhXtX>X%XQ.W.^.:XrXkXNXCXMXpX#X).o.    O 2.].5XxXCXSXDXFXDXDXSXCXxX5X].3.+     @.).2XpXMXCXNXlXaX:X^.W.~.%X,XaXgXhXpXqX@X`.n.X.4   . 7 l ) { { { { ",
"{ { { ] ) l d 7 4 k  .3.(.|.@X5X6X9X>X*X^.W.!./.:XaXlXVXCXCXzX#X)...      :.].5XxXBXSXDXFXFXDXSXZXxX5X].;.      ..).2XzXMXZXNXnXaX-X/.Q.E.^.:X3X7X9X3X@X|.(.3.X.f 4 7 d l ) _ ] { { ",
"{ { { { _ R h d d j ` 1.n.(.`.|.oXoX*XY.W.T.!./.<XdXlXVXAXCXzX4X(...      ;.'.4XxXBXSXDXDXFXDXAXCXzX4X_.;.      ..).2XzXCXZXNXnXaX<X=X!.T.U.Y.{.XXoX|.].(.n.1.( j d d l ~ _ { { { { ",
"{ { { ] ` ) R l Y ! ( -.2.3.4.G.H.J.I.L.L.K.W./.<XaXlXZXAXVXzX#X).@.      ;.'.4XgXMXAXSXDXDXSXAXBXgX3X_.;.      +.).4XzXCXZXCXmXdX<X/.Q.T.A.L.I.I.H.B.n.3.1.;.( ! l Y ^ ) _ ] ] { { ",
"{ { { ] { _ _ _ ) _ ` ` ` +.+.;.,.u.p.d.l.K.W.=X<XdXlXZXAXCXxX4X`.;.    + ,.].4XgXNXAXSXSXSXSXAXMXgX4X`.,.@     ;.`.4XxXCXAXVXmXdX<X&XQ.v.l.k.p.<.2.@.+.+.+.` / _ ) ) _ ` ] ] ] ] ] ",
"{ ] ] ] _ { { } ] ] _ ^ I 9 ; 2 e S H e.s.c.T./.,XaXlXBXBXBXgX5X].3.t O m 3.[.5XgXMXZXSXSXSXAXZXMXgX5X[.3.m O t 3.].4XzXMXNXNXlXaX,X%XR.c.f.0.J V e 1 ; 9 P ^ ' ] ] { { { { { ] { { ",
"] { ] ] { { } } } { _ U 0 +       & a G 9.h.L.~.=XrXfXcXmXnXpX5X[.B.;.o.3.H.XXqXcXMXZXAXSXSXAXZXMXcX9XoXH.3.@.:.N.[.5XgXbXmXnXfX8X:X^.L.h.e.G a &       - 0 U ) { } } } { { { { ] { ",
"] { ] ] { } } } } } ) U q @     X % p C 7.t.z.U.*X>XaXfXhXhXsX9XOX'.B.B._. X4XuXcXNXAXAXAXSXAXAXBXcXuX4X|.).B.B.].OX7XiXhXhXfXtX>X$XU.z.e.0.C i % X     ; q U _ } } } } { { ] { { ] ",
"{ { ] ] { { { } { } _ R h 7 # X o & p a Z 0.y.Z.Y.{.>X7XaXaXsX7X;XOX XXX@X5XuXxXMXCXAXSXSXSXSXAXZXNXxXuX5X+XXXXXOX;X9XaXsXaX8X>X*XY.M.i.0.A a p & o X # 0 P Y _ { } } } } { ] ] ` { ",
"{ ` { ` { { { } } ] ] ) U l h d d d f f c A %.u.Z.Y.{.:X,X8XrX0X0X5X9X9XuXpXxXMXCXAXAXSXSXSXAXAXAXCXmXxXpXuX9X9X7X7X0XrXrX,X:X{.Y.M.y.&.A f f f d d d d P U ) ' { } { { { [ [ { ] { ",
"] ] ] { { { { ] ] ] ] _ ) ) R R R n f d 7 8 N $.u.M.L.~.=X:X,XrXsXsXgXcXvXMXCXCXAXAXAXAXSXSXSXAXAXAXCXCXMXbXxXgXiXaXrX<X:X%X~.U.M.u.%.v 8 d d f n R R ^ ) ) ' ' { { { { { ` [ [ ] ] ",
"] ] { { ] { ` ] ] ] { { ] { { { [ W I 0 , - 5 N H w.d.L.W.%X:XrXsXhXnXMXCXZXZXZXZXAXZXAXAXZXAXAXZXZXZXZXZXCXCXbXhXsXeX:X&XW.A.d.w.H N 6 + , 0 k ! _ [ [ ' ' ' { { { { ] { { ] ] [ [ ",
"] { { ] ] ] { { ] ] ] ] { { { { [ ~ I 0 ; - > x D G 9.f.v.W.=X,XaXhXmXMXZXZXCXCXMXNXMXMXMXMXMXBXNXMXCXCXZXZXCXmXhXaX,X&XW.v.f.e.J A z > - , 0 W / _ { { } { { ' ` ] { { ` ] { ] { { ",
"{ { ` ] ] ] { { { { { ] ' ' ] _ / ^ W j w 8 e N C G 6.9.t.A.Y.*X7XsXcXvXbXbXvXcXcXgXgXgXgXgXgXgXxXxXcXbXbXMXvXjXuX8X*XU.A.f.9.6.G Z N z 8 w n I ^ / _ ] ' ' ' [ ] [ { { ] ] { ` [ { ",
"] ] ] ] ] { { { { { { _ ) ^ ! ! W Q Q Q V #.#.D F G G 6.9.d.L.{.OX3XqXiXiXiXuXqX9X6X6X5X6X5X3X6X6X6XqXuXuXuXyX9X3X*X{.D.a.9.6.5.G F D D  .V ( M Q W R ! ^ ^ ' ' { { { { { ] { { { [ ",
"{ ] ] ] { { { } } { [ ^ R P P q k n ( #.*.=.q.q.8.J G G G 8.u.M.I.[. XOX+XoXoXXX|.|.|.|.|.|.|.|.|. XXXoXOXOXoXXX|.I.V.u.0.G G G 7.0.q.q.=.*.#.( E k g g P T ^ ' { { } { { { { { ] ] ",
"` { ] ] { { } { } { [ ^ P 0 9 ; 4 b D =.y.p.k.d.a.w.H F Z B #.>.<.b.B.B.B.G.B.B.N.n.n.n.n.n.n.n.n.N.B.B.G.G.B.N.4.<.$.#.V A Z J w.a.d.d.d.y.=.S b 9 ; 9 q P ^ ' } } } } { { { { ] ] ",
"] { ] ` { { } } } { ' ^ q 9 ; - : b #.y.d.C.L.x.k.i.*.D x 8 6 t m |  .X.o.X... ..... .....| ...... .....X.X.X...m m t 8 8 z A 0.i.k.C.A.C.d.w.%.b , + - 9 g ^ ' { } } ] { { ] { { ] ",
"] ] { { { { { } } ' ' W g 9 - - 6 N *.p.C.L.P.P.x.d.=.S e + O O + - > < < < < < < < > < < > > > > < < < < < < > - + O X + e V =.d.C.L.P.A.C.a.*.N 5 + - 9 q W ' { { } { { ] { { ] ] ",
"[ [ [ [ ' ' { { ' _ / Q j 8 4 6 m D w.k.L.P.E.P.A.k.q.D e - + + 2 6 r t t t t t t t t t t t t t t t t t t t t t r 2 - + + e D q.k.L.P.E.R.L.k.q.D x 5 9 q k Q ) _ ] ' ' [ [ [ [ { [ ",
"[ [ [ [ ' ' ' ) / ^ ~ ~ Q M m B D =.p.x.K.R.Q.E.A.z.w.&.D N m | ..;.,.,.,.,.,.,.:.:.;.:.;.;.:.:.:.:.:.,.:.3.,.;.@. .m m m V H y.z.L.E.W.R.K.z.p.=.D c c c n Q ~ ) _ / _ ' ' [ [ { { ",
"{ { [ [ / / ^ W T W E ( V ` #.&.q.i.z.A.P.E.W.P.P.C.s.w.=.=.>.u.m.J.H._._._._._.).J.H.).).J.H.J.J.).)._.`._.).).J.m.<.>.%.&.w.s.z.P.W.Q.E.K.x.h.e.J F A A M M Q n W ! ^ _ { [ [ { { ",
"{ { [ ' ' / T k k k Q ( #.&.q.i.p.z.C.L.P.P.E.T.S.A.l.s.p.d.V.I.[.OX+X2X2X2X2X@X@X+XOXOX+X+X+X+XOX1X@X2X2X4X#X@X X[.I.m.p.w.s.j.v.T.W.Q.Q.T.K.l.s.t.8.7.A A B b j k I W ! _ [ [ { { ",
"} { { ] / W P q 0 w m S &.q.a.z.C.A.S.P.P.R.R.R.P.S.c.x.x.L.Y.*X;X9XuXpXzXpXpXiXuXuXuXuXuXuX0XuXuXuXiXpXpXzXpXuX9X;X{.Y.Z.z.l.x.K.T.T.W.E.P.K.v.l.j.t.9.J H B b w 0 w I ~ / [ [ } { ",
"{ { { ] _ T q 9 , 4 z D =.a.z.A.P.P.R.P.R.R.P.R.P.S.v.v.K.U.*X>X0XgXcXbXCXMXMXbXnXvXcXcXcXcXvXvXvXvXbXMXCXMXbXcXgX0X;X$XU.S.c.v.K.P.E.E.T.T.T.K.K.v.l.s.e.H D z > , 9 g T / [ { { { ",
"{ { { ] / I 0 ; + + z D q.d.C.P.E.Q.W.E.W.P.P.R.S.S.v.v.K.W.*X,XaXhXnXZXCXZXAXCXBXVXVXCXCXCXNXCXZXCXCXAXAXCXVXmXhXtX,X&XQ.K.v.v.K.K.P.T.P.T.E.Q.W.E.P.L.d.q.#.z - - ; q I ) [ { } { ",
"} } { ] / I 0 - + + e D q.k.L.P.Q.Q.Q.Q.W.R.R.P.S.S.c.c.v.U.%X>X0XfXnXBXAXAXAXAXAXAXAXAXAXSXAXAXAXZXAXAXAXZXNXmXhXtX,X=X^.T.S.v.x.v.v.L.L.U.~.^.=X=X^.Y.I.p.$.z + X + 9 I / [ { { { ",
"] } { ] ) I 0 - O O e D u.z.L.P.Q.Q.Q.T.T.K.K.K.K.g.l.l.x.L.Y.;X,XtXhXnXmXNXZXZXAXAXSXSXSXSXSXSXSXAXZXZXNXmXnXkXdXeX:X&X/.Q.F.v.l.l.z.z.C.U.~.*X:X<X:X*X{.M.:.S     X 4 l ~ _ { { } ",
"{ ] { ] / I 0 - + O z D q.d.L.P.Q.Q.Q.T.T.K.K.c.l.j.t.t.a.d.I.Y.$X;X0XdXkXmXmXNXZXAXSXSXDXSXDXSXSXZXZXNXmXnXtXtXeX<X-X&X!.Q.S.x.h.t.w.i.M.U.$X,XtXtXtX8XOXI.3.S X     : d ~ [ [ } { ",
"} ] ] ] / I 0 ; + + u D q.d.L.K.T.Q.T.T.K.K.K.c.j.t.8.8.*.>.p.J.{.$X*XeXtXfXnXmXCXSXSXDXDXDXSXSXAXVXmXnXkXtXeX<X-X&X&X/.!.T.S.x.e.0.J *.u.I.OX7XfXnXcXtX>X[.n.S X     @ d ) ] { ] } ",
"] } ] ] / I 0 ; + @ z D q.d.L.L.T.Q.T.T.T.K.c.l.f.t.J D A D *.i.M.A.~.&X,XrXdXnXNXZXSXSXSXDXSXSXZXMXnXtXrX,X&X&X/.!././.!.T.S.h.0.C a ` <.J.OXuXnXmXmXxX6X XB...      # d ^ ] { } ] ",
"{ { { [ / I q , + ; z D q.d.A.L.T.Q.Q.Q.T.T.K.L.h.w.D N e e B H w.h.S.~.&X,XtXhXnXCXZXSXSXSXAXZXNXmXzXtX:X%X~.S.F.T.Q.Q.Q.R.C.t.F a % e ;.G.OXuXvXVXMXcXwXXXB.+.O     # d ! { { } { ",
"{ } { ' / I 0 , + ; z D =.d.x.P.E.Q.^./.^.!.~.Y.Z.p.$.z + O = v 6.f.j.S.%X-XrXsXxXMXCXCXZXZXZXNXnXcXtX8X*X~.S.c.l.c.F.S.P.A.Z.w.Z i   + | 4..XqXxXbXMXxXqXXXB.X.#     * h ~ { { ] ] ",
"} { { ' / I 0 ; + @ e D 0.a.x.P.W.^././.=X-X=X~.I.M.>.u +   % a C 9.j.S.Q.&X:XtXdXcXnXnXbXmXmXnXcXtX8X*X$XA.h.9.9.g.j.A.x.k.i.0.Z %   O L 4.].#XiXzXzXiX4X[.N.X.4   . 7 h ) ` { { { ",
"} { { [ / I 0 ; + + e D 0.a.x.P.Q./.-X:X,XeX,X>X{.'.3.| -   o s 5.9.j.S.Q.%X:X,XrXtXdXhXhXhXxXfXtX0X;X$XZ.s.9.5.5.6.8.e.t.e.0.F p .   O K 2.(..X2X6X6X4X X_.b.X.g 7 7 d l _ _ { } { ",
"{ { { ' / I 0 ; + + e D *.t.c.K././.<X<XaXfXdXyX3X[.B.@.2   % a 7.e.c.S.Q.^.&X-X>X8X8XrXtXtXtXtXrX>X$XD.M.0.C i i s s C G F Z a &     O u @.4.(.}..X.X}._.B.1.-.n f h h R _ ] { ] ] ",
"{ } { ' / I 9 ; + + e D 8.t.l.K.!.-X<XdXkXmXlXjX0XOX(.:.r X % a 8.h.c.R.Q.^.%X%X$X*X:X:X:X:X<X:X:X$X{.Z.y.Z i % & & i i i i & % o     + r | @.4.4.G.G.N.b.,.-.` ) l R R ) { ] { { ] ",
"{ } } ' / P 9 ; + O e D 0.e.l.S.!.-X<XkXlXVXBXnXiX@X_.2.t   & C 0.h.A.R.W.Q.~.~.~.^.~.%X&X&X&X&X%XW.C.s.&.c o X         . o . .   X O : 6 y m | ..@.o.@.-.-.` ] _ ) _ _ _ ] { [ ] { ",
"{ { ' ' ^ T q ; - . e D J e.f.S.!.-X<XkXlXVXCXbXiX#X).2.y   & C 0.k.S.R.E.W.E.E.R.R.R.E.T.T.T.E.S.C.k.y.%.N 5 - O O + , > > > : $ > > : $ ; + O O O 4 8 j n / _ { { } { { ] [ [ ] { ",
"{ { { ' ) T k 9 , 4 b A F 0.e.c.P.*X>XuXfXnXbXgXyXoX(.2.t . & Z w.l.A.E.T.T.T.T.S.S.v.v.S.v.c.c.x.k.s.r.r.-.+.O.O.O.O.O.@.O.O.| u y r # O               7 d R ) } } } } } [ [ { ] { ",
"{ } { ' / ^ P q q w b A H 7.e.s.L.Y.{.>XyXiXiXyX#X}.G.@.r o p F w.z.L.E.Q.T.T.T.R.F.v.c.g.f.f.f.t.a.s.m.B.B.N.G.N.G.(.(.(.G.4.2.;.| y $               . 7 d R _ { } } } { { { [ [ ] ",
"{ { { ' ' ^ T P k j M ( A F 0.w.a.J.I.XX+X2X#X@X}.(.2.O.r * x F t.C.R.Q.Q.Q.T.T.T.R.v.c.j.f.9.e.w.y.M.V.'.|.|..X.X.X@X.X.X}.`.(.4.,.L >       X     # 7 d l R _ } { { } { { [ { { [ ",
"{ { { ' ' / / W W W Q A ` A A %.*.u.M.J.`.`.`.).(.4.@.t 2 = v &.t.x.R.T.Q.!.!.Q.T.T.S.v.j.e.6.C &.r.V.]. X4XqXwXiXiXiXyXqX4X#X}.G.3.| #       o 7 7 d h l R ) ] { } { { { { { [ ] { ",
"] { ] { ] _ _ _ / _ / ( M M N B S S $.,.3.3.3.2.2.O.K 3 + 8 B 0.d.x.P.W.!.!.!.!.Q.T.T.x.s.8.C Z S <.J.|.2XuXgXcXbXbXbXbXcXpXyX+X].4.o.:       7 h Y R ) ) _ _ { [ { { { { ] ] ] { ] ",
"[ { [ [ ] ] ] ] ] ` / ~ M n z e e e e u m m S u u 1 - + + e D =.p.x.P.E.Q.!.!.!.Q.Q.R.x.e.F p & u ,.G..XyXgXBXVXSXAXSXAXCXnXiX2X|.B.@.:     . 7 R _ ] { ] ] ] ] [ { ] { { [ ] ] { { ",
"{ ] [ { ] { { } { { ' ^ W k 9 , + X                     + e V *.i.z.L.P.R.E.E.E.R.P.A.z.0.Z %   1 @.G..XyXgXVXAXSXSXSXAXAXBXgXyXXXG.;.#     # d ! ` { } } ] ] ] { ] ] ] [ { [ ` ] ] ",
"{ [ { [ { { ] } } { ' ^ W w 0 ; + X                     O e S %.w.d.z.A.L.K.K.L.A.A.z.a.H a     - o.G.|.yXfXmXZXZXAXAXAXVXlXsX9X[.B.o.:     # d ) ] { } { } } { { { ] ] [ [ [ { { { ",
"] ] ] ] { { } } } } ] ) W I q 9 1 + O                   O 6 N D =.y.p.d.z.z.z.z.x.d.a.q.D p     - o.N.[.1XaXjXlXmXmXmXmXlXkXaX;X[.n.o.@     # h ^ { } { } ] { ] ] { ` ] ] ] ] { ] ` ",
"] ] { ] { { { } { { ' _ ^ W I k q 0 0 7 7 7 4 * # O O O + 5 e S D &.q.r.y.y.p.i.y.y.q.H v *     - o.b.I.;X,XaXdXkXkXkXkXaXaX>X XI.u.S O     : h ! { { } { } { ] ] { { ] { ] { ] ] { ",
"{ { { ] [ { { { [ [ ' ' _ ~ / W T T k U g h h d q 7 : + X $ r z N V D %.*.%.*.%.%.%.#.V x #     <  .u.J.Y.:X<XkXeXaX<X<X,X:X*XI.J.<.S +   X 4 f ) ] { { { { { ] { ] ] { { { ` ] ] ] ",
"` ] { { { { { { [ ' ' ' _ _ _ _ _ / _ ) _ _ / Q j k 8 4 + X $ 6 e z m N N N N N N N b e * O   X 6 S =.M.P.!./././.-X-X/.=X/.U.L.i.$.m + X + 9 g ^ ] { } } { { ] ` ] ] { ] { ] ] { { ",
"] ] ] { { ` ] ] { { _ ] ] ] { { ] ] ] { { ] _ _ ~ n j 8 > @ + + @ > > 5 > < 4 < < 4 > @ + X X O 6 S &.i.z.L.P.W.Q.Q.Q.T.E.P.L.d.0.D z > + - 0 I ! _ [ } { { { { ] ] { ] { ] ] { ] { ",
"] ] ] ] ] { ] ] { _ ] ] { { { { { { } } } } { _ ) Q n w 8 : @ + + O O O X X X O X O O O O X O + 6 N D 0.a.j.x.v.K.K.K.K.K.l.h.p.J D b 4 , 9 w T _ _ { { { { { [ ] ] ` { { { { ] { ] ",
"{ { ] ] [ [ { { { { { { { { { { { } { } } { } { _ ~ n b w 8 4 ; + O O               X X X X O O 5 x A G 0.t.f.f.f.f.g.f.f.t.t.8.H D b w q q P W _ ` { { { } ] [ { { ] { ] { ] { ` ] ",
"] { { ` [ ` { ] { _ { { { { { } { { { } { } { ] _ _ / W I w w 4 , + O X           X X X X X O + $ e v D H 8.0.e.e.e.e.9.9.8.J J D A M b y I T / _ { { { { { { ] { ] ] ] ] ` ] ] ] ] ",
"] ] ] { [ ] ] ] { { { { { { { { { { } { } { ] { _ _ _ / ! n j w 9 ; O X       X X X X O X O O O # 6 x v Z D H J J J J G H H H D A ( E T T W / / ` ] ] [ { { [ [ ` ] ] { { [ [ ] { ] ",
"] ` { { { ] ] { { { _ { ] { { { { { { { { { ] { ] ` _ ` / ~ W j w 4 + O X X X O O O O O O O O O O $ e e x v v S v V S S v B B B ( / / / _ / _ [ ] ] ] [ { { [ [ ] ] ] { [ [ { ] { { ",
"] { ] ] { { { { { { { ] ] ] ] ] ] ] { { { [ { [ [ [ { { _ _ ~ W b 8 4 + O O O + + + + + + + + + $ $ 5 6 8 e e e e e e e e e b b M ~ / [ ' { ' ' { { ] ] [ [ { ` ] ] { { [ [ ] { ` ] ",
"] { ] ] ` ] { ] { ] { { { ] ] ] ] ] ] ] [ { [ { { { { { [ ` / W n w 5 > @ @ @ > > 4 > 5 > < 4 > > : : @ @ + + + + O X O + : 9 w W ! _ ' } { } { { ] ] ] ] { { ] { ] ] ` ` { { ] ] ] ",
"{ ` ] ] ] { { ` [ [ { ] { ] ] ] ] { ` ] ] { { ] { { } } { { _ / n j w 8 5 4 5 5 8 8 8 8 8 8 w 8 8 4 4 , ; - - - - + + + - - 9 q I ^ _ { } } ] { ] { ] ] ] { ` { ] ] ] { ] { ] { { ] ",
"] { { ] ] ] ] { [ [ ] { { ` { ] { { ] ] ] { { ] { { } { } { { / Q n j k w w w k k w w b w j j w w k w 0 9 4 , , ; ; - - ; 9 0 P I / [ { } } } ] { ] ] ] { ] ] { { [ ] ] ] { { ] ` ] ",
"[ [ ] { ` ] { ] { ] ] { ] ] { ] ] ] { ] { ] ] { { { { { { { ` _ / W n n n n n j I n n I n W I E n j k k k q q q q 0 0 0 0 q P I ^ ) ] { } { { { { { { ] ` { ] ] [ { ` { { { ` ] { ] ",
"[ ` { ] { ] { ] ] ] { ] ] ] ` { ] ] ` { { ` ] ] { } { { { ] _ _ _ / ~ ~ W ~ ! Q Q ^ Q ^ ~ ~ ~ ! ! Q W W I T W T T I I I I W W ^ / _ [ [ { } { { { { _ { { { ] ] [ [ [ { ] { ] ] { ] ",
"[ [ { ] { { ] ] ] ] [ { { { ] { ` ] ] { { [ [ [ [ { { { { ] ] ` _ _ _ _ _ / _ _ _ ) _ ' / _ / _ _ _ _ _ / _ _ ) / / ) / / ' ' / [ [ [ { { { { ] { ] ] ` ] ] ] { ] ] ] ] ] ] ` { ] { ",
"[ { { ] ] ` ` { ] ] { [ { ] ] ` { ] ] ] ] [ [ ` [ ] ] ] ] ] ] { _ ` ] ] _ ` ] ] ` _ ] ] _ _ _ ` ] ] _ _ _ _ { ] ' ' ] ] ' ' ' { [ [ [ { [ [ ] ] { ] ] { ] ] ] { ` { ] { { ] ] ] { ] ",
"{ ] ] { ] { ] ] ] { [ [ { ] ] ] { { ] { ] ] { { { ] [ ] ] { ] { ] { { { { { { ] ] { ] { } { { { ] ] ] ] ] { ] { { { { { ' { { ] [ { [ [ { [ { ] ] { { ] ] ] { { ] { ] ] { ] { { ` ] ",
"] ] ] { ] ] { { ] { [ [ ` { ] { ] { { { ] ] ] { [ { { ] { ] { { [ { { } { } } ] ] } ] } ] { } { } ] } } ] } } { } { { } { { } ] [ [ [ { [ { [ { ` { { ] { ] ] ` { ] ] ` { { ] ] ] ] ",
"{ ] { { ] { ] ] { { ] { { ` ] ] ] { { ` ] ] ] ] { ] ] ] ] ` { { ] ] } ] ] } { } { } ] { } ] { { } ] { } ] { } ] { ] } ] } ] ] } { ] ] ] ] ` { ] ] ] ] ] { ] { { ] { { ] { ` ] ] { { "
};
