/* XPM */
static char *result[] = {
/* columns rows colors chars-per-pixel */
"90 105 247 2 ",
"   c #000000",
".  c #00000C",
"X  c #000D0A",
"o  c #001508",
"O  c #000014",
"+  c #00001C",
"@  c #000D1B",
"#  c #021319",
"$  c #131C1D",
"%  c #003502",
"&  c #0B2A10",
"*  c #01241A",
"=  c #000024",
"-  c #000229",
";  c #000B2A",
":  c #021627",
">  c #061921",
",  c #0B1B22",
"<  c #13142D",
"1  c #32133F",
"2  c #032527",
"3  c #012C2C",
"4  c #142523",
"5  c #182B28",
"6  c #003628",
"7  c #1C342A",
"8  c #002532",
"9  c #002E33",
"0  c #013435",
"q  c #073836",
"w  c #023B3A",
"e  c #163A33",
"r  c #22382B",
"t  c #2A3033",
"y  c #33303C",
"u  c #333D39",
"i  c #004600",
"p  c #164E0F",
"a  c #25581B",
"s  c #0C4A2D",
"d  c #004434",
"f  c #004B34",
"g  c #09453B",
"h  c #014C3A",
"j  c #16463C",
"k  c #1A4A3F",
"l  c #00543D",
"z  c #0A533E",
"x  c #2A482B",
"c  c #314B2D",
"v  c #2E5526",
"b  c #274A38",
"n  c #364B36",
"m  c #2A513D",
"M  c #365333",
"N  c #395432",
"B  c #37593B",
"V  c #336925",
"C  c #36642C",
"Z  c #3C6439",
"A  c #415A3B",
"S  c #42633B",
"D  c #466B39",
"F  c #456A3C",
"G  c #487934",
"H  c #487739",
"J  c #341E40",
"K  c #3B3443",
"L  c #084640",
"P  c #144D42",
"I  c #1B4D41",
"U  c #065642",
"Y  c #015A42",
"T  c #1D5245",
"R  c #175844",
"E  c #3C4A44",
"W  c #245544",
"Q  c #2A5543",
"!  c #235A46",
"~  c #2C5A45",
"^  c #255C49",
"/  c #295D49",
"(  c #355A46",
")  c #196249",
"_  c #24644C",
"`  c #2D644E",
"'  c #356249",
"]  c #2F6750",
"[  c #2E6850",
"{  c #316951",
"}  c #376A53",
"|  c #367055",
" . c #434A47",
".. c #485749",
"X. c #4A554B",
"o. c #52584E",
"O. c #4F5451",
"+. c #535A53",
"@. c #446743",
"#. c #4A6D41",
"$. c #52684B",
"%. c #4D7243",
"&. c #4E7845",
"*. c #507543",
"=. c #537A45",
"-. c #557C49",
";. c #587A4C",
":. c #476754",
">. c #586758",
",. c #47745B",
"<. c #5B7455",
"1. c #61735C",
"2. c #597B63",
"3. c #657362",
"4. c #6A7966",
"5. c #6F736D",
"6. c #71786D",
"7. c #4E823B",
"8. c #518B38",
"9. c #548344",
"0. c #588846",
"q. c #5B854C",
"w. c #5D8B4C",
"e. c #5C9247",
"r. c #5F8751",
"t. c #608C4E",
"y. c #63954E",
"u. c #639A4C",
"i. c #628E51",
"p. c #668858",
"a. c #659353",
"s. c #689756",
"d. c #6A9B55",
"f. c #6D9D5A",
"g. c #709B5E",
"h. c #6BAF4A",
"j. c #6BA454",
"k. c #6EA259",
"l. c #70AA56",
"z. c #72A45C",
"x. c #74AB5C",
"c. c #75B657",
"v. c #79B55E",
"b. c #7BBB5E",
"n. c #69846A",
"m. c #6D8E6E",
"M. c #708A67",
"N. c #73836C",
"B. c #779968",
"V. c #768371",
"C. c #7C8B73",
"Z. c #798875",
"A. c #7A967A",
"S. c #77AC60",
"D. c #79AE62",
"F. c #7BA768",
"G. c #7DB465",
"H. c #7EBB62",
"J. c #7FB16A",
"K. c #7FC161",
"L. c #818E79",
"P. c #83977A",
"I. c #81BD66",
"U. c #81B46A",
"Y. c #83BD6A",
"T. c #87A579",
"R. c #8BB677",
"E. c #8BBA76",
"W. c #82C265",
"Q. c #86C16C",
"!. c #89C56E",
"~. c #8BC86F",
"^. c #8BC671",
"/. c #8DC971",
"(. c #8FC179",
"). c #90C777",
"_. c #91CD75",
"`. c #92C67A",
"'. c #94CA7B",
"]. c #98D37D",
"[. c #879682",
"{. c #8D9D84",
"}. c #909E88",
"|. c #8DA686",
" X c #93A38A",
".X c #96A88C",
"XX c #96B787",
"oX c #99A791",
"OX c #9CAC92",
"+X c #9EB293",
"@X c #9CB698",
"#X c #A1AE97",
"$X c #A4B898",
"%X c #A9BB9E",
"&X c #ABBBA0",
"*X c #9ACC83",
"=X c #9DC988",
"-X c #9CD383",
";X c #A1CE8C",
":X c #A3D38C",
">X c #A3DA89",
",X c #A8C797",
"<X c #AAD695",
"1X c #AFDB99",
"2X c #B1D59E",
"3X c #B1DB9C",
"4X c #B3E29B",
"5X c #ADC4A2",
"6X c #B2C5A6",
"7X c #B3CCA5",
"8X c #B4C5A8",
"9X c #B6CBAA",
"0X c #B9CDAC",
"qX c #B8D9A6",
"wX c #B9DDA6",
"eX c #BBD1AD",
"rX c #BDCEB1",
"tX c #BDD3B2",
"yX c #BFD8B6",
"uX c #BBE3A7",
"iX c #C1D5B3",
"pX c #C3DBB4",
"aX c #C8DCBA",
"sX c #C2E7AE",
"dX c #C5E5B2",
"fX c #C8EBB4",
"gX c #CCE2BD",
"hX c #CCEBBA",
"jX c #D0EEBE",
"kX c #CEF2BA",
"lX c #D1F2BE",
"zX c #CFE4C0",
"xX c #D1E5C2",
"cX c #D4EBC4",
"vX c #D7EEC9",
"bX c #D5F3C3",
"nX c #D8F4C7",
"mX c #DCF4CC",
"MX c #DCFAC9",
"NX c #E0F6CF",
"BX c #E1FACF",
"VX c #E0F6D0",
"CX c #E4FDD3",
"ZX c #E8FFD6",
"AX c #ECFFDA",
"SX c #F1FFDF",
"DX c #F3FFE1",
/* pixels */
"{ ] ] ] { ' [ { ] ] { ' [ ] ] { { ] ] { ] { ] { { { { { | { | | { { { { { { { | } { { { { | { { | | { { { { } { | { | { | | [ { { { { ] ] { ' ] ] { ] { { { { { { ' { { { { { ' { { ",
"] { ] ] { { ] ] ] { { { [ ] { { ] { { ] ] ] { { { { { { { } [ { [ | | { | { | { { { | { | { } { { { [ | { } | [ [ | { } [ { { { { { ] ] ] { { { ] ] { ] { ` ` { [ [ ` { { ` [ [ { { ",
"] { ] { { { ] { { { { ` { { { { { ] { ] { { { ] { { { { { { { { { { { { { { [ { } { { { [ { { { { { { { { { { { { { { { { { { { { { { ] { { { ] { { { ] { { { { ] { { { { { ] ] ] { ",
"{ { ] { { ] { ] { { { { ' { ` { ] { ] { { ] ] { ] ' ] { ] ` ` ` [ [ ] ] ] ] ] [ ` ] ] ` [ ] [ ] ] { [ [ ] ] ] ` [ [ ] ` ] [ { [ ] ] ] ] { ] ] { { ] { { { { ` { ] ] { { { ] { ] ] ] ",
"{ ] ] { { ] ] { { { { ] [ ] ] ] ] { { { { { { ] ] ` ` / / ! ^ ~ / ! / ! / / / ~ ! / / ! / ! / / / / ! / / / ! / ! ! ~ ! / ! / ` ] ] ] ] { { { { ' ] { ] { ] ] { ] ] [ ' { { ' [ [ [ ",
"] { ] { { { ] ] { { ] ] [ [ ] { { { { { } { { ] ` / W W I I j j k k k I k k k k I I k I I k k I k k I I k k k I I k k j k I T W ^ ] ] ] { | { { { ] ] { ' { { ] { ] [ { { { [ [ ' { ",
"{ ] { ] ] { { [ { { ] ] { { { { { { { | | { { ] / W I q 0 9 8 8 8 9 9 9 9 9 9 0 9 9 9 9 9 9 9 9 9 9 9 9 9 9 9 9 9 8 8 8 9 0 q I W / [ { | | { { { { ] ] { { ] { { { { { { ] ] ] { { ",
"' ] ] { { { { ' ' { [ [ ' { { { [ { { { | | { ` / I g 9 ; = = = = = - = - - = = = - = - - = = - = - - = = - - = = = = = = ; 9 j T / [ [ | | | { { ] { ] { { { ] { { { { { { ] ] { { ",
"` { ` { { { { { [ [ { { ' ] ] ] ] { { | | { } ` W I e 2 = + O . + + + + + + + + + = + + + + + + + + + + = + + + + + O O + = 3 e I ! ` { } } } { { { ] { ] ] [ { { [ [ ] [ ] ] { { { ",
"' { { { ` { ` { ] ] ` { [ [ ] { ] ] { { { { ] ` / W b e 5 $ $ $ $ 4 4 4 4 4 4 4 4 4 4 5 4 $ 4 5 4 4 4 4 4 4 4 4 4 $ $ $ $ 5 e b m ~ ` ` { [ { ] ] ] { [ ] { ] { { ' ] ] [ [ ] { { { ",
"{ { { ` { { ` { ] { { { ] { { { ] ] ] ] ] _ / / ~ ( B M N N A c M N M N M M N N M M N N M M N N M M M M N N N N N N c N N N M m B ~ ~ / ` [ [ ] ] { { { } ] [ { { { { ] { ' { { [ [ ",
"{ { { { ` { { { { { { { { | { { ] ] ^ ^ T P I W m ( S $.H *.*.*.*.*.*.*.*.*.*.*.%.*.*.*.*.*.*.*.*.*.*.*.*.*.*.*.*.*.*.*.*.%.#.@.( ( W I P T T _ [ { } { { { { { { { { ] { { { { ] ' ",
"{ { { { { { { { { { { { { { | { { ] ! P w 0 0 j B @.&.q.t.a.a.t.i.i.t.i.i.i.i.i.t.i.i.y.i.i.i.i.i.i.i.a.y.i.i.i.i.a.a.a.a.t.q.*.@.B j 0 0 w P W ` ] } | | { { { { { { { ` { { ] ] ] ",
"` { { ` { ` ` { { { { { | | | | { / P w 8 - ; 7 B %.q.s.k.l.x.U.x.z.z.z.z.z.z.z.z.z.z.z.z.z.z.z.z.z.z.z.z.z.z.z.z.x.S.S.z.z.s.q.#.B 7 ; - 8 w T _ ] { | | { { [ [ ' { { { { ] ] ] { ",
"{ { { { { { { { ` { { { { | | { ] / P 9 - = + r B -.a.z.U.U.I.I.Y.U.U.I.U.U.I.U.U.U.I.U.U.U.I.U.G.G.U.U.G.U.U.U.U.Y.Y.Y.G.J.S.i.-.B 7 = - - 0 P _ ] | | } { ] ] [ ] { { { { ' ] { { ",
"{ { ` { { ` { ` { { { { { { { { ] / I 0 ; = , n F w.f.D.Y.~.~.~.!.!.Q.Q.Y.!.Y.Y.Q.Q.Y.Y.Q.Q.Y.Y.Q.Q.Q.Q.Q.Q.Q.Q.Q.!.^.^.^.Y.D.f.t.D c , = ; 0 k ~ [ { ] } { ] ] ] ] ] { ` { [ [ ] { ",
"` { ` ] { { { { ] { { [ ` ` ] ] / ~ m j 7 r c S -.a.x.U.Q./._._././.~.^.~.^.^.^.!.~.!.~.!.!.^.Q.!.!.!.!.!.!./.!./././._./.~.b.x.s.=.D A r r j m ~ / ' ` ] ] ] ] { { ] { ] ] [ ' ] { ",
"{ { { { { { ` { { { ' ` ` / ! W Q Q ( B B S D q.a.g.U.I.~./._._._./././.^./.^.^.^.^.^.^.^.^.^.^././././.^././././._._._./.~.Y.G.k.t.;.D A N B B ~ ~ W ! ^ ` ] ] { { { { { ] [ { { ] ",
"' { ] { { { { { { ] ` ` ! T I I Q m ' #.*.-.i.s.z.x.Y.Q.~._._._._._././././.^.!.~.!.^.!.!.^.^.^.Q./.!./././././._._._._._.~.Q.I.U.f.s.t.-.*.@.' m W I I T ! / ` { { { { { ] { { ] { ",
"` [ { ] { { { { { ] ` / T j q e b B F ;.i.s.g.S.U.Y.Y.Q.~./._./._.~././.^.~.^.^.!.!.Q.Q.Q.!.!.Q.Q.!.!.!.^././././._./._._.!.!.Y.I.U.x.z.s.t.-.@.B b e q j T / ` { ] { { { { { { { ] ",
"{ ` { { { { { { { { ` ! k 0 8 2 r B #.t.s.S.G.U.Y.Q.!.!.^./././.~.^.^.~.^.!.!.!.Q.Q.Y.Q.^.Y.!.^.Q.^.^.Q./.!././././.~.~.!.!.!.!.Y.Y.Y.U.F.s.i.D B r 2 8 0 I W ] { { { { { { ] { ] { ",
"{ { { ` { { { { { { ` W j 8 = + r N *.i.z.G.Y.!.~.!.!.Q.Q.Q.Q.Q.W.!.!.Q.!.!.Y.Q.Q.Q.Q.Q.Y.Y.Y.Y.Q.Y.Q.Y.Q.Y.Q.Q.Y.Q.Q.Q.Q.Q.Q.!.!.~.~.Y.U.z.a.*.N 7 + = 8 e W ` { { | { { { ] { { { ",
"{ { { { { { | { } ] ` T w : + O $ N -.s.S.Y.^././.!.Y.Y.G.G.G.G.G.G.G.G.G.H.Y.Y.Y.!.Q.!.Y.^.!.Q.Q.Y.Y.Y.Y.U.G.G.U.U.G.G.G.U.Y.Y.~././.~.U.x.a.=.N 4 . + : w W ` { | { { { { [ [ { { ",
"{ ` { { { { { | } { _ T 0 =       v H d.S.Q././.!.Q.G.x.k.k.d.j.d.d.j.k.z.S.D.G.Y.Y.Y.!.^.Y.!.Q.Y.Y.Y.D.S.z.k.j.d.d.j.d.d.z.z.I.Y.^./.^.Y.v.s.H c       = 0 T ` { { | | { ] ] ' { { ",
"{ ` { { { { | | | { ` z 3 .       p H s.U.Y.~./.!.I.k.u.0.H 7.H H 7.7.0.e.a.k.G.H.Y.!.^.^.^.^.Q.Y.H.D.z.u.0.0.7.G G 7.H 7.0.u.l.H.Q././.Q.D.u.H p       . 8 P _ { | | | { { { [ { ] ",
"{ { ' { { { | | | } _ z 2         % D y.v.Q.~.~.Y.x.y.G V a i i i i p V G 7.a.l.G.Y.!.^.^.^./.Q.Y.G.x.u.7.G V p i i i i a V 7.y.x.Y././.Q.G.y.D %         8 U _ { | | | } { { ] ] { ",
"{ { [ [ { | | | | { _ z 3         % G y.x.!.^.!.I.l.0.C i .           % a H w.j.G.Y.~.^./././.^.Y.G.k.w.H a %             i C 0.j.G.Q./.Q.G.y.G %         3 L ] | | | | { { ] { { ] ",
"{ ] ] ] { { } } } } _ T w - . . o c H s.U.Y.Y.Y.D.d.=.S &             o c D w.k.G.Y.!.^./././.^.Y.G.k.w.D c #             * N 9.f.G.Y.Q.Y.S.s.=.v X   . = 0 T / { | } { { { { ] [ { ",
"{ { { { { ` ] ` ` ` ` ( ( E E E o.<.t.f.U.U.Y.U.S.g.t.$. .K J 1 1 J K X.:.<.f.S.G.Y.^.^././.~.!.Y.G.S.p.<.$. .K J 1 1 J K ..$.r.s.F.D.U.U.F.f.p.<.$. .E E ( ` } ` ` ` [ ] ] { { { { ",
"` { { { ' _ _ R R / } :.>.3.6.n.M.L.L.B.z.k.z.z.z.M.M.N.6.6.5.5.5.5.6.6.C.B.F.F.G.Y.W.!.W.W.W.K.Y.J.J.F.B.Z.V.6.5.6.6.5.6.N.N.M.g.B.z.S.z.S.B.B.C.V.6.4.2.>.:.( ` ! R _ ` ` { { [ { ",
"] { { ] ` _ z h h m ( >.V.[.}.oXOX.XT.T.B.a.i.p.M.B.P.|. XoXoXoX#X#XOXOX+X.XXXR.W.K.K.b.K.b.b.K.H.U.XXXXOXOX#XoX#X#XoXoX.X X{.P.B.g.a.i.s.B.P.|..X.XOX{.L.N.2...k f f U ! ` { { { { ",
"{ { { ] ` z d 6 6 e :.4.A.oX&X6X7X5X$XT.M.;.*.;.p.P..X$X6X9X0XiXiXiXtXeX7X5X=X*XW.K.c.c.c.h.c.v.H.U.*X=X&X8XiXiXiXiXrXrX9X5X$X.XP.n.;.%.;.M.T.$X,X9X9X&XOXA.4...s 6 6 f k _ ` { { { ",
"| { ] ] _ h 0 o   3 X.N. X5XtXaXaXiX,X X4.@.n ..4.P.$X7XaXgXcXcXvXvXvXxXaXwX7X;X(.I.c.h.h.h.h.c.I.).;X2XpXgXjXcXcXvXcXcXxXaX9X$XP.4.@.n ..N. X5XiXgXgXeX&X X6...6   o 0 z ! ] { [ { ",
"{ { } ] ! h *     # o.Z.#X0XgXvXmXxX0X.XN.E 4 n 4.|.6XaXcXNXCXZXSXVXVXVXvXhXwX<X'.Y.c.h.h.h.c.b.W.`.<X3XdXbXNXBXZXZXZXVXNXcXiX5X|.4.n 4 n 4..X7XgXmXnXgXiX#XL.o.#     2 f ! ] { | { ",
"{ | { [ ! d o     . o.L.$XiXcXCXCXvXiX$XN. .4 E 4..X9XgXVXZXAXAXAXVXVXVXcXhXwX1X;X).Q.Y.W.W.W.Y.(.;X2XwXfXcXNXCXZXAXAXAXZXBXxX0X.X6.E 4  .N.$XpXnXVXCXvXiX$XL.o..     o f ! ] { | { ",
"| { } ] ! d         o.L.%XaXmXZXZXNXdX$XA.$.c $.C.$XiXvXCXAXAXAXVXVXvXcXgXdXqX2X<X;X=X'.].].'.].;X<X2XwXpXgXjXvXNXCXAXAXAXBXvXeX+Xm.$.c $.P.%XaXmXZXZXmXiX&XL.o.        d ! ] { [ | ",
"[ { | [ ! 6         o.L.&XaXmXCXZXBXhX5XT.p.%.;.T.,XpXcXCXZXZXVXvXgXiXeX9X7XqXqX2X2X3X1X1X1X3X3X2X2X2XqX7XeXeXiXaXcXVXZXZXCXnXpX%XT.;.%.p.T.5XgXBXAXAXmXaX%XL.o.        d ! ` { { { ",
"| [ { ` ! d         +.L.%XaXmXAXAXBXjXqXXXB.i.B.T.,XdXbXVXZXNXcXiX8X%X+X+X$X,X2XqXsXdXdXdXfXdXdXsXsX7X,X$X#XOX$X9XaXcXVXZXBXnXpX,XR.B.a.B.XXqXhXBXAXZXmXiX%XL.o.        d W [ { | { ",
"{ | { [ ! d         o.L.%XiXvXZXZXBXjXqX=XU.x.F.`.2XdXmXNXVXvXaX6XoXL.Z.C.|.$X7XdXhXlXlXbXnXlXlXgXpX7X$XT.L.C.L.oX6XaXvXBXBXnXdX2XXXJ.S.J.=XqXlXCXZXZXmXiX%XL.o.        d ! ] { { | ",
"{ { { [ ^ d X     . o.L.#XtXvXVXZXBXhXuX;XE.I.E.;XqXfXmXVXmXxX0XOXZ.>.X.>.C.OX9XgXmXBXCXCXCXCXBXcXgX7X+XL.>...>.Z.OX0XxXmXBXnXhX3X=XE.H.(.=XuXhXBXCXBXcXiX#XL.o..     X d ! ] { { | ",
"{ | { ] _ f *     @ o.V.OX9XzXvXmXnXdXwX:X/.Y.`.>X4XkXMXBXmXzX8X}.1.4   u 6..X9XgXNXZXAXAXSXAXZXNXgX0X.X6.u   5 3.}.8XzXvXVXNXhXuX>X).Q./.:XuXfXnXmXvXgX9XOXZ.O.@     * f _ ` } { { ",
"{ { { ] ! z 6 X   3 ..V. X&XrXaXgXdXsX2X*X_.!.].1X4XlXBXBXmXgX&X[.+.    + 3. X9XcXVXAXDXDXSXSXAXCXgX0X X1.+     +.[.&XzXVXVXBXjXuX1X].~./.*X<XpXgXzXaXrX&X X6.X.3   X 6 f ~ ] ] { | ",
"{ | [ ] _ R d 6 3 e ' 4.L.oX&X8XeXqX2X;X'.~._.].1XsXlXBXBXNXgX8X[.X.      >. X8XxXBXAXDXDXDXDXAXVXxX8X X>.      X.[.&XzXNXCXBXlXsX>X]././.'.;X2X7X0X8X&XoXA.4.:.e 3 6 d z ` { { { { ",
"{ { { [ ` T z f h I ..3.N.L.{.oX#XXXXXR.E.Q./.-X4XsXMXBXCXBXxX8X[.O.      >.{.8XgXNXAXAXSXSXSXAXVXgX8X}.>.      X.[.8XxXNXCXBXlXsX4X-X/.Q.E.E.XXXX+XoX}.A.6.>.O.k f h z ! ` { { { { ",
"{ { { { ` _ ! R R / ( :.>.3.6.6.C.L.P.U.I.Y./.>X4XsXbXBXZXVXxX8X{.+.      >.|.6XgXNXZXAXDXAXAXZXNXgX8X}.>.      +.{.8XxXNXCXCXlXsX4X-X/.I.I.S.T.P.C.V.5.5.>.:.' ! R R _ _ ` ] { { [ ",
"] { ] ] ] ` [ [ [ ` ' ( ( E  .X.o.;.t.u.j.v.!.].4XsXlXBXZXVXxX8X}.>.O   4 3. X8XgXNXCXAXSXAXAXCXNXgX7X X3.4   O >.}.8XxXNXCXBXMXsX4X-X~.v.l.y.t.<.$.X. .E ( / ` ` ` ` ` [ ' { ] { { ",
"] { ] { { { { } { { ` T w : + . * v G 8.u.l.Y.].<XsXkXmXNXvXxX8XoX6.n t X.N.OX9XgXNXCXZXAXAXZXCXNXgX0XOX6.X.t A 5.oX9XgXmXBXMXkXsX<X].Y.l.u.8.D x * . + : d T ] { { | | [ { ] { { ] ",
"{ ] ] { { { | | | { _ R 0 =       % p G 8.d.U.E.:XwXsXjXbXcXdX9XOXL.6.1.6.|.%XiXcXNXCXZXAXAXZXZXNXgXiX%X}.6.1.4.L.OX7XgXcXlXlXsXqX<XE.D.j.8.V a %       + 0 U ] | | | { { { { ] [ ] ",
"] ] { ' { ' | | | } ` z f 2       % i V Z e.f.J.XX:XqXuXfXfXpXeX,XOX|.}.oX&X0XaXnXVXZXZXAXAXZXZXBXnXaX0X%XOX}.{.OX,X0XdXgXfXsXqX:XXXU.f.0.G V i %       2 d R _ { | | | { { { { { { ",
"{ ] { { { { { | | { ` ) U d 6 2 6 6 f a C Z q.g.T.XX,X1XwXsXuXwX7X5X5X8X0XiXgXvXmXCXZXAXAXAXAXZXCXNXvXgXiX0X6X5X7X7XwXsXsX3X2X;XXXU.M.q.D C s s d * 6 6 w U T [ { } } | { { { ` { { ",
"{ ] { { { { { { { { [ ` _ R U U z z s s s x Z ;.M.F.E.=X:X3X4XwXsXiXaXaXxXcXmXVXZXZXZXZXAXAXAXZXZXCXNXmXcXgXaXaXpXsXqX4X3X<X=XR.T.p.-.S x s s s s z U U R ) ] ] { | { { { { { { ` { ",
"] ] { [ { { { { { ] ] { ] [ [ ` / ! j q 2 > 7 S -.i.S.Y.'.:X3XuXdXfXcXmXVXVXVXCXCXZXZXZXZXZXZXZXCXCXBXCXNXNXNXjXfXdX3X1X:X'.U.x.i.=.A 7 2 2 3 j ! _ ` [ ] ] ] ] ] { ] [ ' { { { { { ",
"{ ] [ [ ] ] { { { ] ] ] [ { { { ` / I 9 - + , x Z 7.8.h.K./.:XwXsXhXmXBXCXCXCXCXmXBXMXVXBXBXBXBXNXBXBXCXZXVXCXmXhXdXwX:X).G.l.e.H D x $ = ; 0 k / ] [ | [ { { { ] ] { ] ` { { ` { { ",
"{ { ' { ] ] { { [ ] ] ] [ [ [ { ` / I j e 5 r c C G 8.8.h.I.`.<XqXdXjXvXNXmXvXvXvXxXxXcXxXxXxXxXcXcXcXmXNXNXvXjXdXwX:X'.U.h.8.8.G C c r 5 5 j W / ` ] [ [ [ ] ] { { { { { { { { ` { ",
"{ { { { { { { { { { ] ] ] _ ^ ! W Q Q ( m B B D G G 7.8.8.j.U.XX,X7XiXaXaXaXaXiXtXtXeXeX0XeXeX0XiXiXiXaXaXaXaXiX7X,XXXU.h.8.8.8.G H D B B m B ~ Q W W ^ _ ` ` { { { { { { { ] { [ ` ",
"{ { ` { { { { | } { ] ] T P L w j b ( @.*.-.q.q.=.7.G G 7.0.p.B.T..X$X%X5X%X$X$X#X+X+XOX+XOXOXOXOX#X$X$X%X%X%X$XOXT.B.p.8.8.V 7.7.9.q.q.;.=.' B m j w L P ^ ^ { | { | { { { { ] { ' ",
"{ ] ] ] { { | { | { ] ^ P 0 8 ; 8 b S -.i.s.f.f.a.e.G D C S #.<.4.M.C.L.L.L.C.C.V.V.Z.N.N.N.V.V.V.Z.C.C.L.L.C.Z.N.4.<.#.A C D H 0.a.f.f.s.p.=...b 9 ; 8 w P ! ] { | | { { { { [ { ` ",
"{ ] ] ] { { { | | { [ ! L 8 - - > c #.w.f.S.G.S.z.y.-.Z x 5 5 t u A X.X.X.X.X.X... .....X. ..... .X.X.X.X.X.X.X. .n t 7 5 x S 9.a.z.v.D.S.f.t.#.c : = - 8 L ! ` { { { | | { { { { { ",
"] { ] { { { { | | ] ` W w 8 - + 4 A =.s.S.Y.Y.Y.S.d.-.A r O . O + + $ , , , , , , , , $ $ , , # , , , , , , $ , + O O . + r A 9.s.S.Y.Y.Y.x.s.=.B 4 + = 8 q W ` { { | { { { { ` { { ",
"] { { { { { ] ] [ ] / W b e 5 7 n D t.z.J.Q.^.Y.G.f.w.S u # + = < t u u E u u u u u u u u u u u u n u u K n u u t < = + # x F q.f.I.Q.!.Q.U.z.t.F c 7 5 e I W _ ` { ` [ ` { { { { { ",
"{ { { { ] ` ^ ^ T W W Q Q m M B %.;.d.x.Y.!./.!.Y.z.a.&.Z M  ...+.3.3.4.5.4.4.4.3.3.3.3.3.3.3.3.3.4.3.5.5.4.4.3.<.>...E n S &.y.x.U.!./.!.Y.x.d.t.D S n n m W m ^ T ^ / ` [ { { { { ",
"{ | | { ] ^ T L L e j m B @.%.-.t.s.x.U.Q.~./.!.Y.x.j.w.-.-.p.n.L.{. XoXoX.XoX X X X X X X{. X|.}. X.X.XoXoXoX}.[.P.M.1.<.0.w.d.x.Y.!././.Y.U.x.s.t.;.*.@.( m k L w L T ! ` { { { | ",
"| | | ] ` T L 0 8 : e m @.=.t.a.z.x.U.Y.!././.~.Y.H.l.d.d.B.T.T.XX%X8XrXrXrX0X9X9X8X6X6X6X6X6X6X8X8X9X0XiXrX0X9X%X+X|.F.f.d.j.l.I.I.!._.~.!.Y.U.S.g.s.t.&.@.b e : 8 9 L T ` { | { | ",
"| | | [ ` P w - - - 5 M #.q.s.S.G.I.Q.!.!.!.~.!.Q.H.c.l.x.U.R.;X7XpXaXxXxXvXxXxXgXgXdXgXgXgXgXgXgXzXxXxXcXcXxXdXpX7X=XXXU.x.l.c.I.Y.!.~.~.!.!.Y.Y.G.S.s.r.#.M 5 = - ; w T _ { | | | ",
"{ | } ] / I 0 - = + r A -.a.z.U.Y.!.!.!.^.Q.Q.Q.Q.H.b.b.H.(.=X<XwXhXvXBXVXCXBXNXmXnXmXmXvXmXmXmXmXmXVXVXCXVXVXbXzXuX2X=X(.H.c.H.H.K.^.!.Q.!.!.^.!.Q.I.z.s.-.A r + + - q k _ ] } { } ",
"] ] ] / / W e 9 4 r N *.t.z.I.Y.~./.!.Q.Y.Y.Y.U.H.H.b.b.Y.).:X3XsXkXmXBXCXZXZXCXCXZXCXZXZXZXZXCXCXCXCXCXZXCXVXnXbXuX3X-X*XK.K.b.H.H.H.G.J.!.Q.~.~.!.Y.G.k.t.D A r 4 9 e m ` ` ] [ [ ",
"^ ^ / ~ ~ ~ ( n M A H q.d.x.U.W.~.!.Q.Y.D.S.S.S.S.G.b.b.!._.-X1XuXsXlXnXBXCXCXZXZXZXAXAXAXAXAXAXZXZXCXCXCXBXnXbXuXuX1X-X_.Q.K.D.D.D.S.D.D.G.H.Q.!.~.W.I.x.s.t.H S M n m m ~ / / / / ",
"I I W W ( Z ' @.*.;.t.d.l.v.I.I.W.Y.I.x.z.d.s.f.k.l.v.G.Q./.-X<X3XuXsXhXlXnXMXBXCXAXAXAXSXAXAXAXZXZXCXMXbXbXkXuXuX4X:X-X).Q.H.v.x.k.d.s.d.k.D.G.W.Q.I.b.v.z.a.t.-.%.#.@.( ( Q T k T ",
"q q e b B ' -.q.i.s.f.z.v.b.b.K.I.c.l.d.y.q.-.q.w.d.l.G.Q./.'.-X:X:X3XwXdXhXlXMXVXZXAXAXSXSXSXAXZXCXmXbXfXuXuX3X:X-X-X*X).Q.G.x.d.i.t.-.q.a.j.l.b.b.W.I.v.x.x.l.s.i.q.&.' ( b e q q ",
": ; 8 e B #.;.a.f.S.G.H.H.I.K.K.v.c.j.e.&.S S @.-.a.k.G.Y.^./.).).'.*X:X3XuXdXxXmXZXAXAXSXAXAXZXCXmXbXfXuX3X;X*X*X'.'._.^.K.D.k.i.;.@.S ' H w.j.x.c.b.I.I.I.I.b.S.g.p.q.%.B e 2 ; : ",
"+ + + 7 B %.i.f.G.Y.Q.Q.Q.!.!.W.H.l.d.9.S c r c @.q.f.S.Y.!.^.!.W.Q.Y.`.=X1XsXhXnXVXAXAXAXAXAXZXVXbXzXuX2X*X`.Q.K.Q.!.^.!.H.D.f.q.F n r c S 0.u.x.I.W.!.Q.!.~.W.Y.D.f.i.%.B 7 + O + ",
"    . 4 M &.a.S.U.Q./._._._.]._.E.U.g.;.B 5 O 4 M -.f.S.Y.!.!.W.W.c.c.Y.`.:XqXdXhXnXVXCXCXCXVXVXmXcXdX3X;X*XK.v.c.K.K.^.^.J.G.s.=.N * + 5 B -.B.U.E._._._._._./.Q.G.S.i.*.B 4 .     ",
"      4 N =.a.x.H.^._.].>X>X>X>X;XR.T.p.o.< . . x &.s.S.Y.!.Q.K.b.c.c.b.!.*X<XwXdXjXvXnXnXmXnXnXcXdXuX<X*X(.H.c.c.b.K.W.Q.J.G.s.*.x O . < o.p.T.E.;X:X>X>X].].].!.I.z.y.=.N $       ",
"      $ N =.y.l.G./.].>X>X4X4X4XqX,XXXC.>.t O   x H a.S.Y.!.^.W.K.c.c.b.Q.'.:X2XwXsXdXhXhXhXdXdXuXuX3X;X*XY.H.c.c.b.K.~.^.Y.D.a.H x   . y >.C.XX,X3XuX4X4X>X>X].!.Y.l.y.=.N $       ",
"      $ M H e.j.H.~.].>X4XuXfXkXdXqX%XT.4.K O   p H a.S.H.!.^.W.W.b.b.I.^.`.*X:X1XqXwXwXqXqXqXwX3X<X;X=X`.!.H.H.K.W.~.!.!.H.S.d.#.p   O K 4.}.#XwXfXfXfXsX4X<X].!.I.j.y.H N $       ",
"      $ M %.e.h.b.~.].4XuXkXlXnXbXgX9XOXV.X.+   p D y.S.Y.!.~.~.Q.Y.I.Y.Q.(.'.*X=X;X;X;X:X<X:X:X;X*X*X*X(.!.Q.H.W.W.W.~.^.H.S.y.H p   + O.6.oX8XgXlXMXlXkX4X1X].!.b.j.y.H N $       ",
"    . 4 N H e.u.c.Q.*X1XuXlXMXBXmXxXeX#X6.+.< o p Z y.D.Y.!.^.!.Q.Y.Q.^.Y.^.^./.^.`.`.`.`.`.`.`.(.(.(.^.Q.Q.Q.K.Q.!.!.^.!.Y.D.y.H p X # o.L.#XiXxXNXBXMXkXsX1X].Q.c.u.0.D N 4 .     ",
"O O + 7 N D 8.u.l.H.'.<XuXkXnXmXmXxX0X#XL.O.> o p H y.D.Y.!.^.^./.Y.Q.Y.Y.Y.Y.Q.Y.I.W.I.W.W.Y.W.Y.K.Q.Q.Y.Q.Q.Q.!.!.^.!.!.Y.S.y.G i o > +.6.#XrXgXmXBXmXkXuX<X`.Y.l.u.8.H N 7 + O O ",
"= = : 7 B H 9.e.j.S.E.=X3XdXgXcXxXiX8XoX6. .> % p 8.y.S.H.!.^.^.Q.^.Q.Y.Y.Q.I.H.I.b.b.b.b.b.b.b.H.H.H.H.H.Q.Y.E.!.!.!.^.!.Y.S.y.H a % >  .6.oX8XaXxXxXgXsX3X;XR.S.j.e.H H m r : = ; ",
"q 9 q b m Z Z 9.w.d.J.R.,X,XeXiXiX8X#X[.5.K > % a 7.d.D.Y.^.^.^.^.^.Q.Q.Q.Y.W.H.W.b.H.b.b.b.b.b.K.H.K.Q.Q.Q.Q.!.!.!.^.^.!.Y.S.d.H v % >  .5.[.#X8XiXiX0X,X$XR.U.d.e.7.&.Z m b q 9 0 ",
"k j k m Q Z Z D H t.p.M.T.XX+X$X#XoX[.6.+.y , & C 9.s.S.Y.!.^.^.!.!.Y.Y.!.Y.Y.W.Q.W.W.W.W.W.W.W.W.W.Q.Q.Q.Q.Y.^.Q.!.^.~.^.Y.S.d.9.C & > K +.5.[.oXOX$X+X.XT.B.s.q.=.H Z ' B W I j I ",
"^ ^ ^ ~ ~ ` Z Z A D *.<.4.N.C.C.L.6.5.+.y 1 , x Z q.d.G.Y.!.^.!.!.!.Y.!.Y.!.Q.~.!.!.!.!.!.!.!.!.!.!.Q.Q.Q.Q.Y.Q.Q.!.~.^.!.Y.S.f.q.Z x > 1 K +.3.6.L.L.L.N.4.<.$.D Z Z Z ( ( ~ W W ! ",
"` ` ] ` ` m E b c c c A A X.+.+.o.o.K y - = > x F q.f.S.Y.!.^.~.!.Y.!.Y.!.Y.!.^.!.~.!.~./.!.!./.!.!.^.Q.^.Y.Q.Y.Q.^.!.^.Q.Y.D.f.q.F x $ + = t  .o.o.+.o.o.A n c c x b m Q / ` ] ] ] ",
"} { ] ` ` ^ I e 5 ; + O O O O O O O O .   O , c #.w.f.G.Y.!.!.~.!.!.Y.!.Y.!.Y.Y.Y.Y.Q.I.Q.Y.Y.Y.Q.Y.Q.Y.Q.Q.Q.Q.Q.Q.!.^.^.Y.G.f.r.#.n , . . . O O O O O O . O + : 3 e k ^ / ] { { { ",
"} | | [ / W I q : = O                       > M #.w.k.S.Y.!.^.!.W.Y.Y.Y.I.I.I.I.U.I.U.v.U.v.G.D.G.G.Y.Y.Y.Y.Y.Y.Q.!.~.!.Q.Y.S.f.w.%.c ,                       O = : q I Q ` { | | | ",
"| | | [ ] / T j 0 : = +                   . > n #.q.f.S.H.W.Q.Q.W.W.W.Y.U.U.U.x.l.k.g.f.f.f.g.g.z.z.S.S.G.I.I.W.Q.!.!.W.Y.H.x.j.q.#.M : .                   O = : 0 j T ^ ] { { | | ",
"| | { { ] / W I j q 0 3 3 2 2 * * # . . . O , c D q.u.x.b.K.W.W.W.W.I.I.c.x.l.d.a.t.t.p.t.t.;.t.a.a.d.l.l.b.b.K.W.W.W.W.W.b.l.d.9.D x , O . . O o * * 2 2 3 3 0 w P I W / ` ] { { | ",
"{ { { { ] ] / ! ! W T P j z l h d d 3 ; = + > x S 0.u.l.c.K.K.W.W.W.c.I.c.l.d.y.-.=.#.S S S #.#.%.q.w.d.l.c.b.b.K.K.W.W.H.v.l.u.9.S x > + + ; 3 w h h h z z k k W ! ~ / ` ] } } { { ",
"{ { { ] ] { ' ` ` _ / ` ` / ` _ ! T j 9 - + # x D 9.y.l.v.I.W.W.W.W.W.I.l.j.y.-.D N c r 7 7 t c M F 9.y.j.v.v.H.W.W.W.W.K.c.l.u.9.F x # + - 9 j k ` _ ` ` ` ` / _ ` ' ] ] ] ' { { { ",
"] [ { ] ] { ] [ { { ] { { ] { { ] ^ k 0 - = $ u D 9.d.x.Y.!.~.~././.!.I.U.z.p.H B 5 + .       O 7 B &.y.z.D.Q.!.^.^.~.~.^.W.S.f.t.F u > + ; 9 I ~ ` ] { { ` [ [ ] [ { { ] ] ] ] { [ ",
"] { ] { { { { { [ { [ | | | { { ] / k 0 = + , n $.p.U.R.`.].>X].].:X].'.E.T.s.;.n +             + n $.M.F.E.'.*X-X>X-X].*X`.R.F.p.$.n $ + = 0 k / { { | | { { | { { { { { { { { { { ",
"{ ] { ] { { { { { | { { | | | | { _ P 3 +   @ A <.B.T.;X:X1X3X3X4X4X3X<X'.R.P.<...+             + A 1.F.XX=X<X1X4X4X4X4X1X:X=XT.B.<.A @ . + 3 g _ [ | | | | | [ } } { { { ] ] { [ { ",
"[ ' { ` ] { { { { { | | | { | { { ! h 2     + A 4.P.XX<XpXsXfXfXfXfXsXuX1X$XT.M.X.+             + ..N.T.+X2XuXsXfXfXfXsXuXwX2XXXP.4.A +     2 h _ { { | | | | { { { { { { { ] ] ] { ",
"[ { { { { { { { { { { { [ | | | ' ^ d @     + o.L..X,XiXgXlXlXBXMXMXlXkXdX7X.XL.$.<             $ >.C.+X2XpXkXbXMXMXMXMXnXfXyX5XT.N.o.+     @ d ! { { | | { { { { { { { { ] { { ] ] ",
"] ] { { { { ] { { { [ { { | | [ ` ! d       . o.L.T.7XpXlXBXZXZXZXZXBXbXgXiX$XP.>.t             t >.P.$XeXgXmXBXCXZXZXCXCXbXyXqX+XL.o.+     . d R ] [ | { { { { ] { { { ] { { ] { ] ",
"{ ] { ` { { { ] [ { { { { [ { { ` ! d .     $ o.L.OXiXgXNXZXZXZXAXZXZXNXhXiX&XP.1.y             y 3.P.%XiXjXBXCXAXAXAXZXCXmXzX9XOXL.>.#       d ! ` { [ | { { ] { ] [ { ] { ] { ] { ",
"] { { { [ [ ] { ] { ] { { { | { { ! f *     5 >.Z.OX8XaXcXmXCXCXCXCXCXvXzXrX@X[.2.K             t 3.[.@XtXzXvXVXCXCXCXCXVXcXaX6X.XL.$.4     * d ^ ` { } { | [ ] { { { { ' [ { ` { ' ",
"{ { { { [ ' ] ] { { ] { { { { { ` ! f 6 o X e +.V. X%XtXzXzXvXvXvXvXcXzXyX5XoXA.>.I .         . Q 3.C.OX5XtXzXcXvXvXvXvXcXaXtX%X XN.>.e X o 6 h ^ ] ] } { { { ] { ] { { ] [ { { { { ",
"[ [ ` { { { { { { { ' ] { { { { ' _ z d 6 6 b :.n.[..X5X7XtXyXyXyXyXyX9X5X@X|.Z.>.Q 3 o     o 6 Q >.m.{.@X5X9XtXyXyXyXyX0X9X%X+X[.4.:.b 6 6 d R _ ] { { { { { { ] ] ' { ] ] { { [ [ ",
"[ ' { { { { { ] { { [ [ { { { { { ` ! z h h W } 2.m.A.|.@X@X@X5X@X@X@X@X|.{.m.4.,.~ z d d 6 d g ~ ,.4.A.[.|.@X@X@X%X@X@X@X@X|.A.m.<.:.W h h z ^ _ ] ] { { { ] ] ] [ [ { ] { { { ] [ ",
"] ] ] ] ] { ] ] ` { { ` { { { { { { ` _ R ! ` } ,.2.n.m.A.A.A.A.A.A.A.A.m.n.2.,.:.' ! z R z T W ` :.,.2.n.m.A.A.A.A.A.A.A.A.m.n.2.,.} ` T T ^ _ ` { [ [ { { ] { ] { { { { ` { { ] ] ",
"] ] [ [ { ] ] [ { { { { { [ { ` ] ] ` ` ` ` ` { { | | ,.,.,.,.,.,.,.,.,.,.| | | ] { ] ` _ ` ` [ [ { | } | ,.,.,.n.,.,.,.,.,.,.| | { { [ ] [ ] [ ] ] ] [ { ] { { { ] { { { { { ` { ] ",
"{ { { ' { { { [ { { { { { { { { { { { { | { { [ _ _ ) Y Y Y Y l Y Y Y Y Y R ) [ [ [ { | } } } { [ [ [ ) ) Y l Y Y Y Y l Y Y Y ) ) [ { { { { } { { { { ' { { { { ] ] ' { { { { { { { ",
"{ { { { { { { ' ` ' { ` { { ` { { { } { } | { [ _ U Y U h d d d h h d f Y Y Y ) [ { } | | | | | [ [ ) Y Y l f f h d d d f l l Y U _ [ { | | } { { { { { ` { { ` [ [ [ { { ` { { { { ",
"{ { ` { { { { { [ { ] { { { ` ] { { { | | } { [ ) ) Y l f f f f f f f l l Y ) ) [ [ { | | | | { { [ ) Y Y l l f f f f f f l l l ) _ [ { } | } { { { { { ' [ [ ] [ [ [ [ { ] { ] [ [ "
};
