/* XPM */
static char *result[] = {
/* columns rows colors chars-per-pixel */
"90 105 248 2 ",
"   c #000000",
".  c #000C03",
"X  c #00000B",
"o  c #001606",
"O  c #000014",
"+  c #00001C",
"@  c #030B1B",
"#  c #01181A",
"$  c #131B1E",
"%  c #002701",
"&  c #003304",
"*  c #01241B",
"=  c #12361B",
"-  c #000024",
";  c #020B25",
":  c #000329",
">  c #031422",
",  c #061921",
"<  c #051827",
"1  c #06122E",
"2  c #161A24",
"3  c #2A1836",
"4  c #032727",
"5  c #152524",
"6  c #192A29",
"7  c #01362A",
"8  c #1A342A",
"9  c #012631",
"0  c #002E33",
"q  c #003335",
"w  c #053A37",
"e  c #193D34",
"r  c #24282C",
"t  c #263B29",
"y  c #2B2836",
"u  c #2C3634",
"i  c #343939",
"p  c #024901",
"a  c #0D5006",
"s  c #26591B",
"d  c #066000",
"f  c #347611",
"g  c #00422F",
"h  c #004434",
"j  c #05463A",
"k  c #014C3A",
"l  c #17473B",
"z  c #14453D",
"x  c #194A3E",
"c  c #03513E",
"v  c #13513F",
"b  c #2C442C",
"n  c #2A482A",
"m  c #30472D",
"M  c #2F5A27",
"N  c #284A38",
"B  c #364838",
"V  c #2B533B",
"C  c #365232",
"Z  c #385332",
"A  c #385A39",
"S  c #37662A",
"D  c #397224",
"F  c #3C6239",
"G  c #415B3A",
"H  c #43643C",
"J  c #436838",
"K  c #496B3D",
"L  c #477C32",
"P  c #477439",
"I  c #4C7D3B",
"U  c #372741",
"Y  c #44384B",
"T  c #0A4E41",
"R  c #134A41",
"E  c #1B4D41",
"W  c #1D5344",
"Q  c #195944",
"!  c #254F41",
"~  c #3B4841",
"^  c #235444",
"/  c #2A5643",
"(  c #235A46",
")  c #2C5A45",
"_  c #255C49",
"`  c #295D49",
"'  c #355B45",
"]  c #26624B",
"[  c #2E654E",
"{  c #2D684F",
"}  c #36644A",
"|  c #2F6750",
" . c #2F6850",
".. c #306750",
"X. c #316951",
"o. c #367056",
"O. c #387157",
"+. c #454B47",
"@. c #4B534C",
"#. c #48584A",
"$. c #525A4F",
"%. c #525455",
"&. c #545C53",
"*. c #476845",
"=. c #4A6D42",
"-. c #546A4C",
";. c #4D7244",
":. c #4D7942",
">. c #517543",
",. c #537A47",
"<. c #547C49",
"1. c #496553",
"2. c #596758",
"3. c #5C7459",
"4. c #626D5E",
"5. c #62765B",
"6. c #5F7662",
"7. c #656C62",
"8. c #657362",
"9. c #6B7867",
"0. c #727B6D",
"q. c #737971",
"w. c #4E813C",
"e. c #51833D",
"r. c #4F9330",
"t. c #56943A",
"y. c #548443",
"u. c #588846",
"i. c #5B854C",
"p. c #5E894D",
"a. c #5D9446",
"s. c #5F8552",
"d. c #608A4E",
"f. c #62964D",
"g. c #639A4B",
"h. c #628E51",
"j. c #68885D",
"k. c #659353",
"l. c #689954",
"z. c #6A9C55",
"x. c #6D9C59",
"c. c #66A64A",
"v. c #6CA355",
"b. c #6DA953",
"n. c #6FA259",
"m. c #71AC56",
"M. c #72A45D",
"N. c #74AA5D",
"B. c #76B25B",
"V. c #75B459",
"C. c #7ABA5D",
"Z. c #6E8765",
"A. c #72836D",
"S. c #7B8F6F",
"D. c #769868",
"F. c #7B8776",
"G. c #7C8B75",
"H. c #7C9373",
"J. c #79A567",
"K. c #77AB60",
"L. c #79AD62",
"P. c #7DB465",
"I. c #7EBB62",
"U. c #7FB16A",
"Y. c #828E7A",
"T. c #84947C",
"R. c #869A7C",
"E. c #81BC66",
"W. c #81B56A",
"Q. c #83BD6A",
"!. c #86A877",
"~. c #8AB975",
"^. c #91BB7F",
"/. c #83C266",
"(. c #86C16C",
"). c #89C56E",
"_. c #8BCA6E",
"`. c #8CC671",
"'. c #8DCA72",
"]. c #90CC75",
"[. c #92C57A",
"{. c #94C97B",
"}. c #94CB7B",
"|. c #95D179",
" X c #899582",
".X c #8C9B83",
"XX c #909E88",
"oX c #8FA385",
"OX c #94A48B",
"+X c #96A88B",
"@X c #96B787",
"#X c #9BA792",
"$X c #9CAB92",
"%X c #9EB292",
"&X c #A1AE97",
"*X c #A3B698",
"=X c #A9BB9D",
"-X c #ADBEA1",
";X c #9ACC83",
":X c #9DC988",
">X c #9DD284",
",X c #9FD188",
"<X c #A1CC8C",
"1X c #A3D38D",
"2X c #A4DA8B",
"3X c #A8C997",
"4X c #AAD695",
"5X c #B1D69D",
"6X c #B2DB9D",
"7X c #B2E29B",
"8X c #AEC2A1",
"9X c #B1C4A5",
"0X c #B3C9A5",
"qX c #B6CAAA",
"wX c #B9CDAC",
"eX c #B5DDA2",
"rX c #B8DAA6",
"tX c #BCD4AD",
"yX c #BECFB2",
"uX c #BED2B1",
"iX c #B9E2A4",
"pX c #BDE2AA",
"aX c #C0DFAF",
"sX c #C1D4B4",
"dX c #C4DAB5",
"fX c #C7DBB8",
"gX c #C9DEBA",
"hX c #C1E4AE",
"jX c #C3ECAE",
"kX c #C5E5B2",
"lX c #C7EAB4",
"zX c #CCE3BD",
"xX c #CDEBBB",
"cX c #D0EEBE",
"vX c #D0F3BC",
"bX c #CFE3C0",
"nX c #D2E7C3",
"mX c #D4EBC4",
"MX c #D9EEC9",
"NX c #D5F2C3",
"BX c #DCF4CB",
"VX c #DCF8CA",
"CX c #E0F9CF",
"ZX c #E1F7D1",
"AX c #E4FCD3",
"SX c #E8FFD7",
"DX c #ECFFDB",
"FX c #F0FFDE",
/* pixels */
"........} ......X...X.X.X.X.X.X.X.X.X.X.X.o.X.o. .o. .X.o.X.X.X.o.X.X.X.X.o. .X.o.X.X.X.o.X.X.X.X.o.X.X.X.X.o.o. .X.X.X.X. ...X.X.X.X.X.X.X.X.[  . . . . . . .X. .X...X... . . . .X.",
"....X...X. .......X.X.X.[ X.X.[ ....X.X.X.X.X.o.o. . .o.X.X.o.X.o.X.o.X.o.X.X.o.X.X.o.X.o.X.o.X.o.X. .o.o.X. .X.o.X.X.X...X.X.....X.X.X.[ X.X.X. . .X.X.} X. .X...X.X...X. . . .X.X.",
"X.X...X.X.X. . .X...X.X.[ X.X.X.....X.X.X.X.X.X.X.X.X.X.........X...X...X...X.X.....X.X. .X.X...X.X.X.X. .X.X. . ... ... . . ... .....X.X.[ X.[ .... .X... .X.X. .....X.X. .X.X. . .",
"X.X.X.X. .X. . ...X.X.X.X.X.X.[ ................ . . . .......[  .X.X.[ X.X. . .} ...... . . .|  . . . .} .. .[  . . ... .X...X.X...X...X.X.X.X.......} X.X. . .X.} ....X.X.X. . . .",
"X.X.[ X.X.X.X.} X.X.X.X. .X.X.X...| [ ` ` ` _ _ ` _ _ _ ` ` _ _ _ _ ` _ _ _ ` ` _ _ _ _ ` ( ` ` ` _ _ _ _ ` ` ` _ [ [ [  .X.X.X.X.X.X. .........X.X.X... .X.X.X.....X. .} ....X.X. .",
"X.[ X.X. .[  ...{ { X.X. .X.o.X...| ` _ ^ ! x z z z l x x x E E x x x E x x x x E x x x x x x E x E l l z z x E ^ _ ` [  .X.o.X.X.X.X.X......... . .X. ...} X. .....} X.....X.......",
"X.X.X.X. . . .X. . .X.X.X.X.o.X.X.| _ W z w 0 0 9 9 0 0 0 0 q 0 0 0 0 0 0 0 0 q 0 0 0 0 0 0 0 q 0 0 0 9 9 9 0 q z W ( [ X.X.o.X.X.X. .X.X. ..... .X. .X...X. . .X...X.X. .X. . .....",
"X.[ X.[  . .X.X. . .X.X.o.o.o.o.X.` ( R w 9 - - - - - - - - : - : - : - : : - - : - : : - : - : : - - - - - - 9 q R ^ [ X.o.o.o.o.X.X...X....... . .X.X..... . . .X. .X.X. . . .} X.",
"..X.....X.X.X.X. .X.X.X.X.O.o.X...` ^ x q < + + O O + + + + + + + + - + + + + + + - + + + + + + + + + O O O + 1 q l ^ ` ..X.o.X.X. . . .X.X.X.X. . .X. . . . . . . .X. .} ....X. . .",
"X.......| X.|  . .}  . .X.X.X.X...` / N l 8 5 $ $ $ 5 5 5 5 5 5 5 5 5 5 5 5 5 5 5 5 5 5 5 5 5 5 5 5 2 $ $ $ 5 8 e N V _ [ ..X.X.| | X.X.X. .| X. . .} ..X. . .X. . .X.X.X. ..... . .",
" ...........X.X. .X. . .| | [ ] ` ) ' V C C Z Z Z C Z Z Z C C C C C Z Z Z Z Z Z C Z Z Z Z C Z C Z Z Z Z C Z Z C C A ' _ ` ` | | | |  . .X.X.X.X.X. .X.X.X. .....} X.X. .X.X.X. .X.X.",
"..X.....X.X.X. .X.X. .[ _ W W E W / A } *.;.>.>.I >.>.>.>.>.>.>.>.>.>.>.;.>.>.>.>.>.:.>.;.>.>.>.>.>.>.I >.>.>.;.*.} A / W E W W _ |  . .X.X.o.X.X.X. .X.X.X. .X... .X.X.X. .X.X. . .",
"X.X...X.X.X.o.o.o.X.| _ W T q q w N ' =.,.d.h.k.k.k.k.k.k.h.h.k.h.h.k.h.h.h.k.h.h.h.k.h.k.h.k.h.k.h.k.k.k.k.h.p.<.=.*.N e q q T E _ |  .o.X.X.X.X.X... . ...X.......X. .X.X. . .X.X.",
" ...X...X. .X.o.o.X.| _ T 0 : : < b *.,.h.x.M.N.J.N.M.M.M.M.M.M.M.M.M.M.M.M.M.M.M.M.M.M.M.M.M.M.M.M.N.N.K.K.M.x.k.,.H N 9 : : 9 T _ |  .o.o.o.o.X.X.} X.X.....X.X...X. ...}  . .X. .",
".. . ...X.o.o.o.o.X.| W w 9 : : > b K i.x.N.W.Q.Q.Q.W.W.P.W.P.P.W.P.P.P.W.P.E.P.W.P.P.P.P.P.W.P.W.W.W.E.Q.Q.P.L.x.s.P C < + : 1 w W [ o.o.X.o.X.X.........X.X... . . .X.....X. .X. .",
"X.X...X. . . .X.X.| [ ^ R 9 - - t A >.k.M.W.(.).).).).).(.(.(.(.(.(.(.(.(.(.Q.(.(.(.(.(.(.(.(.(.(.(.).).`.`.`.P.K.l.<.A t - : 9 j ^ ] X.X. .X.X.X.X..... .X...X. . .X.X.......X.X...",
"..X.X.X.[  ...[ | ` ` / N e e t Z P d.x.N.Q.'.].'.'._._.]._.).).).`.)._.`.).).).).).).).`.).).).).`.'.'.].'._.Q.P.n.d.K G t t e N / _ [ [ [ | | | | | | X.X.X... . .[ X.X.[ X.[ X. .",
"X.X.X.X.[ ] ] _ ( ( ' / ' A A *.>.d.l.M.W.Q._.].].].]._.'.'.'.'.`._.`.`.`._.`.`.'.`.'.'.`._.`.'._._._.].].'._.Q.W.N.l.d.,.K G A A ) _ / ^ ( _ | | | ....X.X...X. . . .X.X.X.X.X.} ..",
"X. .X.X.[ ` ^ E x N V ' *.=.;.i.h.x.N.W.Q.).'.].|.].].'.'.'.'.'._.`.).`.).).`.`.).).).)._.).).).`.).`.'.'.'.).(.W.P.M.x.k.i.<.;.*.' / ! E ! ^ ` | ....X.X.X.X... .X.[ X.X.X.X.X. . .",
"X.o.X.X.` ( R z w l B A =.i.h.x.N.L.W.Q.Q._._.].'.].'.'.'.'._._.).).(.).).(.(.(.(.).(.).).(.).(.(.).(.).).`.(.(.Q.W.E.N.K.x.k.i.;.H V e w w E ^ [ ..X.X.X.X.X.....X.X.X.X.[ X.X. . .",
"o.X.X...[ ^ z 0 4 6 N H ,.h.n.N.Q.Q.Q.(.).`.`.'.'.'._.`.'.).).).).(.(.(.(.(.(.`.(.(.(.(.(.(.(.(.(.(.(.(.(.(.(.(.(.(.Q.Q.U.L.n.k.<.K m 8 < 9 w E _ [ X.O.X.X.X.X. . . . .X...X.X.X.X.",
"X.X.X. .` E q 1 - @ b H d.x.N.E.(.`.).).).Q.Q.).(.(.(.(.(.(.(.(.(.(.(.(.Q.(.(.Q.(.(.(.(.(.(.(.Q.(.(.(.(.(.(.Q.(.(.).`.`.(.Q.L.x.u.K m , - 1 q E ` ..X.X.X.X.X...X.} X. ...X.X.X. .X.",
"o.X.X...` E q - O + t H d.x.W.Q.).'.).).E.W.W.E.P.P.P.P.P.W.W.E.Q.Q.Q.(.(.(.(.Q.(.(.(.Q.(.(.(.(.(.(.(.(.Q.(.(.(.(._.'.'.'.(.P.M.d.K m + + - 0 x _ [ X.X.o.o.X.X...}  .X.X...X.....} ",
"o.X...[ ` E 0 - O O t K d.x.W.).'.'.).Q.B.M.v.z.z.z.z.z.v.n.N.L.P.Q.(.(.`.(.`.`.(.Q.(.(.Q.(.E./.Q.E.E.E.Q.E.E.(.(.).'.'.'.(.P.M.d.K b + O - 0 E ( [ X.X.X.X.X.X...X. .X...X....... .",
" .o. . .` E q : + + b J d.M.W.Q.).(.Q.N.z.a.e.e.I P I I w.u.g.v.L.P.(.).`.'.`.`.(.(.Q.Q.Q.E.E.I.E.C.C.C.I.I.C.E./.)._.'.'.(.P.M.d.K t + O : 9 z _  .X. .o.X.X. .....X.X.X.[ X.X.X.X.",
"o. . . .` E q : + + t K d.M.W.Q.).E.B.z.e.P s a p p p p s S I a.n.P.(.`.'.'.`._.`.Q.Q.(.E.E.I.C.C.C.C.C.C.C.C.I././.(._._.(.P.n.d.K m @ O : 0 E `  .X.o.X.X.X.X...X.X.X.X.X.[ X.X. .",
"X.o.X. .` E q ; + - m K d.M.W.Q.Q.P.N.f.P s &           . a S y.v.B.Q.`.].'.`.`.(.(.(.Q./.I.I.C.C.C.C.C.C.C.C.I.I./._._.`.Q.L.x.d.K m # - : q E ` [ o. .X.X.X...X...X.X.X.X.X.X.X.X.",
"X.X... .` W q 1 + @ b K d.n.E.Q.(.E.M.d.P n X             = A ,.k.N.Q.(.'.`.`._.(.(.(.(.Q./.Q.(.E./.E./.E./.E./.(.(.(._.`.Q.L.x.i.*.m , + : q ! ` [ X.X.X.o.X.X...X...X.[ X.[ X. .X.",
"X.o.X. .` W w 1 - @ b J d.n.W.E.Q.Q.L.D.3.-.+.U U 3 3 U U %.-.d.j.J.P.P./.(./.Q.(.(.(.(.`.`.`.[.[.[.[.[.[.[.[.[.`.].[.'.`.Q.K.x.i.J m 2 + : q x ` [ ..X.o.X...X.X. . .X.X.X.[  . .X.",
"X.X.X. .` E q 1 - > b J u.z.B.E.Q.Q.W.J.D.A.q.q.q.q.q.q.q.q.Z.Z.x.x.n.m.N.B.P.P.E.Q.(.[.[.;X:X<X1X1X1X1X1X1X<X<X:X;X}.].`.E.N.l.u.K m , - : q E ` [ X.o.X.X.X...} X.X. .X.X. . . . .",
"o. .X. .` E w 1 - > t A I g.m.V.Q.~.[.@X@X%X$X$X#X#X#X#XOX#X XT.S.j.p.u.a.g.c.m.C.Q.'.}.:X1X5X5XeXrXrXeXrXeXeX5X4X1X>X}.`.E.N.z.u.H b , + ; q x _ [ X.X.o.X.X....... . . ... . . . .",
"X.o.X. .[ ! w 1 - @ b S I t.c.V./.[.;X3X0XtXtXsXsXsXyXyX-X-X&XOXH.3.K S f D t.c.N.Q.].:X1X6XeXhXkXkXxXxXxXkXkXhXeX6X1X;X[.E.m.g.y.J m , - : q E ` X.X.o.X.X.X.X..... .} X.X.X. . .X.",
"o.X...| ` ! w < - O t M L r.c.m.E.{.1X6XaXzXmXmXMXMXmXmXzXdX0X&XH.6.B & p d D t.m.I.;X,X6XiXpXNXNXNXBXBXBXNXmXxXpXiX4X,X;XI.b.f.e.J b # + : q x ` [  .X.o.X.X...X...X.X.X.X.X.X.X...",
"X.X.X.| ` W q 1 + @ n J L r.c.V.).;X6XhXxXNXZXZXAXSXAXAXZXmXdX-XoX9.~ X . p f t.m.I.[.,XeXpXbXNXVXCXAXAXZXZXVXNXbXpX7X1X`.I.b.a.I J b $ + : q E ` X.X.X.X.X.X.....X.X.X.[ X.X.[ ..X.",
"X.o.X. .` E q ; + > m G ,.k.M.W.}.1X6XhXxXNXZXAXSXFXFXDXSXCXzXwX%XF.&.i 8 s w.t.b.I.;X1XiXlXNXVXAXSXSXSXDXSXZXBXNXpXiX1X;XI.b.a.I J b , - : q x _ [ o.X.X.X.X...X...X.X.[ X.X.X.X...",
"X.X. .[ [ R q - O @ B K j.J.~.:X1X6XeXaXkXzXmXMXZXAXSXSXSXZXMXfX-X#XF.7.-.<.p.c.B.I.[.1XeXpXNXCXSXDXFXFXFXDXSXZXNXpXiX1X`.I.b.a.I J b , + : q E ` X.X.o.o.X.X.X...X.X.X.X.X.X.[ ....",
"o.o.X. ._ v 7 O X @ B 3.D.^.@X4XeXeXrXtXrXtXtXdXgXmXZXAXSXAXCXzXsX-X#X.XR.H.J.L.P.(.}.1XiXpXNXCXAXDXFXFXFXFXSXZXNXbXiX1X`.I.b.a.I J b # + : q E ` [ X.o.X.X.X...X.X. . .X. . . .....",
"X.X.X. .` k 4     + G 9.!.%X5XaXkXhXeX0X*X%X$X=XqXfXnXZXAXAXCXmXbXsXqX-X*X@X^.~.U.Q.`.,X5XpXNXVXAXDXDXFXFXFXSXZXNXpXiX1X;XB.c.a.I S b $ + : q E ` [ X.X.X.X.X.X.X. . . .X.[  . .} X.",
"X.o.X. .] h 4     O +.A.oX8XdXxXxXzXtX=XoXY.F.T.$X9XdXmXCXZXZXCXMXnXbXdXtX0X<X[.Q.(.`.,X5XpXbXVXAXSXDXDXDXDXSXZXNXpXeX1X`.I.b.a.e.J m , - : q x ` [  .o.o.X.X.X. .X...X..... .X... .",
"X.X.X.| _ h #     O $.S.%XwXzXBXBXcXtX*XS.2.+.2.G.$XwXzXBXAXSXSXSXZXBXMXxXtXeX:X[.Q.(.;X4XpXxXVXZXSXSXSXDXSXZXZXNXxX7X,X;XI.b.a.I J b , + : q E ` [  .X.X.X.X.X. .X.X.....}  .X.X.X.",
"X.o.X.| ( h #     O $.Y.*XsXmXZXCXmXuX$X9.u   u 8.oX9XzXBXAXSXDXFXSXSXZXNXxXiX1X;X(.(.;X4XpXbXVXZXAXSXAXAXZXCXNXNXiX7X,X;XI.b.a.e.J b , + : q x ] | X.X.X.o.X.| X....... . .X.X.X.X.",
" .o. .| _ k o     O &.Y.=XsXMXZXAXMXuX+X8.X     $.R.=XgXNXSXSXFXFXFXDXSXVXxXpX1X[.(.Q.;X5XpXNXNXZXAXAXZXZXBXNXmXpXiX4X>X`.I.b.f.e.J b # - : q E _ | X.X.X.X.X.X.X.} X... . .X. .X. .",
"X.X.o.| _ h .     X $.Y.=XfXBXSXSXMXsX#X4.      #.T.=XgXBXSXSXFXFXFXFXSXCXNXpX1X;X(.`.:X5XpXmXCXAXAXCXVXNXbXpXpXiX4X2X>X]./.B.l.u.J m , + : q x ` | X.o.X.o.X.|  . ...X.X. ..... ...",
"X.o. . .( h       X $.Y.=XfXZXSXSXBXsX#X2.      #.T.=XgXBXAXDXFXFXFXFXSXCXmXpX4X[.).U.;X5XpXNXZXAXAXVXNXbXpXeX5X4X1X,X>X].(.B.z.p.K m , + : 0 E _ | X.o.X.| X.X.X. . . .......} X.X.",
"X.X.X.[ ( h         $.T.=XfXBXSXSXBXsX$X8.      $.T.=XgXCXAXDXFXFXFXSXSXZXbXpX1X[.(.(.,X5XpXNXAXAXZXBXbXpX6X1X:X;X;X;X|.'.(.P.n.p.K m , - : 0 R ` [ X.o.X.X.X.|  .X.X. . . . .X.}  .",
"o.o.X.[ ( h .     X $.Y.*XdXBXAXAXBXtX$X9.5   O 4.R.8XgXMXAXDXDXFXSXSXAXVXlXrX1X;X(.(.:X6XzXNXCXAXZXVXpXeX,X;X(./._._.].'.(.P.n.d.K m , - : 0 E _ [ X.X.o.X.X.X. .X..... . ...X. . .",
" .o...X._ h #     + $.G.&XtXmXBXBXmXtX$XA.#.r +.A.+X0XzXBXAXSXSXSXSXZXBXNXkXeX<X`.I.`.:X5XpXNXVXBXVXmXiX4X;X/.C.C.C./.(.).U.K.x.i.K b , + ; q E ` [ X.o.X.X.X.| X. .X...X.X.X.X. .X.",
"X. .X.X.] k 7     4 $.A.OX9XdXzXzXfXqX%XT.9.8.A.R.*XsXzXCXAXAXAXZXCXBXNXxXpX5X,X[.(.`.:X4XpXbXNXNXmXpXeX,X].C.V.V.V.I.I.P.L.n.h.,.H t @ - 1 q E ` X.X.X.o.X.X.X.X.X.} ..X. . .X.X. .",
"X. . . .] v h 7 * w $.9..X%X8XqXsXwX9X*X+X.X.X$X=XsXgXMXCXAXAXCXVXNXcXlXpXeX1X>X[.(.`.}.1X6XkXlXpXpXpX7X>X'.I.V.V.b.m.N.n.z.h.,.J m r + + ; q E ` | X.o.o.| X.|  .X. .X.....X. . . .",
"X.o.X.X.[ Q c h h N ' 3.A.T.oX%X*X=X=X=X=X=X8XwXdXzXMXCXSXAXCXCXNXxXkXiX6X4X,X|.`.`.`.}.,X4XiXiXpXiX6X2X>X_./.C.V.b.v.f.p.<.=.A m 6 O O + ; w E ] X.X.o.o.X.X.X.X.X.X. .....} X.X. .",
"X.X. .X.[ ] Q Q v ( ' 1.2.4.9.G.R.+X*X-XwXsXzXcXMXZXAXSXSXAXCXNXvXpXeX4X1X|.|._.`.`.`.}.;X,X1X4X4X2X2X,X;X_._.E.V.v.f.u.=.A t 6 + X X X + ; w E |  .o.o.o.| o.| X. . . ...X.X.X.X. .",
".. . . .{ [ { [ { [ } ` ^ ! ~ } 4.Y.+X-XsXzXBXCXSXSXSXSXSXAXVXcXhX7X1X;X'.`._._._.`.`.'.'.}.}.;X>X;X;X;X;X'._.Q.V.z.i.o.B 5 O X     X O - 9 w ^ `  . .o.o.o.| X.} X. . .X... .X.X.X.",
"X. .......X.X.o.X.X.[ v 7       i 8..X=XuXmXZXSXSXSXDXSXZXCXcXhXeX:X[.Q.C.C.C././.(.Q.(./.(.(.(./.(.(.`.`.).(.P.K.l.<.A t + X   X X + # 6 e N ( ` | | X.X.X.X.X.......X. . . .X. . .",
"X. .} X...o.X.o.o.X.] k o X       %.Y.&XtXzXMXVXAXZXZXBXmXzXdXrX<X;XW.m.c.c.b.V.P.P.P.P.P.L.B.B.m.B.B.P.I.I.P.K.x.k.<.H m 6 , 5 8 b m C C V / ' ` ` [ | | | | | ..X.X.X. .X.X. .X.X.",
" . .X. ...o.o.O.O.o.] k #         G 9.OX=XwXfXzXzXzXgXgXsXwX0X3X@XJ.v.t.r.r.a.g.g.v.z.z.f.g.g.g.a.g.c.v.n.M.M.v.l.d.,.;.K A G H *.=.;.=.=.*.} A ) ^ W W _ _ | | X.X.X.X.X.X.X.....} ",
"X.X.X.X.X.X.o.o.o.X.] c 7         u 2.A..X%X=X8X9X9X-X-X=X*X+X!.D.k.e.D f f D D w.w.y.w.y.w.w.I y.y.y.y.i.i.s.s.s.s.i.i.i.i.i.i.p.h.h.p.i.<.=.' N z q j T W _ | o.X.o.o.X.X.......X.",
" . .{ X.X.o.X.o.o.X.] v h *       r +.&.8.A.H.T. X.X.X.X XT.G.Z.3.K s p p p d p a s s M M S S S S A F F A F H =.,.<.h.k.x.x.K.n.N.M.M.x.z.d.>.H N 9 : 1 q R _ [  .o.o. .X.X.X.X. . .",
" .{ X.X.X.X.X.X.X.X.[ / V w 4 # O 2 r u B +.#.$.2.2.4.8.4.3.2.#.C n & o o . o o % % % & & & = 8 t t t 6 5 5 t A *.i.k.x.L.P.P.W.Q.E.Q.W.M.l.i.K b > - : 9 j _ [  .o.o.X.o.X.X.X. .X.",
" .X.X.{ X.X.X.o.X.X.{ ] N l 8 4 + O O + @ 2 , 2 5 5 6 r r r r 5 , > @ @ O O X X O O O @ @ > , , , > + O O O > b *.i.z.K.Q.(.`.'._._.)./.W.M.h.>.C 5 - - 9 w ( [ X.X.o.X.X.X.X.X.X...",
"X.X.{ X.X.X.X.o.X.X.{ ) ^ z 6 4 2 $ r y i B i i 6 +       .   O 6 i ~ +.@.@.@.$.@.@.+.+.~ i u t 6 5 # O O + 5 C ;.d.M.P.(.'.'.].|._._._.Q.N.x.<.K C r 9 e ! / ` { X.{ X.X.[ X.{ X.X.",
"X.X.} X.X.X.X.X.X.{ [ / l 7 4 # $ i G &.8.9.0.8.2.+.#         6 +.2.q.q.F.F.F.F.q.Y.q.q.8.2.-.' Z C n n n b A *.i.l.L.P.`.'.].].|._._._.E.W.n.k.<.P G A V ' / / _ _ _ [ ] .. . .X.X.",
"X.X.X.X.X.X.X.o.X.X.[ ^ h 4 X X r +.4.F..X+X$XOXT.0.#.O     + +.9.F.XX#X&X*X-X&X&X&X#XOXR.S.Z.s.y.P P P =.:.<.p.l.K.P.(.`.'.'.]._._._./.E.B.N.n.k.d.<.>.*.*.A / ! E W ^ ` [  . .X.X.",
" . .{  .X.X.X.o.X.X.[ v w X     y &.F.OX3XwXuXqX=X.X9.B     i 2. X#X-XqXsXsXsXsXsXyXwX3X*X@X!.J.l.a.a.a.h.k.l.n.K.L.Q.(.'._._._./././.E.C.V.B.N.M.n.l.h.<.;.} V l e z E _ `  .X.X.X.",
"X. . . .X.X.X.o.X.X.] v 7       u 4..X=XuXbXmXzXuX*XG.$., > @.A.OX-XsXbXnXMXMXMXMXnXbXsXeX3X@XW.K.b.b.N.N.L.L.U.P.U.(.(.'._._._././.C.E.C.C.C.I.W.P.J.x.h.,.H m 4 9 q z / [ X.X.X.X.",
"}  ...X...X.X.o.X.X.} v 7       i 9.OX9XgXBXBXMXgX=XR.-.6 6 2.G.*XsXzXBXZXSXSXSXCXCXMXxXaX5X:X[.E.V.V.C.E.E.E.Q.Q.(.(.(.).(.(.(.(./.Q.Q.E.Q.(.(.).Q.E.W.d.,.J m $ - < w E ` ..X.X.X.",
" . .....X.X.X.X.X. .[ T 7       B 9.OX9XzXMXBXBXfX=XT.&.2 u 2. X-XgXBXSXSXFXDXSXSXCXCXcXjX6X1X]./.E./././.).).).(.(.Q.Q.Q.Q.Q.~.~.`.`.[.[.].].].]._.Q.W.z.p.K t X O - w E ` ..X.X.o.",
" .X.X...X.X.X.o... .[ Q h * . # ~ 8..X*XtXzXnXzXtX%XF.+., u 7.oX9XzXZXSXFXFXDXAXCXVXvXlXhX6X1X{.)./././._.).).).(.P.P.N.N.J.U.~.[.:X<X1X1X2X,X>X|.|.E.W.v.u.K t O O - 0 E _ ..X.o.X.",
" .X. .} X. .X.X. . .[ Q c 7 7 7 ' 6.H.+X=XqXwX0X*XT.8.i @ i 8.OXwXzXZXDXFXDXSXCXvXvXjXhX6X4X|.{.)././._.).'.).).Q.B.n.l.k.x.J.~.:X3XeXrXiX7X7X2X|._./.E.z.u.J t O O - 0 E `  .X.X.o.",
" ... .X. .X.X.X.X... .] Q c k v ' 1.A.H.oX+X$XOXT.9.+.# X B 0.#XwXnXZXFXSXSXVXNXlXjX6X4X2X|.{.'.)././.)._.'.).Q.P.v.a.y.,.d.Y.OX3XrXlXxXvXjXiX7X|.|.`.m.c.y.J t X O - 0 x ` ..X. .o.",
"X.X.X.X...X.X.X.X. .X.[ ] ] Q ( | 1.2.6.A.A.A.0.4.+.,     ~ 0.#XwXnXZXDXSXCXNXjXiX2X1X|.{.[.`.).(.(.(.).).).).E.m.g.I S Z K Z.XX3XdXmXVXNXvXjX7X2X|.Q.W.g.I J t O O : q E `  .X.o.X.",
"} ..X. . . . .X.X.X. . .[  . . .| ` ' ' ' ~ ~ B r         +.A.+XqXbXBXSXAXVXxXiX1X{.`.Q.Q././.(.(.(.(.).).).Q.W.M.a.J p & G 7.XX-XgXMXZXVXVXvX7X4X].E.b.f.I S t + + : q E ` | .. .o.",
"....X.X. . . . . .X.X.X.X.X.o.X.| _ W w 4   X             ~ 9.OX9XdXmXVXNXxXpX1X[.E.V.V.V.E.E.Q.(.(.).`.'.`.Q.E.M.a.s %   3 7. X-XsXmXVXVXNXjX7X{.Q.E.g.a.I A n , - < w ! ` | ..o. .",
".. . . .X.X...}  . .X.X.X.O.O.o. .( k *                   i 8.T.&XqXfXgXgXtX3X@XP.v.c.c.b.B.I.Q.(.).).`.).`.(.W.n.u.M %   : %.F.#X-XbXbXzXzXrX3X[.W.M.a.y.P F N 8 0 q z ^ ]  .X. . .",
"X. .X. . .X. .X. . .X.X.o.O.O.o. .( k 7                   , &.0.XX$X-XqX8X=X@X!.x.a.t.a.c.m.P.Q.(.).).`.]._.(.W.M.u.S &   - Y q. X&X-X-XqX3X*X^.!.M.g.u.w.P F V z e z W _ [  .X.X.X.",
"X. .X.X.X.X. . .X.X.X.X.X.o.o.o.{ ] v w *                   u &.q.Y.XXOXOX.XH.5.,.K P e.a.v.P.P.).).'.'._.).(.P.M.a.P n O + 3 %.7. XXX#XoXoXR.D.j.s.,.I F } A / ! E W ^ ` ....X.o. .",
"} X.X. . .X.X. .X.X.X.X. .o. .o.[ ] / x 7 , X               X u @.7.9.9.9.8.2.#.B n S P u.z.L.Q.(.).'.'.].).(.W.K.k.:.C 6 - : y Y %.7.7.8.8.5.-.;.*.H F F ' } ) _ ` ` [ [ ..X. . . .",
".... .X.X. . . .X.X.X.X.X.o. .X.X.` / N l 5 # X               + 6 i Y +.+.Y y : - , m K i.z.J.P.(.`.'.'.'.).(.E.K.k.y.G t + O + : 3 u u u u u t t u m N V ) _ ` |  ... . .X...X... .",
"....X.X.X.X.X...X. ...X.X.X.o.X.[ ] / x e 6 , ; 2 2 u u i u u 8 5 # X X         X + n *.<.l.L.Q.).`.'.'.]._.(.W.K.k.<.F t + X O + - , 5 2 , + O O @ ; 4 e V _ |  .X.X.X.X...X...X.X.",
"X. . . .X.X.} ..} ....X.X.X.o.X.[ _ W z 7 , @ r i $.2.4.8.9.4.-.A n & o o .     * t A ;.h.x.L.Q.).`.'.'.'.).).W.K.k.,.A 8 + - 3 i @.$.&.@.+.i 3 + X O + 0 R ^ |  .o.O.o.o. .X.....X.",
"..X. . ... .........X.X.X.o. .X.{ ) v 7 # O @ i $.9.G..XOXoXR.G.j.;.S d d p a s C H ,.s.x.M.W.Q.)._.].'.]._.).Q.K.k.:.C 8 ; y @.8.A.G.T.T.A.7.@.3 O   X > h W | X.o.o.o.X.X...X... .",
"X. . . .X. . .X.X...X.X.X.X.o.X.} ( k 4     + +.7.Y.#X=X-XqX=X%X!.x.u.D f f D w.e.p.k.x.K.L.Q.(._.'.'.].].].`.Q.N.f.P n * 3 +.9. X$X%X-X-X$X X9.@.-     O 7 W ] X.o.o.o.o. . ...X. .",
"X. . .X.X.X.X. . .X...X.o.o.X.X.[ ( g #     O $.0.OX-XsXzXzXgX5X%X~.M.a.r.r.t.g.v.M.N.L.W.Q.Q.`.'._.].].].].`.Q.N.d.P a o y %.Y.$XqXfXzXuXqX$XG.2.r       7 v [ X.o.o. .X.X...X.X...",
" .X.....X. . . ...X.X.X. .o.X.X.| W g .     + $.Y.&XsXzXMXMXcXlXeX:XQ.V.c.c.V.V.P.W.Q.Q.Q.Q.(.).).'._.].]._.`.Q.N.p.D p . u 7. X8XuXmXBXmXfX8XXX7.i       7 v ]  . . . .X.X.X.....X.",
" .X.....} X. . .X... .X.X. .o.X.| _ h o     , 2.Y.*XsXzXCXCXCXxXrX4X{.(./.C././.(.(.Q.Q.(.(.Q.Q.(.Q.).)._._.Q.W.n.u.S &   i 7.XX9XbXMXCXBXbX9XOX0.i       7 v ]  .o. .o.X... .X.X.X.",
"X... .X.......X.....X.X.X.X.O.X.| ( k *     6 1.Y.&XqXgXcXBXcXcXhX6X1X>X{.].].].'.`.)./.(.E.E.W.W.W.B.W.W.W.W.N.l.e.M &   i 4. X-XuXmXBXmXuX0XoX9.i X   . 7 Q [  .o.X.X.X. .X...X.X.",
"X.X...} ..} X...X. ... .X.X.X.X.| ( c 7 * * u 1.A.XX*XwXdXzXzXlXhXiXeX6X4X2X2X>X|.'.)./.P.P.N.M.x.x.n.M.N.M.n.z.u.P s %   y &.Y.$X9XuXfXuX9X%X.X4.G 4 # 7 k Q [  . .o.X.X.X... .X.X.",
" . .....X.X. .X. . .X. .X.X.X.X.| ] Q k h h V 1.8.G..X$X=X8XqXaXaXkXlXjXjXiX7X2X>X].(.E.B.M.z.k.d.d.d.d.k.h.d.d.I S n o   r @.0.T.$X=X8X-X%XoXA.3.' h g h c ] [  .X.X.X.X. ...X.X.X.",
" .X..... .X.X.X.X. . . .X.X.X.X.| [ _ Q v T ( } 1.3.9.A.Y.OX%X8XdXxXvXNXvXjXiX7X2X'./.V.b.f.p.,.H H H J K K K H G n = . X 2 i &.8.F.T. X XH.A.6.1.' Q v Q Q ] [  .X.X.X...X.X...X.[ ",
" . .}  . .X. .X. . . .X.X. . . .X.X.X.{ ] ] [ } ' ! N ~ $.9.R.*XwXbXMXCXVXvXjX7X,X'.I.m.c.u.;.A m r t t b m C m t t # @ O @ r i +.$.&.4.4.2.1.1.} [ [ ] [ [ X.X.X.X.X.X.....} X.X.X.",
"X.X.X. . . .X.X.X... . .X.X. . .X. . .X.X. .{ ] z 7       +.0.#XqXgXMXZXVXNXlX6X,X).P.b.a.I F b O X X O + > , , , , $ # > 2 , @ @ @ 2 5 6 t ! ^ ` [ .... .X.X...X.X.X.X....... .X.[ ",
" .X. ......... ..... ...X.X...} X.X.X.o.O.o.X.] k % X     < 4.T.-XsXnXMXVXxXhX4X;X(.B.a.y.F C 8 + X X O O + + - - < < 6 6 4 # X         . # 7 c ] X.X.o.o.o.X.X.[ X...X.X...X.X.X.X.",
"X.X.X.X.....} X...} X.X. .X. .X.X.X.X.o.o.o.X.] k *       # &.F.&X-XsXfXfXrX0X:X~.L.a.a.w.F C 7 - - + - : - : < 9 9 e e e e 7 4           # w k _  .O.O.o.X.X.X.X.X.X.X...X. .X.X.[ ",
" .} ..X.X...X... .X.X.X.X.X.X.X.[ X.X.X.o.o.X.] c g * X   7 #.0..X$X=X-X8X*X@X!.D.j.u.:.F F V l 0 9 9 9 9 q q w w l N ! N x l g 7 # o o * 7 k Q ]  .X.o.o.o.X.X.X.X.X.[ X.}  . .[ X.",
" .X. .X...X. .X.X.X.X. . .X. . .X.X.X.X.X.o.X.{ ] c h h h x } 3.A.Y. X.XR.T.Y.Z.s.,.P F A ' V Q R R R R E E E E ^ V ! ^ / W V x j k h h h c Q ( [  .X.o.X.X.X.X.[ X.X.X. ... . .X.X.",
" . . .X.X.X. . . . .X...X.}  .X...X.X.X.X.X.X.{ ] ] ] Q W ' } 1.2.2.4.4.4.4.-.$.G Z C V V / ) ` ` ` ` ] ` ` ` ` ` ] ` [ ] [ ] ` ` _ _ ( ] ] ] ] .. .X.X.X.X. . . .[ X.[ X.X. . .X.X.",
" .X.X.X. . . . . . . .......X...X.X.X.X.{ X.X.X.X.{ X.X.X...` / B B t r r r 2 $ $ 5 6 e N ! ` ..X.X.X.X.X...X.X. .[ ..[ X.[ { X.X...[ { [ X.X.X. .X.X. . .}  . . .X.X.X. . . . .[ X.",
"X.} .... . . .X.X. .X...X.X.X.X...X... . . .X.X.X.o.o.o.o.{ Q c 7 *             X + 1 0 l ^ ` [  .o.o.o.X.X.o.{ X.o.{ o.X.o.X.X...X.X.X.X.X.X.X.X.X.X. .X. .X.} X. .X.X.} ..X.X.X.X.",
"X. ..... .} X. .} X...X.X.X.X.X.X...X. . . .X.X.X.o.o.o.o.X.( c 7 o             O - 1 w l / ` ..o.o.o.X.o.o.X.o.o.{ o.{ X.o.X.o.X.o. .o.X.o.X.X.X.X.X. .X... . . . .X. .....X...X.X.",
"X...X... .X. . .....X...X.[ X.[ ..X.....X.X.X.X.} o.o.o.X. .] c g 7 # .   X O ; < 0 w R ! _ ` X. .o.o.o.X.o.{ X.o.X.{ o.o.X.X.X. .o.o. .X.X.X.X.X. . .X.X.X. . . . ...X...X...X.[ X.",
"..X...X...X.X. .......X.X.X.X.X.X.....} X. .X. ...X.o.} X.X.[ Q v c h 7 g w w h j l E ^ _ ` | X. .o.X.X.X.X.X.X. .X. . .X.X.X.X.X.X.X.X.X.X.X. .X. .X.X... .X.X.} X. .X.X...X...X.X.",
"X...X.[ X.X. . . . .} X.X.X.X.[  .X. . . .[ X.[ ....X.X.X.X.{ [ ] ] ( Q ( Q ( ( / ( ` | [ [ | | X.X.X.X.X.X. .X. . .X.X.X.X. . . .X.X.X.X. . . .X. . .X. ....... . . . .X.X.X.X.X.X.",
"X.X.X.X.X.X. .[ X. . . .[ X.X.X. . .X.X. .X.X.X.....X.....X.X.X.X.[ [ { [ } [  .| | | X.| | [ | X...X.X.X...X.X. . .X.X.X.X. . .X. . . .X.X.}  .X.X.X.X.X.} X...[ X. . .X.[ X.X.X.[ ",
"X.X.X.[ [ X.[ X. .X.X... . .X.X.}  .X.X. . .X.X...X...X.X...X.X.X.X.X.X. . .X. .X.X.X.X.X.X.......X.X.....X..... .X. .X.X.X.X.[ X.X. . . . .X...X... . . .X...X.X.X.X.[ [ X.X.X.X.X.",
"X.X.X.X.X.X.X.X. .X.X. . . . .[ X. ...X. . .[ X.X...X.....X.X.X.X.X.X.o.X.o.X.o.X.X.X.X.X.X.X...X... .X... ..... .X.X.X.X.{ { X.X. . . .X.X.X.X.X. . . . ...X...[ X.X.X.X.X.X.X.X.[ ",
"X.X...X...X...X.X.} ........X...X.[ X.X.X.[ X.X.X.X.X.X.X.X.X.X. .o.X. .o.X.o.X.o.X.X.o.X.X. .X.X.| ............X.| X.X.X. .| | X.........}  .X.}  . . . .X. .X...X...X...X...X.X..."
};
