/* XPM */
static char *result[] = {
/* columns rows colors chars-per-pixel */
"90 105 250 2 ",
"   c #000000",
".  c #000B04",
"X  c #00000C",
"o  c #00150A",
"O  c #000014",
"+  c #00001D",
"@  c #06091A",
"#  c #020B1D",
"$  c #021918",
"%  c #131C1E",
"&  c #00280A",
"*  c #003902",
"=  c #01281C",
"-  c #000024",
";  c #000529",
":  c #0F0E29",
">  c #051521",
",  c #051A22",
"<  c #0A1B22",
"1  c #031428",
"2  c #001C2C",
"3  c #191A25",
"4  c #271531",
"5  c #002C23",
"6  c #072628",
"7  c #00232D",
"8  c #142523",
"9  c #182927",
"0  c #1C2D24",
"q  c #013629",
"w  c #1D3329",
"e  c #002531",
"r  c #002E33",
"t  c #0B2F32",
"y  c #003436",
"u  c #063B36",
"i  c #173A33",
"p  c #252A2C",
"a  c #243629",
"s  c #243C2B",
"d  c #2C2835",
"f  c #2B3633",
"g  c #353B38",
"h  c #024601",
"j  c #1D5B0D",
"k  c #164D10",
"l  c #2F6C15",
"z  c #004333",
"x  c #0E4A36",
"c  c #08463A",
"v  c #014D3A",
"b  c #12433C",
"n  c #19463B",
"m  c #1A4A3E",
"M  c #05513D",
"N  c #2B442D",
"B  c #2A482A",
"V  c #31492E",
"C  c #2A5B21",
"Z  c #35542E",
"A  c #24483A",
"S  c #324D32",
"D  c #39453C",
"F  c #28523E",
"G  c #365333",
"H  c #3A5533",
"J  c #3C5A35",
"K  c #35573C",
"L  c #3C5C3A",
"P  c #386E27",
"I  c #366629",
"U  c #3C6436",
"Y  c #425A3B",
"T  c #43643C",
"R  c #466A3B",
"E  c #457235",
"W  c #467534",
"Q  c #4A763B",
"!  c #341A40",
"~  c #3A3542",
"^  c #413B47",
"/  c #144B42",
"(  c #1B4D41",
")  c #085641",
"_  c #1D5243",
"`  c #165843",
"'  c #1C5B45",
"]  c #2A4F41",
"[  c #3B4A41",
"{  c #235544",
"}  c #2B5644",
"|  c #235A46",
" . c #2B5A45",
".. c #255C49",
"X. c #295D49",
"o. c #325A45",
"O. c #26624B",
"+. c #2D644D",
"@. c #2D684F",
"#. c #376349",
"$. c #2F6750",
"%. c #2F6850",
"&. c #306750",
"*. c #316951",
"=. c #367056",
"-. c #387157",
";. c #454B47",
":. c #49584B",
">. c #52584E",
",. c #4F5852",
"<. c #555B53",
"1. c #466844",
"2. c #4A6C41",
"3. c #53654E",
"4. c #4D7343",
"5. c #4D7845",
"6. c #517543",
"7. c #547A45",
"8. c #577A4B",
"9. c #557C49",
"0. c #4A6654",
"q. c #596858",
"w. c #5B7456",
"e. c #626D5D",
"r. c #62745C",
"t. c #5F7561",
"y. c #6A7866",
"u. c #6C7169",
"i. c #717B6C",
"p. c #4E8439",
"a. c #52873D",
"s. c #55933A",
"d. c #558444",
"f. c #588A45",
"g. c #5B844C",
"h. c #5D8B4C",
"j. c #5C9446",
"k. c #5F8A50",
"l. c #618D4F",
"z. c #61964B",
"x. c #639C4B",
"c. c #628E51",
"v. c #658857",
"b. c #659353",
"n. c #699657",
"m. c #6A9C55",
"M. c #6D9D5A",
"N. c #68A54D",
"B. c #6DA556",
"V. c #71AE57",
"C. c #72A45C",
"Z. c #74AB5C",
"A. c #75B15B",
"S. c #76B45A",
"D. c #7ABA5D",
"F. c #6E8864",
"G. c #73856C",
"H. c #769868",
"J. c #798673",
"K. c #7C8B75",
"L. c #7E9872",
"P. c #78A565",
"I. c #77AB60",
"U. c #79AE62",
"Y. c #7DB465",
"T. c #7EBB63",
"R. c #828E79",
"E. c #84967C",
"W. c #81BD66",
"Q. c #82B86A",
"!. c #83BC6A",
"~. c #87A978",
"^. c #87B274",
"/. c #8BB976",
"(. c #87C66A",
"). c #86C16C",
"_. c #89C56E",
"`. c #8BC671",
"'. c #8DCA72",
"]. c #91CD75",
"[. c #92C67A",
"{. c #94CC7B",
"}. c #95CB7C",
"|. c #93D176",
" X c #889681",
".X c #8C9C84",
"XX c #919F87",
"oX c #8EA185",
"OX c #94A48B",
"+X c #95A78A",
"@X c #99B78A",
"#X c #9BA793",
"$X c #9CAC92",
"%X c #9EB492",
"&X c #A1AE97",
"*X c #A3B798",
"=X c #A4B599",
"-X c #A9BA9D",
";X c #ACBEA1",
":X c #9ACD83",
">X c #9BC986",
",X c #9DD185",
"<X c #A1CD8C",
"1X c #A3D38C",
"2X c #A5DA8D",
"3X c #A9C899",
"4X c #AAD694",
"5X c #ABD696",
"6X c #ABD995",
"7X c #B1D19F",
"8X c #B2DB9D",
"9X c #B1E199",
"0X c #AEC1A1",
"qX c #B2C5A6",
"wX c #B4C8A6",
"eX c #B6CAA9",
"rX c #BACCAC",
"tX c #B6DDA2",
"yX c #B8DBA6",
"uX c #BBD1AD",
"iX c #BCDCAA",
"pX c #BDCEB0",
"aX c #BFD2B1",
"sX c #B9E4A3",
"dX c #BAE2A5",
"fX c #BDE2AA",
"gX c #C3D7B6",
"hX c #C4DBB5",
"jX c #C9DEBB",
"kX c #C1E5AE",
"lX c #C5E5B3",
"zX c #C8E6B6",
"xX c #C6E9B2",
"cX c #C9E9B6",
"vX c #CCE3BD",
"bX c #CDEBBB",
"nX c #D1EEBF",
"mX c #CFF2BB",
"MX c #CFE4C0",
"NX c #D1E6C2",
"BX c #D4ECC4",
"VX c #D8EDC9",
"CX c #D6F2C4",
"ZX c #DBF7C9",
"AX c #DCF4CB",
"SX c #E0F9CF",
"DX c #E4FCD3",
"FX c #E8FFD7",
"GX c #ECFFDA",
"HX c #F0FFDF",
/* pixels */
"&.&.&.&.*.+.*.*.+.*.*.+.*.*.+.*.$.*.$.$.*.$.*.$.*.*.*.*.=.*.=.=.*.*.*.*.*.=.%.*.*.=.*.*.*.=.*.=.*.*.*.=.*.*.*.%.*.*.*.=.%.*.%.=.*.*.*.*.$.*.*.&.*.&.*.&.&.&.&.*.@.&.+.*.*.+.*.*.&.&.",
"&.&.*.&.*.*.*.*.*.*.*.*.*.*.*.*.*.$.$.$.$.*.*.$.*.*.*.=.*.*.*.*.%.=.=.*.=.*.%.=.*.*.*.=.=.*.*.*.*.=.=.*.=.*.=.=.*.=.=.*.=.%.*.%.*.*.$.*.$.*.&.&.%.&.%.*.&.@.*.&.&.*.*.*.*.*.*.*.&.#.",
"*.*.&.*.@.*.*.*.*.*.*.*.+.*.*.+.$.*.*.*.*.*.*.*.*.*.*.*.&.&.*.&.*.*.*.&.&.%.%.=.&.*.*.*.%.*.*.*.*.*.%.%.*.*.*.*.*.*.*.*.*.*.*.*.*.*.$.*.&.&.&.&.%.*.&.*.*.*.*.&.*.*.@.*.*.+.+.*.*.*.",
"*.*.*.*.*.*.*.&.+.*.*.+.*.*.*.*.*.$.*.*.*.$.$.*.*.+.$.$.&.&.&.+.%.%.%.*.@.@.@.*.@.$.$.$.$.$.$.$.%.$.%.%.+.$.$.$.%.$.$.$.$.$.$.%.$.*.*.$.&.&.&.&.&.&.*.&.*.*.&.*.*.*.*.*.*.*.*.*.*.*.",
"*.*.&.*.&.*.&.*.&.&.*.*.*.+.*.*.*.*.*.*.*.*.&.$.+.+.+...X...X...X.{ } ..X...X. .{ X.X.} X...X.X.X.X.....X.X.{ X...X.........X.X.+.$.$.%.*.%.*.*.*.&.*.*.*.*.&.&.*.*.+.*.*.*.*.*.*.+.",
"@.@.*.&.*.*.@.*.*.&.#.*.*.*.*.*.*.*.*.*.=.*.*.$.+.X.{ ( ( / m b ( ( / ( m m m / ( ( ( / m m m ( m ( ( ( ( ( ( ( m m b m ( ( ( | X.+.$.$.*.=.*.*.%.*.*.*.*.*.&.&.+.*.*.*.*.+.+.*.*.*.",
"&.&.&.&.*.&.&.&.&.*.+.*.*.+.+.*.*.*.*.*.=.=.*.$.X.{ / b r r e e e r r r r y r r r r y r r r r r r r r r r r r r r e 7 e r y / ( _ O.%.%.=.=.*.*.*.&.*.&.*.&.&.&.*.*.*.*.*.*.*.*.+.*.",
"&.&.&.&.*.@.&.&.@.*.*.*.*.*.*.*.*.*.*.=.*.=.*.$..._ b r ; - - - - - ; ; - - - - ; - ; - - - - - - - ; - - - - ; - - - - - ; r u _ ..%.=.*.=.=.*.*.*.&.*.@.@.&.&.*.*.+.*.*.+.*.*.*.*.",
"+.*.*.+.*.*.+.*.&.&.*.+.*.*.+.*.$.*.*.=.=.*.*.$.X.( i e - @ X X + + + + + + + + + + + + + + + + + + + + + + + + + + X O O - 7 b ( ..+.&.=.*.*.=.*.*.*.*.&.&.$.*.+.*.*.+.+.*.*.*.*.+.",
"*.*.*.*.+.*.*.*.&.*.*.*.*.*.*.*.$.$.*.*.*.*.&.X. .] m w 0 % % @ 3 8 8 8 8 8 9 9 9 8 9 8 8 8 9 9 8 8 9 8 8 8 9 8 8 % % % 3 0 w n ]  .X.&.*.*.*.$.*.*.*.*.&.&.&.*.*.*.*.*.*.*.*.+.*.*.",
"*.*.*.*.*.*.*.*.*.@.*.*.*.*.*.*.$.$.@.@.@.+...X. .o.K S H G Y Y G G G G G G H H G G G G G G H H G G G G G G G G G G G Y G G H K o. .X.X.@.O.$.+.&.&.*.*.*.*.*.$.*.&.*.*.*.*.*.*.*.*.",
"+.*.*.+.*.*.+.*.*.*.*.*.*.*.*.&.$.$.....` / _ { } L 1.2.6.6.Q Q Q 6.6.6.6.6.6.Q Q 6.6.6.6.6.6.Q 6.6.6.6.6.6.6.6.6.6.Q 6.4.4.2.1.U } F ( _ _ ..X.$.*.*.*.*.*.*.*.&.&.&.#.+.*.*.+.*.*.",
"*.*.#.*.*.*.+.*.*.*.*.*.*.*.=.=.$.+._ / u y y n K 1.5.g.l.b.b.l.b.b.c.c.c.b.l.c.c.c.c.c.c.c.c.c.c.c.c.b.b.c.b.c.b.b.b.b.b.k.g.6.1.K n y y y / ..@.%.=.*.=.*.*.*.*.*.*.*.*.+.*.*.+.*.",
"*.*.@.*.*.*.*.*.*.*.*.*.=.=.=.*.$.+._ u e - - i K 4.g.b.M.C.Z.Q.Z.C.C.C.C.C.C.C.C.C.C.C.C.C.C.C.C.C.C.C.C.C.C.C.C.I.I.I.Z.C.n.g.2.K w ; ; e y _ X.%.=.=.=.*.*.*.&.@.*.*.*.*.*.*.*.*.",
"&.&.*.*.*.*.*.%.%.%.*.*.*.=.*.=.*.X./ y ; - - a L 9.b.C.Q.Q.W.W.Q.Q.Q.Q.Q.Q.Q.Q.Q.Q.Q.Q.Q.Q.Q.Q.Y.Q.Q.Q.Y.Y.Y.Q.Q.W.!.!.Y.Y.C.b.8.L a - ; ; y / O.%.*.=.=.*.*.*.&.*.*.*.*.*.*.+.*.*.",
"&.&.+.*.*.*.*.%.%.%.@.@.=.*.*.*.&.X.( y ; - < S R g.M.Y.!.(.'._.`._.!.!.!._.W.!.!.!.!.(.!._.W.!.!.!.(.!.).).).).)._.`.`.`.Q.Y.M.h.2.S 1 ; ; y ( X.%.%.%.*.*.$.*.*.&.*.@.*.+.*.*.+.*.",
"&.*.*.*.+.*.*.*.*.&.&.$.$.+.+.+.X. .F n w s S T 7.n.Z.Q.!.'.].].'.'.'._._._.`.(.'._._._.`.(.`._._._.'._._.'._._.'.'.].'.'.(.Q.C.b.7.R Y p a n F  .+.+.+.+.+.$.&.*.&.*.&.*.*.*.*.*.*.",
"*.*.*.*.*.*.*.*.*.*.&.+.+.....{ } o.} K L T Q 9.c.C.Q.Q._.'.|.].].'.'.'.'.'.`.'._.`.`.`.`.`.`.`.'._._.'._.'.'._.'.'.'.].'._.Q.U.M.z.7.Q Y J K K } } { ..X.+.+.$.*.*.*.*.*.@.*.&.*.*.",
"*.*.@.+.*.*.*.*.*.*.$.X.{ ( ( ( ] o.#.1.7.8.l.n.C.Z.Q._.'.'.].].].'.'.'.'.'.`.`._._._._.(.`.`.`._._._._._._._.`._.'.'.'.'.).!.Y.C.M.n.l.d.4.2.#.K F m m ( ..X.$.*.*.*.*.*.*.&.*.+.*.",
"*.*.*.*.*.*.*.*.*.*.+.X._ / u i A K R 7.k.n.M.I.Q.Q.!.!.'.'.].'.'.'.'.'.'._.`._.`.(._.)._._.).`._._.)._._.)._.).)._._._._.).!.W.Q.Q.Z.M.n.k.9.1.K A i u / _ X.+.*.*.&.*.*.*.&.@.*.*.",
"*.*.*.*.*.*.&.*.*.*.&...( y 7 7 s J 4.h.n.C.Y.!.!._._._.`.].'.'.'._.`._.`._._._._.).).).).).).).).).).).).).).).).).).).).).!.).!.!.Q.Q.Z.n.v.6.K s 7 7 y m { +.%.*.=.*.*.*.*.*.*.*.",
"+.*.*.*.*.*.=.*.*.*.+.{ b 7 - - w H 6.c.C.Y.!.`.`._._.(.!.!.!.!.(.)._._.)._.).).).).).).).).!.).).).).!.).).).).).!.).(.!.).).`._.'._.!.Q.C.c.Q J 0 + - e b { +.%.*.*.*.*.*.&.*.+.*.",
"*.*.%.*.*.*.*.*.*.*.X.{ u 2 + O 9 H 7.n.I.!.`.'._._.!.W.Q.Q.Q.D.Y.Y.Y.T.T.Y.!.).!.).).).).).).).).).).!.).).).).).!.).!.(.!.)._.'.'.'.`.Q.Z.b.7.J 0 O + 2 u { +.@.*.=.*.*.*.*.*.+.*.",
"*.*.%.%.*.*.*.=.*.*.+.{ u 2 + O 8 Y 9.n.U.!._.'.(.W.Q.Z.C.m.m.B.m.m.M.B.C.I.Y.Y.!.)._._.`.).).).).!.!.(.!.).W.W.W.).W.Q.!.!.(._.`.'.].`.Q.Z.n.7.J 8 O + 1 u { $.*.*.=.*.*.&.#.*.*.*.",
"+.*.*.+.*.*.*.=.%.*.+.F u 2 - O 0 Y Q m.Q.Q.W._.W.Q.B.z.f.a.Q Q Q p.Q f.j.m.Z.Y.!._.`.`.`.`.).).).).W.).).T.T.T.W.D.D.D.W.W.(.(._.'.'._.!.A.n.7.Y 8 O + 2 c { X.*.=.*.*.*.*.@.*.*.+.",
"*.*.*.*.%.%.=.*.*.%.+.| b 2 - + 0 Y 7.n.Q.Q.W.!.W.B.z.W I j h h h h j C E f.m.Z.T._.'.'.'.`._.).).).W.W.D.T.D.D.D.D.D.D.D.D.T.D.(._.(._.W.P.b.7.H 0 + - 2 i { +.@.*.=.*.=.@.%.%.*.*.",
"*.*.*.*.*.%.*.*.*.&.+.{ b 7 - + 0 Y 7.m.Q.Q.!.!.A.m.a.Y h             * C Q j.C.T._.'.].'.`.`.).).T.W.T.T.D.D.D.D.D.D.D.D.D.T.(.(._.'.!.Q.C.b.6.H 0 - - e b { O.*.*.=.@.*.*.%.%.+.*.",
"+.*.*.+.*.%.=.=.*.@.+.{ b 7 - + 0 Y 8.m.Q.!.!.!.Q.m.a.Z =     X       o B 4.h.C.Y.).`.`.'.`._.).).).W.).).).!.!.W.W.).W.).W.W.)._.`.`._.Q.C.b.6.Z a - - 2 b { +.*.*.*.=.*.*.%.%.*.*.",
"*.*.+.*.*.*.=.*.*.*.+.{ b 7 - - 0 Y 8.m.Q.Q.(.!.Q.n.l.6.;.^ ! ! ! ! ~ [ 3.w.c.M.U.Y.!.).).).).).).).`.`.`.[.[.[.[.[.[.[.`.[.`.[.].'.`.!.Q.C.b.7.H 0 + - e b { +.*.*.*.=.=.*.*.*.*.*.",
"*.*.*.*.*.*.*.*.=.*.+.{ b 7 - + 0 Y Q z.N.W.W.W.Q.~.E.R.J.i.i.u.u.u.i.i.F.F.F.H.M.B.I.Z.A.Y.T.!.).`.[.>X>X,X<X<X1X4X1X1X1X<X,X:X}.{.'.!.A.C.c.Q H a + - 7 c { @.@.*.=.*.%.*.#.*.+.*.",
"+.*.*.*.*.*.*.=.*.*.+.{ b e - - 0 Z W f.N.V.W.W././.@X@X$X$X#X#X&X#X#XOXoXE.H.F.v.h.s.x.N.B.S.T.).[.:X,X4X5XtXtXiXyXyXyXtX8X5X4X<X}.[._.A.C.l.Q Z w + - 7 b { +.*.*.*.*.*.@.@.@.*.*.",
"*.*.+.*.*.*.*.*.*.*.+.{ b r - - 0 C W s.j.V.W.(.[.<X7XwXrXgXgXgXgXgXrXqX-X@XE.F.8.P l l p.j.B.Y.`.:X,X5XtXiXlXzXzXcXzXzXlXkXiXtX2X1X{.!.A.m.h.Q H 0 + - e b { @.*.*.=.*.*.*.*.*.*.+.",
"*.@.*.*.*.*.*.*.*.&.+.{ b e - - 8 C W p.s.N.Y.`.,X5XiXlXNXVXVXVXNXVXNXjXpX;X.XG.:.* * h l s.N.S._.:X4XsXfXbXBXCXCXZXVXZXBXMXfXfX8X2X}._.Q.x.f.Q Y 0 O + e b } +.&.*.=.*.*.*.*.*.*.*.",
"*.*.*.*.@.*.=.*.*.&.+.{ b e - + 0 Z W p.x.V.T.:X4XsXxXBXAXSXDXFXGXDXSXVXjXrX$XJ.,.2   * j p.x.S.`.,X6XdXfXCXZXSXDXDXDXDXSXZXBXcX8X4X}.!.A.x.f.E Z 0 + - e u { +.*.*.*.=.*.*.&.&.*.*.",
"+.*.%.*.*.*.*.=.*.*.O.{ b e - + p Z Q l.N.T.`.,X6XfXxXBXAXSXDXFXHXGXGXSXVXgX;X.Xu.[ w k l s.N.S.`.,X8XfXMXZXDXDXFXGXGXGXDXSXCXcXkX2X}.!.A.x.a.W Z 0 + - e / { +.*.*.=.*.*.&.&.&.*.+.",
"*.*.*.*.*.*.*.=.*.*.@._ u 2 + O a T w.M.^.[.,X6XtXiXhXzXMXVXAXDXDXGXGXDXVXMXrX&X Xu.q.w.f.x.B.Y.`.:X8XfXMXAXDXGXHXHXGXGXGXDXCXmXkX6X<X(.A.x.a.W Z p + - e u | X.*.*.*.*.*.&.&.&.*.*.",
"*.*.*.*.*.%.*.*.=.*.@._ z >   O f 3.v.~.@X3X6XtXtXyXyXrXuXgXzXNXAXDXFXFXSXVXgXeX$XOX XL.L.P.U.T._.:X6XfXbXZXDXGXGXHXHXGXGXDXAXMXkX6X}.!.V.x.a.Q Z w + - e b { +.%.%.=.*.*.*.*.*.+.*.",
"+.*.*.+.*.*.*.=.*.*.+._ u O     f q.R.+X3XyXlXlXiXeX3X*X&X=X;XaXMXVXSXFXSXAXNXgXpXqX;X%X@X/.Q.T.).:X4XfXbXCXDXFXGXHXHXHXGXDXZXBXkX6X}.'.V.x.a.E Z 0 + - e b { +.%.=.%.*.*.*.*.&.*.*.",
"*.*.*.*.*.*.*.*.*.*.O.m q       g e.E.%XyXzXNXbXiXqX$XE.J.K..X=XpXMXVXDXDXSXSXVXNXjXaXeX3X:X/.).).[.1XyXzXCXSXDXGXGXGXGXFXDXCXmXkX6X}.!.V.x.a.Q Z 0 + - e / _ +.*.=.=.%.*.&.%.&.+.*.",
"*.*.+.*.*.*.=.=.*.*.*.M q       g i.~.3XhXBXZXCXjX3X.Xy.:.:.i.OX0XgXVXAXGXGXDXDXAXZXBXlXyX1X>X).).:X1XyXzXCXAXFXFXGXGXFXFXSXCXcXkX8X}.!.A.x.a.W Z w + - e i { O.%.%.*.=.*.*.&.*.*.*.",
"+.*.*.+.*.*.*.*.=.%.+.M q       g i.OXwXvXAXDXVXjX;XE.:.X O :.K.=XaXBXDXFXGXGXFXFXFXAXBXfX5X>X`.Y.[.1X8XzXCXSXDXFXFXFXDXSXCXBXfXtX2X}.).A.x.a.Q Z 0 + - e b { X.%.=.*.*.*.*.*.@.&.*.",
"*.*.*.*.*.*.*.=.*.*.+.x 5       g i.+XeXnXDXFXSXjX;XJ.~   . g G.&XuXBXSXGXGXHXHXHXFXSXCXxX8X>X`.).:X1XyXzXVXSXSXDXSXSXAXCXBXcXfX8X2X}._.S.N.h.Q H 0 + - 2 b { +.*.*.%.=.*.&.*.*.*.&.",
"*.*.*.*.*.*.*.=.*.*.+.M 5       g i.$XeXNXDXGXSXjX;XJ.f     9 i.$XuXBXSXGXGXHXHXHXGXDXZXxX8X>X`.).:X1XiXMXZXDXDXSXSXVXBXMXfXfX8X6X1X{._.Y.B.j.Q Z 0 + - 2 / { +.*.=.=.%.*.&.*.*.*.*.",
"+.*.*.+.*.*.*.*.*.*.+.M 5       g i.$XgXVXDXGXDXMX;XK.f     8 y.$XuXBXDXFXGXHXHXHXFXDXCXlX8X>X`.Y.[.1XyXCXZXDXDXDXVXBXfXfX8X6X1X2X}.{._.Q.B.l.Q G 0 + - 1 u _ +.*.%.=.*.*.@.*.*.*.*.",
"*.*.*.*.*.*.=.*.=.@.O.x =       g i.+XwXNXDXHXSXMX;XK.D     w G.$XuXBXSXFXGXHXHXGXFXSXCXxX8X>X).).:X<XiXMXZXDXDXAXBXfXyX6X<X:X:X{.|.]._.Q.Z.b.7.H % X O 1 b _ +.*.@.*.*.*.%.&.*.@.*.",
"*.+.*.*.*.*.*.=.*.*.+.M 5       g i.+XgXvXFXDXSXvX;XK.;.    [ J.*XaXBXDXFXGXGXFXFXFXZXCXfX5X>X`.).:X1XiXCXSXDXDXZXBXfX6X>X`.).).'.'.]._.Q.Z.b.6.Y 0 O + 2 u { +.*.=.=.@.=.*.*.&.*.*.",
"*.+.*.*.%.*.*.*.=.@.@.m q       g y.XXqXjXVXSXVXjX;X Xq.f g e. X-XaXBXSXFXFXFXFXDXSXZXNXfX5X>X).).`.4XiXCXCXAXAXBXfX8X>X'.D.D.D.W.(.).!.Y.C.c.6.J w - - e b { X.@.*.=.=.@.*.&.*.*.*.",
"*.*.*.*.%.*.*.=.*.*.O.m z $   X Y e.E.=XgXvXvXvXuX;X.XG.y.y.K.$XwXvXZXSXFXFXDXSXSXVXNXfXyX1X:X).).:X<X8XfXBXCXCXcXfX1X:X(.D.V.S.D.T.Q.Y.Z.n.k.4.K s 6 7 y ( X.+.@.*.@.*.*.@.*.&.+.*.",
"*.*.*.*.*.*.*.*.*.*.+.F v q = q [ e.K.+X*XwXuXuXeX-X$XoX.XOX*XeXhXNXAXDXDXDXZXZXCXcXxXtX5X,X{._.).`.>X6XfXfXBXfXfXdX1X].).D.V.V.V.A.Z.C.n.k.9.2.K A i u b { X.@.*.*.*.&.&.@.*.&.*.*.",
"*.+.+.*.*.*.*.*.*.*.+.O.M M z c } 0.y.K.oX+X&X-X;X-X-X-X0XeXaXhXBXSXDXFXDXZXZXbXxXfXtX6X1X:X].`.`.:X:X4X6XsXsXdXtX6X,X:X(.T.S.V.B.m.b.c.9.7.2.#.o.F m ( _ ..X.$.*.*.*.*.*.*.*.*.*.+.",
"*.*.*.*.+.*.*.*.*.*.+.+...` ` ' o.0.q.w.t.i.K.XX#X-XqXuXhXNXBXAXDXDXFXFXDXZXCXxXsX6X1X,X:X{.'.`.`.].:X:X,X6X6X6X2X,X,X].'.W.D.V.B.l.9.2.T o.L o.o.} ......X.@.*.*.*.*.*.&.*.&.&.*.+.",
"*.+.*.*.*.*.*.*.*.*.*.+.O.+.O.O.+.X.} A ] [ q.i..X*XrXjXVXAXFXFXFXGXGXDXZXCXlXiX6X,X{.`._.`._._.`.`.`.].:X:X:X:X:X:X|.|.'.(.Y.V.b.9.T S s i A { X.X.+.@.+.@.@.*.*.*.*.*.*.*.@.*.*.*.",
"*.+.*.*.+.*.*.+.*.*.*.*.*.*.=.*.*.' z .     $ <.K.%XeXMXAXDXFXFXGXFXDXSXBXcXiX5X>X`.T.D.D.T.W.).).).).).).).).).)._.`.[.(.).I.M.k.R V % - ; y ( X.+.*.%.*.*.@.*.*.@.*.*.&.&.&.*.*.*.",
"*.*.*.*.*.*.*.*.*.*.*.*.=.=.=.=.@.` q .       D i.OXqXlXBXAXDXSXSXAXVXNXlXuX5X>X/.A.V.N.V.V.Y.Y.Y.Y.Y.A.A.V.V.V.A.Y.T.T.Y.Y.C.b.6.J 8 O O - e b X.&.=.=.=.=.=.*.*.*.*.*.#.*.*.&.*.+.",
"*.*.*.+.*.*.*.*.*.*.*.*.*.=.=.=.*.` z         A r. X*XeXhXMXMXMXjXjXgXrXwX3X@X^.I.N.s.j.x.N.B.C.C.C.B.B.x.z.z.j.x.B.B.B.B.C.b.g.R V + X O - r / ..&.=.=.=.%.*.*.*.+.+.*.*.*.*.*.*.*.",
"*.+.*.*.+.*.*.+.&.&.*.*.*.=.=.*.*.| v q .   $ A q.K.oX*X0XwXwXqX;X-X=X$X+X~.L.H.c.f.p.s.f.f.h.b.c.k.k.g.d.d.d.p.d.d.h.k.k.g.9.#.H a + O + - y ( O.&.*.=.%.=.*.%.*.*.*.*.*.+.*.*.+.*.",
"*.*.+.*.*.&.*.*.&.&.*.*.*.*.=.*.*.O.` v z z v } 0.t.J.E..XXXXXE. XR.K.G.i.y.r.8.6.R E E E 4.4.5.6.6.Q R U U J I U U R R R 1.Y G s 0 O + - e b F O.@.*.=.*.=.*.*.*.*.*.*.*.*.*.*.*.*.",
"+.*.*.*.&.&.@.&.*.&.*.&.*.*.*.*.&.*.@.O.' ' | #.=.0.q.e.e.e.e.e.<.<.:.;.;.K K H G G G G G G J K K S S N N B s s w s s N s s a 0 % % + # 6 i m F +.@.*.*.=.*.*.*.*.+.*.+.+.*.*.+.*.*.",
"*.*.*.*.*.*.&.*.&.*.&.*.*.*.*.&.*.&.*.*.=.@.@.@. .} A A f p p 3 3 8 < < < < < 8 8 8 9 9 8 8 9 8 8 8 8 6 < < , < $ , < < < < $ > + + + : 9 n A { O.+.*.=.*.@.*.*.*.+.*.*.*.*.*.*.*.+.",
"*.*.*.@.*.*.&.&.*.&.*.&.*.*.*.*.*.*.*.=.=.=.*.O.` u $           # p g D g d p : + O X X X X X X O + + # < 0 0 w s w w w w 0 9 8 % @ @ $ 6 i A { X.&.*.*.=.*.*.*.*.*.*.*.*.*.+.*.*.*.",
"+.*.*.+.+.*.*.#.*.*.*.*.*.+.*.*.*.*.=.=.=.=.=.O.v q           p :.q.y.y.y.e.,.~ : O X             O + 0 N G K L L T T L L J S V a 0 % < 6 i n { +.+.*.=.=.@.*.@.*.&.&.&.+.*.*.+.+.*.",
"*.*.*.*.*.*.*.*.+.*.+.*.*.*.*.*.*.*.*.=.=.=.*.O.v 5         f q.J..X+X$X#X Xi.q.d O               + 0 G T 4.9.g.g.g.g.g.8.7.2.1.Y s 0 $ > t n { X.*.*.*.=.*.*.*.*.*.&.#.*.*.*.*.*.*.",
"*.*.*.*.*.*.*.*.*.*.+.*.*.+.+.*.*.*.*.*.=.=.*.O.v 5       < <.J.+X;XrXuXeX-XOXi.,.+               > S 1.9.k.n.M.M.P.B.M.M.n.c.9.R G a < 1 7 b { O.*.=.=.=.@.*.*.*.*.*.*.*.*.*.*.*.*.",
"+.*.*.+.+.*.*.+.*.*.*.*.*.*.*.*.*.*.*.=.*.*.&.O.v 5       g y.XX;XhXMXBXMXaX=XR.<.-             O w U 9.b.C.U.Y.Q.Y.Q.Y.Y.I.M.c.7.T s $ - 2 u { +.&.=.=.=.*.*.&.&.@.*.*.+.*.*.+.+.*.",
"*.*.+.*.*.+.*.*.*.*.+.*.*.+.*.*.+.*.*.*.=.*.@.O.x 5       Y u.#XeXMXAXSXVXjX0X.Xe.p             > S 4.k.M.Y.!.).(.'._.(.).Y.U.M.g.R V < - 1 y ( X.*.*.*.*.*.*.*.*.*.@.@.*.&.*.&.*.&.",
"*.*.*.*.*.*.*.*.*.*.*.*.*.*.*.*.*.*.*.*.*.*.*.O.M 5       [ i.OXeXjXVXAXBXjXqXoXy.K       X X 8 V 1.8.n.I.Y._.'.'.].].].'._.Y.B.k.2.S $ + - r b | O.*.*.%.*.*.*.@.*.&.@.&.*.&.*.*.*.",
"+.*.*.*.*.+.+.*.*.+.+.*.*.*.*.+.*.*.*.=.*.=.*.+.x q       D u..X;XaXMXNXzXaX-X.XF.2.k h h k S K 1.9.c.B.Y.!.`.'.|.|.|.|.'._.T.C.c.2.V + O + - y v m ` ' O.O.*.*.*.&.&.&.*.*.*.&.*.&.",
"*.*.+.*.*.*.*.*.*.*.*.@.*.+.*.*.*.*.*.*.=.*.*.+.' z $   X g q.K.OX-XeXpXeX3X@X~.F.d.W P P E Q d.g.b.M.I.Y.).`.`.].|.|.|.]._.Q.C.l.1.f O       O , q q v M ` O.@.*.=.=.*.*.*.&.*.@.&.",
"*.*.%.*.*.*.*.*.@.*.*.*.@.*.*.*.*.*.*.=.*.=.*.&.' v 5 O O d >.e.J..X#X$X@X+X~.H.M.j.j.s.j.j.z.n.M.P.P.Y.Y.!._.`.'.|.|.|.'._.Y.C.l.2.s O               = u ) ' +.=.=.=.*.*.*.*.&.&.*.",
"*.*.*.&.*.+.#.*.*.*.*.*.*.*.*.*.*.*.*.=.=.=.*.+...m q 5 $ 9 g ;.<.e.u.G.G.H.H.M.B.N.N.V.B.C.Z.I.I.Y.Y.T.!.).).`.`.'.].].'.`.Y.C.v.R s X                 5 v ` @.*.=.=.=.=.*.&.*.*.&.",
"@.*.&.&.*.&.&.&.&.*.&.&.@.&.*.*.&.*.*.=.@.=.@.+. .A n t 6 @ : 4 4 d g [ 3.8.c.M.C.Y.T.T.W.).T.Y.Y.).!.!.!.!.).).).`.'.'.'.).Y.C.g.R N +               $ q x | @.*.=.=.*.*.*.*.&.*.@.",
"*.*.@.*.*.*.&.&.*.&.&.&.&.&.*.*.&.*.*.*.@.*.*.O.{ { i w 8 +             B R c.C.Q.[.{.|.].'.`._.)._.).`.).).).).).)._.`.).Y.I.M.g.6.H a < : 3 d g g [ [ o.o.o.+.&.*.*.*.*.&.&.*.*.*.",
"+.*.*.+.&.&.*.*.@.&.*.*.*.*.@.*.&.&.+.&.@.+.X.{ A n i 6 O               & 2.n.^.:X2X2X2X,X,X{.].`.`.(.`.(._.).).T.Q.Y.Y.Y.C.B.b.k.7.R T 1.:.3.r.r.i.u.r.t.0.0.#.O.' ' O.O.@.&.*.&.%.",
"*.*.*.*.&.&.*.*.&.&.@.*.*.*.*.*.&.+.+.+.X. .} m b q = X                 w w.E.@X6XsXsX9X9X2X,X|.`.(.(.(.'._._.).T.Y.I.P.n.b.c.k.g.d.d.g.v.F.E.E.~.OXXXE.J.G.q.&.| M M m O.@.&.*.*.*.",
"*.*.*.*.*.#.+.*.*.*.*.*.*.*.*.*.&.+.X.X.} ] n i 5 #                     D G.oX3XfXcXmXxXfX9X,X{.(.(.(.'.'.'.`.).Y.I.M.k.9.7.5.d.f.h.b.M.P.~.@X*X0X;X;X=XOXK.y.:.n q u v m O.&.*.*.*.",
"+.*.*.+.*.*.*.*.@.*.*.&.*.@.=.*.+.#. .} F A i 5 O                       ,.K.%XuXzXZXZXmXmXsX2X{.'.(.(.(.'.].`.).U.M.k.4.L H L Q d.z.B.Y./.>X4XiXhXjXgXeX=X.Xi.>.q o & z M O.&.*.*.*.",
"*.*.+.*.*.*.*.*.*.*.*.&.*.*.*.*.$.X. .] A i 8 # X         .           - q.K.;XaXBXAXSXZXmXdX1X{.(.T.W.(.(.'.`.T.I.n.5.L w 9 S U a.x.V.!.:X4XsXcXnXZXNXjX;X#Xi.>.>     = v O.@.*.*.*.",
"*.*.*.*.+.*.+.*.+.*.*.&.*.*.=.*.@. .{ m i 8 # @ : 3 p f f f p X       s y. X-XaXBXAXZXZXxXtX<X[.T.D.D.W.(.(.!.Y.C.k.2.V 9 8 B U p.x.V.).:X6XxXmXSXDXSXnXgX=XR.>.O     o z | +.*.=.=.",
"+.*.*.*.*.*.+.*.*.*.+.*.=.=.*.*.@.O.( i 6 O O 3 g ;.<.e.y.y.r.3.K B k L w.E.&XrXjXNXBXvXiX7X>X^.S.V.V.Z.Y.Y.U.I.M.k.5.L V S K E p.j.B.Y.:X5XxXCXDXFXDXBXgX=XR.>.X       z | @.@.*.=.",
"*.*.+.*.*.*.*.*.*.*.*.*.*.*.=.@.&.| m q @   O g >.y.K. XoXOX.XL.F.9.2.2.k.L.+X-XrXpXuXeX0X@X~.P.B.x.z.B.B.B.C.n.n.k.g.5.5.4.4.Q p.f.x.Z./.5XkXCXDXFXFXSXgX=XR.>.        z | *.=.*.*.",
"+.*.*.+.*.*.+.*.*.*.&.*.*.*.=.*.+.{ v =     O D e.R.#X-X;XeX;X%XoXP.h.d.f.n.L.OX$X$X$X$XoXE.H.v.f.d.d.d.g.g.k.h.k.k.b.b.b.b.b.h.p.p.p.c.~.*XgXVXDXGXFXSXjX-XR.>.        z | +.*.=.*.",
"*.*.*.*.+.*.*.*.*.&.*.*.*.=.*.*.@.| z o     O >.i.OX;XgXjXvXhXyX<X/.Z.N.j.c.n.F.J.K.J.i.i.r.8.4.R R T U T T 2.7.g.c.M.C.U.Z.C.z.a.P I 6.F.~.wXNXSXFXFXAXgX-XR.>.        z | +.*.=.*.",
"*.*.*.*.*.*.*.*.*.*.*.*.=.@.=.*.@.' u X     + <.R.&XgXjXVXZXnXcXsX:X!.A.N.f.d.9.3.,.;.^ ~ D D S V N B w 0 w N Y 7.b.C.Y.Q.!.S.M.p.C h S r.E.;XjXAXDXDXVXgX-XK.,.X     . z O.*.*.*.=.",
"+.*.*.+.*.*.+.*.@.*.&.*.@.=.*.*.@.| z o     < <.R.=XgXjXSXSXSXmXfX6X:X).V.N.f.Q Z 8 X X   X + + # + + O   X - N 1.k.C.Y.!.).Y.m.Q j . @ >.R.&XgXBXSXSXNXuX&XK.,.O     $ z | *.*.=.@.",
"*.*.+.*.*.*.+.*.*.&.&.&.*.*.*.*.+...v =     w q.R.&XeXhXBXVXZXmXxXsX2X,X/.P.m.d.I * .         X O X         X 0 U g.M.I.Q.Q.U.m.W h   O ^ u.#X;XhXvXvXhXqX+XJ.,.5   . 5 v ..*.*.*.*.",
"*.*.*.*.*.*.*.*.*.@.&.&.*.*.=.*.@...M q = = i 0.i.XX=XgXhXjXzXcXxXfXdX8X1X>XY.H.d.I h & .                     $ G 6.c.M.Z.Z.M.f.E *     d e. X&XqXgXgXqX*X.XG.#.u = 5 z M O.*.*.=.@.",
"+.*.*.+.*.@.*.&.*.*.&.*.*.*.*.*.&.O._ v u z F 0.y.K.E.$X-XqXuXhXlXxXxXfXfX8X<X^.P.f.W l j k & X               @ N T 7.h.b.c.l.Q Z &   X 4 <.i.E.+X*X&X+XoXK.t.,.m z v v | +.+.*.@.*.",
"*.*.*.*.*.*.*.&.@.&.*.&.*.*.*.*.&.+.O.` M m { #.0.q.y.G.R.XX*X3XiXmXCXCXCXfXtX,X/.I.j.a.W Z B % X           O @ a S Y 2.6.6.R J B &   O 4 ^ e.u.J.R.E.K.G.y.0.#.} m M O.O.*.&.&.*.*.",
"*.*.*.&.*.@.*.*.*.*.+.*.*.+.*.*.&.%.@.$.O.O.+.+.o.} A [ <.y.E.-XgXMXVXSXAXBXfX9X:X).A.j.a.W Z a O       X O O # 8 a s S S S V s 0 $ O + 3 d Y ;.<.e.<.q.0.0.#.&.+.O.O.@.+.+.@.*.*.*.",
"#.*.&.&.*.*.*.*.*.*.*.*.*.*.*.*.&.&.&.*.*.&.@.O.) 5       ;.i.OX;XjXAXDXZXCXxXtX,X_.Y.B.j.Q U B + X X O + # > < < , % $ < < < % $ $ > < > @ : @ @ < 9 s A ] ..+.&.*.*.*.&.*.*.*.*.*.",
"&.*.*.&.*.*.*.@.*.+.+.*.*.*.*.+.&.*.-.*.-.-.=.O.v o .     , e.E.;XgXNXVXCXBXfX8X>X).S.N.j.5.U A 2 + + - 7 9 9 6 6 > - - + - + ; 1 9 9 t 5 #             5 z ' +.=.=.=.*.*.*.*.*.*.*.",
"&.&.*.@.*.*.+.*.*.*.*.*.*.+.*.*.*.*.*.-.-.*.%.O.v =       # <.R.#X;XgXjXhXiX7X>X@XY.B.j.d.Q U A i 7 7 r i i i i t e 7 1 ; ; 1 e t i i i q 6 X           5 v ` @.*.=.=.=.=.*.*.*.*.*.",
"*.*.*.*.+.*.*.+.*.*.*.@.&.*.&.*.&.*.*.=.=.=.*.O.) u &     q :.G. X$X;X;X3X-X@X^.P.M.h.d.p.#.U K n b i n m A A m n n u u y y u i n m A A A z q = o o = q z M ' @.*.=.=.*.*.*.*.&.*.@.",
"*.+.*.*.*.*.*.*.@.*.*.*.*.&.*.&.*.*.*.*.=.*.*.%.' ) v z z m o.t.G.K. X.XE.E.R.F.v.9.5.R #.U #.O.{ _ _ { { { } ..{ { ] ( ( ( _ F { } ..F { m m v z z z v M | O.+.*.=.=.*.*.*.*.*.+.*.",
"*.+.*.+.+.*.*.*.&.*.&.*.&.*.&.*.&.&.*.*.*.*.%.%.O.O.' ' | X.#.0.q.q.e.e.e.e.3.>.L H Z G K F o.X.+.X.+.+.+.X.O.+.X.X.O.X.X.X.O.X.X.X.+.X.O.X.O...F O.O.| +.+.@.*.*.*.&.*.@.*.&.*.&.&.",
"*.*.*.*.*.*.*.+.*.&.*.&.*.&.*.&.*.*.*.*.%.%.%.%.%.%.*.*.$.&.X.} D N g p p p 3 % 3 8 w i A F X.&.&.&.*.&.&.&.&.+.&.&.&.$.%.%.@.@.&.*.*.*.+.@.*.*.*.*.+.@.*.*.*.%.*.&.*.&.*.&.*.&.&.&.",
"*.&.&.&.*.+.*.*.+.*.*.+.*.*.+.*.*.@.*.*.+.*.*.*.*.*.=.=.=.@.| M q $ .             + 1 t / { X.+.%.=.=.=.%.*.%.=.%.%.=.%.*.=.@.=.*.*.=.*.*.*.*.*.*.*.*.*.=.*.*.@.*.*.+.*.*.+.*.*.*.+.",
"*.#.&.*.*.*.*.*.*.*.*.*.*.*.*.*.*.*.*.*.*.*.*.*.*.=.=.-.*.@.' v z o             + - 2 t / ] X.&.=.*.=.*.=.=.%.=.=.%.%.=.*.=.=.@.*.*.=.*.*.=.*.=.*.=.@.=.@.*.*.*.*.*.*.*.*.*.*.*.*.*.",
"&.@.*.*.+.*.*.+.*.*.*.*.#.*.*.+.*.*.*.*.*.*.*.*.*.=.=.=.=.@.O.M z q $       O ; 2 r u b ( ..+.$.=.=.=.=.%.=.%.%.%.=.%.=.*.*.=.*.*.*.*.*.=.%.=.*.=.=.*.*.*.*.*.*.*.@.*.*.*.&.&.*.*.*.",
"&.*.*.*.*.*.*.*.+.*.*.+.&.*.*.*.&.&.@.&.+.*.*.+.#.*.=.*.=.*.O.| x v z z z q z z c m ( { ..X.+.&.%.=.%.*.*.*.%.=.%.%.%.%.*.*.*.*.*.=.*.*.*.%.%.*.@.@.*.*.*.*.*.*.*.#.*.*.+.&.&.*.*.*.",
"&.&.*.*.*.*.*.*.*.+.*.*.&.&.*.*.*.@.&.&.*.*.*.*.&.*.*.*.*.*.+.O.O.O.| ' ' | | | ....X.+.+.+.&.&.*.*.*.*.*.*.*.*.%.*.*.*.@.*.@.*.*.*.*.*.@.*.%.%.*.*.*.*.*.@.*.*.+.*.*.+.*.*.+.*.+.*.",
"*.&.*.@.*.+.*.+.*.*.*.+.&.*.@.*.*.*.&.&.*.+.*.*.&.&.&.*.%.*.*.*.*.*.@.*.+.+.*.*.&.+.+.+.&.&.&.&.*.&.*.*.&.*.%.&.%.*.*.%.*.*.*.&.*.*.*.*.*.&.*.*.*.*.*.+.*.*.*.*.*.*.*.*.+.*.*.*.*.*.",
"*.&.*.*.*.+.*.*.*.*.*.*.@.*.&.&.*.*.#.*.*.+.*.+.*.&.*.&.%.*.*.*.&.*.*.*.&.*.*.*.*.*.=.*.*.*.*.&.&.*.%.*.*.%.&.&.*.*.@.*.*.*.*.*.*.*.&.*.*.&.&.&.*.+.*.*.*.*.*.@.*.*.*.*.*.*.*.*.*.*.",
"@.&.*.*.*.*.*.*.*.+.*.*.*.*.*.&.&.&.&.*.*.*.*.*.&.*.&.*.%.*.*.&.*.*.=.*.*.*.=.*.*.*.*.*.*.*.*.&.*.&.&.&.*.&.&.&.@.*.*.@.*.@.*.&.*.&.*.&.*.@.&.*.*.*.*.@.*.*.*.&.+.*.*.+.*.*.+.*.+.*.",
"*.*.+.*.*.*.*.+.*.*.*.+.*.*.*.*.*.+.*.*.*.*.+.*.*.*.*.+.*.*.*.*.%.$.=.*.$.=.$.=.*.=.*.=.*.*.*.*.$.*.*.$.&.&.&.&.*.*.$.*.$.*.$.$.*.*.*.+.*.*.*.*.*.*.+.*.*.*.*.+.*.*.*.*.+.*.*.*.+.*."
};
