/* XPM */
static char *result[] = {
/* columns rows colors chars-per-pixel */
"90 105 245 2 ",
"   c #000000",
".  c #000D04",
"X  c #00000C",
"o  c #001B00",
"O  c #000014",
"+  c #00001D",
"@  c #020B19",
"#  c #04151A",
"$  c #121C1E",
"%  c #002600",
"&  c #013A02",
"*  c #00291C",
"=  c #063015",
"-  c #000024",
";  c #00022A",
":  c #000C2A",
">  c #021526",
",  c #0A1B22",
"<  c #001C2D",
"1  c #161C24",
"2  c #041631",
"3  c #32123F",
"4  c #042926",
"5  c #00232E",
"6  c #152523",
"7  c #182A26",
"8  c #1C2D24",
"9  c #003528",
"0  c #1B3429",
"q  c #002530",
"w  c #002E33",
"e  c #013436",
"r  c #043835",
"t  c #033C3A",
"y  c #0A3E3A",
"u  c #163B34",
"i  c #272C2E",
"p  c #243629",
"a  c #233B2B",
"s  c #293633",
"d  c #353D39",
"f  c #014700",
"g  c #105207",
"h  c #1A6400",
"j  c #2F6D15",
"k  c #004433",
"l  c #034B37",
"z  c #0E413B",
"x  c #014D3A",
"c  c #0E4D3A",
"v  c #12433C",
"b  c #1B4539",
"n  c #194A3F",
"m  c #01523C",
"M  c #0C513E",
"N  c #2A452B",
"B  c #314A2F",
"V  c #2D5B24",
"C  c #34552E",
"Z  c #385A2D",
"A  c #25483A",
"S  c #364639",
"D  c #27513E",
"F  c #375233",
"G  c #3A5533",
"H  c #3C5B34",
"J  c #35593D",
"K  c #39593A",
"L  c #366728",
"P  c #3B6337",
"I  c #415E39",
"U  c #43643B",
"Y  c #466B3C",
"T  c #457931",
"R  c #49753A",
"E  c #341A40",
"W  c #3A3242",
"Q  c #413E47",
"!  c #144C43",
"~  c #1B4D41",
"^  c #015A43",
"/  c #075B44",
"(  c #1D5344",
")  c #195A44",
"_  c #3C4941",
"`  c #235544",
"'  c #2C5544",
"]  c #245946",
"[  c #2B5A45",
"{  c #255B49",
"}  c #295D49",
"|  c #315940",
" . c #315B49",
".. c #1E634B",
"X. c #27654D",
"o. c #2D634D",
"O. c #3C6243",
"+. c #2F6750",
"@. c #2F6850",
"#. c #306950",
"$. c #356952",
"%. c #367056",
"&. c #424B44",
"*. c #474C4A",
"=. c #4A5749",
"-. c #525C51",
";. c #476A43",
":. c #51694B",
">. c #4D7244",
",. c #4F7746",
"<. c #517543",
"1. c #547B45",
"2. c #577B49",
"3. c #557C49",
"4. c #4A6755",
"5. c #5A6959",
"6. c #47745B",
"7. c #5C7754",
"8. c #62735C",
"9. c #5B7C65",
"0. c #6A7866",
"q. c #717B6C",
"w. c #737771",
"e. c #4D8438",
"r. c #52873D",
"t. c #529136",
"y. c #568744",
"u. c #5B854D",
"i. c #5E8B4C",
"p. c #5D9546",
"a. c #5E8751",
"s. c #608D4E",
"d. c #62954C",
"f. c #639D4B",
"g. c #638E51",
"h. c #668A59",
"j. c #659353",
"k. c #6A9657",
"l. c #6A9B55",
"z. c #6D9D59",
"x. c #67A54C",
"c. c #6CA454",
"v. c #6EA756",
"b. c #71AD56",
"n. c #72A55C",
"m. c #74AB5C",
"M. c #73B555",
"N. c #75B15B",
"B. c #79B55E",
"V. c #7ABA5D",
"C. c #6C8967",
"Z. c #74846D",
"A. c #6D906D",
"S. c #77996A",
"D. c #778673",
"F. c #7C8B75",
"G. c #799778",
"H. c #76A464",
"J. c #77AA60",
"K. c #79AD62",
"L. c #7DB464",
"P. c #7EBB62",
"I. c #7FC160",
"U. c #818E79",
"Y. c #84967C",
"T. c #81BD66",
"R. c #82B66A",
"E. c #83BD6A",
"W. c #87A779",
"Q. c #87B174",
"!. c #89B874",
"~. c #82C264",
"^. c #86C16C",
"/. c #89C56E",
"(. c #86C868",
"). c #8BC96D",
"_. c #8BC671",
"`. c #8DCA72",
"'. c #91CC75",
"]. c #92C57A",
"[. c #94CB7B",
"{. c #95CB7C",
"}. c #96D07C",
"|. c #8A9B83",
" X c #919E88",
".X c #8EA386",
"XX c #95A68B",
"oX c #97B787",
"OX c #9AA692",
"+X c #9CAC92",
"@X c #9DB395",
"#X c #A1AE97",
"$X c #A3B698",
"%X c #A9BB9D",
"&X c #ACBDA1",
"*X c #9ACD83",
"=X c #9CC988",
"-X c #9DD285",
";X c #A2CE8C",
":X c #A0D787",
">X c #A3D38C",
",X c #A8C797",
"<X c #A6D291",
"1X c #AAD694",
"2X c #ABD995",
"3X c #AED799",
"4X c #B1D79E",
"5X c #B2DA9D",
"6X c #B3E29C",
"7X c #ACC0A2",
"8X c #B4C8A7",
"9X c #BACDAC",
"0X c #B6DCA2",
"qX c #B9DCA7",
"wX c #BBD1AD",
"eX c #BDCEB0",
"rX c #BED3B2",
"tX c #B9E1A5",
"yX c #BDE2AA",
"uX c #C1DEAF",
"iX c #C2D5B4",
"pX c #C3DBB5",
"aX c #C9DDBA",
"sX c #C1E6AE",
"dX c #C5E5B3",
"fX c #C7E8B4",
"gX c #C9EAB6",
"hX c #CCE3BD",
"jX c #CDEBBB",
"kX c #D1EEBF",
"lX c #CEF2BA",
"zX c #CFE3C1",
"xX c #D1E6C2",
"cX c #D4EBC3",
"vX c #D8EEC9",
"bX c #D6F2C4",
"nX c #D9F4C7",
"mX c #DCF4CB",
"MX c #DCFBC8",
"NX c #E0F9CF",
"BX c #E1F7D1",
"VX c #E4FCD3",
"CX c #E8FFD6",
"ZX c #ECFFDA",
"AX c #F0FFDF",
/* pixels */
"#.+.+.+.o.#.#.#.#.o.#.o.#.#.#.#.#.#.@.#.@.#.+.+.$.#.#.#.#.%.@.@.%.@.#.#.#.%.#.#.#.%.#.#.#.%.#.#.%.#.#.#.$.%.#.#.%.@.#.%.#.#.%.@.@.#.@.#.@.#.+.#.#.+.#.+.#.#.#.#.#.#.#.#.#.#.#.#.#.#.",
"#.+.+.+.#.#.#.#.#.#.#.#.#.#.o.#.#.@.#.#.+.#.+.+.#.#.#.%.%.$.#.%.@.%.%.#.%.#.#.%.$.#.#.%.%.#.%.#.#.%.#.%.#.#.%.@.@.%.%.#.%.@.#.@.@.$.#.#.#.#.#.+.+.#.+.+.#.#.o.#.#.#.#.#.#.o.#.#.#.o.",
"#.+.+.+.#.#.#.#.#.#.o.#.o.#.#.#.@.@.+.#.#.#.+.#.+.#.#.#.#.#.#.#.@.#.#.#.#.#.#.#.#.#.#.#.@.@.#.#.#.@.#.%.+.$.#.#.#.#.#.#.#.#.#.#.@.@.+.+.@.#.#.#.+.+.+.+.o.#.#.#.o.#.#.o.#.#.#.o.#.#.",
"+.#.+.$.#.#.o.#.#.#.#.#.#.#.#.#.@.$.#.+.+.#.#.+.+.@.@.#.o.+.+.o.@.@.@.+.@.@.@.@.+.+.+.o.@.@.@.o.@.@.o.@.+.+.+.+.@.@.@.o.#.@.@.#.@.$.+.+.#.#.@.#.#.+.$.+.#.#.#.#.#.#.#.#.#.#.#.#.#.$.",
"#.+.#.+.#.#.#.#.#.#.#.#.#.#.#.#.@.#.#.@.@.$.$.+.+.o.o.} } } { [ { ] } } } } } } { } [ { } ] } } } } { [ { } { ] { ` { { } { } o.o.+.+.+.#.#.@.+.+.#.+.#.+.#.#.o.#.#.o.#.#.#.#.#.#.o.",
"#.#.+.#.#.#.#.o.#.o.#.#.#.#.o.#.#.#.#.%.%.#.+.+.o.} ` ( ~ n v n n n n n n n n n ~ ~ n ~ n n n ~ n n n ~ n n ~ ~ n n n n n ~ ( ` } o.+.$.%.@.%.+.#.+.$.#.#.+.#.#.#.#.#.#.o.#.#.#.#.#.",
"+.#.+.+.#.#.#.#.#.#.#.#.#.#.#.#.#.#.@.@.%.@.#.+.} ` ~ y e w 5 q q w w w w w w e w w w w w w w w e w w w w w w w w w 5 q w e y ~ ] { +.@.%.#.%.+.#.#.#.+.#.#.#.#.#.o.#.#.#.#.o.#.#.#.",
"#.+.#.#.#.#.#.#.o.#.#.#.o.#.#.#.@.#.#.%.%.%.#.+.} ( z w : - + - - - ; - ; ; - - - ; - ; ; - ; - - ; - ; - ; ; - - - - + - : w z ~ X.+.@.%.%.%.+.#.#.+.#.#.#.#.#.#.#.#.#.o.#.#.#.#.o.",
"#.#.#.#.#.#.o.#.#.#.#.#.o.#.#.#.+.#.#.%.%.%.$.o.} n y q - O O O + + + + + + + + + + + + + + + + + - + + + + + + + + O O O - q z D ] o.$.#.%.%.+.#.#.#.#.#.#.#.#.#.#.o.#.#.o.#.#.#.#.",
"o.#.#.o.#.#.#.@.#.#.#.#.#.#.o.#.#.+.#.#.#.+.+.} [ D A 0 7 $ $ $ $ 6 6 6 6 6 6 6 7 6 6 6 6 6 6 6 6 6 6 6 6 6 6 6 6 $ $ $ 1 7 0 A D [ } +.#.#.$.+.#.#.#.#.@.#.@.#.#.#.#.#.#.#.#.#.#.o.",
"#.#.#.#.#.o.#.#.#.#.#.#.$.#.#.$.+.+.+.+.X.X.o. .[ J J F G F G G F F F F F F F F F F F F F F F F G F F F G F F F F G G G F F G J | [ } o.+.+.+.+.@.#.#.#.#.#.#.#.#.o.#.#.#.#.#.#.#.#.",
"#.#.#.#.#.#.#.@.#.o.#.#.#.$.#.#.+.+.} ) ( ! ~ ` | | ;.;.<.<.<.<.<.<.<.<.<.<.<.<.<.<.<.<.<.<.<.<.<.<.<.<.>.<.<.<.R <.<.<.<.R ;.;.| J ` ~ ! ( ) } +.#.$.#.#.#.#.@.#.#.#.#.#.o.#.#.#.#.",
"#.#.#.#.@.@.@.#.#.#.@.#.#.#.%.#.#.o.] ! t e e b J ;.>.u.g.g.j.k.j.g.g.g.g.g.g.g.g.g.g.g.g.g.j.g.g.g.j.g.j.g.j.g.j.j.j.j.j.g.u.,.;.J b e t t ! { +.+.%.#.%.#.@.#.#.#.o.#.#.#.#.#.#.o.",
"#.o.#.#.@.@.@.#.#.#.@.%.%.%.%.%.+.o.! t 2 ; : 0 K >.u.k.n.n.K.m.m.n.n.n.n.n.n.v.n.n.n.n.n.m.n.n.n.n.n.n.n.n.n.n.n.J.J.J.H.c.k.u.>.J 0 ; ; 2 t ~ { @.%.%.%.#.#.#.#.#.#.#.#.#.#.o.#.#.",
"#.#.#.o.#.#.#.#.#.#.#.#.#.%.#.%.+.} ! w ; - - a K 3.j.n.K.T.E.~.E.R.R.R.R.R.B.R.R.L.L.R.R.L.L.L.L.R.L.L.L.L.R.L.L.R.E.E.R.K.H.g.1.H p - - ; e ! X.@.#.%.%.#.#.+.#.#.#.#.#.#.#.#.#.#.",
"#.#.#.#.@.@.@.#.#.#.#.#.#.#.#.#.+.} ~ e : - , B Y a.z.K.E./.).).).E./.E.^.^./.E.^.^.^.^.^.^.^.^.^.^.^.^.^.^.^.^.^.`._.`._.P.L.z.u.;.B , - : e ~ } @.#.@.#.$.#.+.o.#.#.#.o.#.#.#.#.#.",
"#.o.+.#.#.+.#.#.#.#.+.+.o.+.o.o.} [ D b u p B U 2.k.n.R.^.).'.'.`.`._._././._./././././._./././././.)././.)._./.`.`.`.'.`./.L.m.j.1.U B p a b D [ o.o.o.+.+.+.+.@.@.@.#.#.#.#.#.#.#.",
"#.#.#.#.+.#.#.#.#.#.+.o.} } { ` '  .| J K U Y u.j.z.L.E.).'.'.'.`.`.`.`.`.`.`.`._._.`.`._./.`.`.`._._.`./.`._.).`.`.`.`.`./.R.K.n.s.2.R I I J | [ [ ` [ } } o.+.@.$.#.#.#.o.#.#.#.o.",
"#.#.o.#.#.#.#.#.#.#.o.o.{ ~ ~ n D J | ;.<.2.s.k.n.B.R.^.).`.'.'.'.`.`.`.`.`.`./././././._./._._./././././././././.`.`.`.`._.E.L.m.z.k.s.2.>.;.O.J A n ~ ` ] } +.@.$.$.#.#.#.#.#.#.#.",
"#.#.O.#.#.#.#.#.#.#.o.} ( ! y u A K ;.3.g.k.n.m.L.R.E./.`.'.`.'.'.`.`.`.`./._./././.^./.^./.^./././.^././.^././.^./././.^.^.E.E.R.R.m.z.z.a.3.;.J A u y v ` } o.#.#.$.#.#.#.o.#.o.#.",
"#.+.@.#.#.#.%.#.#.#.@.] ~ e 5 5 a K >.i.k.n.L.R.^.^.^./._._.`.`.).).`._.`._./.^.^.^.^.^.^.^.^.^.^.^.^.^.^.^.^.^.^.^.^.^.^.^.E.^.E.E.R.R.n.z.a.R K u 5 5 r n } o.#.#.$.#.#.#.#.#.#.#.",
"#.@.@.#.#.#.#.%.#.#.o.] z q - + 0 G <.g.n.L.^._./._./.^.^.^.^.^./.^.^.^.^.^.^.^.^.^.^.^.^.^.^.E.^.^.^.^.^.^.^.^.^.^.^.^.^.^.^._./.)./.E.R.n.g.<.H 8 - - q v ` } #.#.%.#.#.#.#.#.#.#.",
"#.#.#.#.#.#.#.%.#.#.o.` z < + O 8 G 1.k.m.E./.`.`./.E.P.L.L.L.L.L.L.L.L.L.P.R.E.^.^.^.^.^.^./.E.^.^.^.^.^.^.^.^.^.E.^.E.^.^.^./.).`.`._.R.m.j.1.G 8 X + < z ` X.@.@.#.#.#.#.#.#.o.#.",
"#.#.#.#.#.#.#.#.#.@.o.` y : + O 8 G 2.k.K.E._.`._.E.L.m.n.c.c.c.l.l.c.n.n.K.L.P.E.^./././.!./.^.E.^.E.E.E.E.T.T.~.E.T.T.T.T.^./.`.`.'._.E.K.k.1.I 6 O O : y ` o.#.%.#.%.#.#.#.#.#.#.",
"@.#.@.#.#.#.#.#.#.#.X.` y < + O 8 I R k.n.E././.E.R.c.d.r.e.R R R e.e.y.d.l.n.B.E._._.`._././.E.^.^.E.E.I.P.P.P.P.P.V.P.P.P.~.^./.).)./.E.K.k.1.G 8 O + > y ` o.#.#.#.#.#.#.#.#.#.#.",
"#.#.#.o.#.#.#.%.%.#.o.` z < - + 8 I 2.k.R.T.E./.T.c.d.T L V f f f f g V T y.l.m.P./.`.`.`.`._.^.^.E.^.I.P.P.V.V.V.V.V.V.V.V.P.~./.).)./.R.n.j.2.G 8 + - < y ` o.@.%.%.#.#.#.#.#.#.#.",
"o.#.#.#.#.#.#.#.#.#.o.D v 5 - + 8 I 2.k.R.R.E.E.B.l.r.Z &             & V R d.n.L./.`.`.`._./.^.^.E.P.P.P.P.P.V.V.V.V.V.V.V.P.~./.).`./.R.n.j.<.H 8 + - q v ` o.@.#.%.%.#.@.@.@.#.#.",
"#.#.#.#.#.#.%.#.#.@.@.` v 5 - - 8 I 2.l.R.E.E.E.B.l.1.Z =             # B R i.n.L.^.`.`.`./.^.^.^.^.^.E.^.E.P.E.T.T.T.T.~.T.^.^./././.E.R.n.j.<.H 8 + - q z ` o.@.#.#.#.#.#.#.#.o.#.",
"#.#.#.#.#.#.#.%.%.#.o.` v 5 - + 8 I 2.l.R.R./.E.R.z.h.5.=.W E 3 3 3 d &.:.2.h.z.K.L.E.^.^.^.E.^.E.^._._.]._.].].].].].].].]._.].'.`._.E.R.n.j.<.H 8 - - 5 v ] X.#.#.%.#.#.#.#.#.#.#.",
"#.#.#.o.#.#.%.#.#.#.o.` v q - + 8 Z R s.c.T.~.E.R.W.H.F.D.q.w.w.w.w.w.q.q.C.C.z.z.n.m.N.N.P.L.^.^._.].*X*X=X;X<X<X<X<X>X>X;X=X*X{.[.`.E.B.v.g.<.G 8 + - 5 v ` o.#.%.#.#.#.#.#.#.#.#.",
"#.#.#.#.#.#.#.#.#.#.@.` v 5 - + 8 C R p.f.M.~.E.!.oXoX+X+X+X+XOXOXOXOXXX XY.G.C.h.u.p.p.x.c.N.P.^.].*X=X1X3X4XqXqX0XqXqX0X4X3X1X>X{.'.E.B.z.s.R F p + - 5 z D o.#.#.%.#.#.#.#.#.#.#.",
"o.#.#.#.#.#.#.%.#.#.o.` v w ; - 8 C T e.f.x.~.E.{.;X,X0XwXiXiXiXiXiX9X7X%XoXY.C.,.L j j t.p.v.L._.*X-X3X0XtXdXdXgXgXgXgXdXdXtX5X1X:X]./.B.l.i.R C 8 - - w c D X.@.%.#.#.#.#.#.@.o.#.",
"#.#.#.#.#.#.#.#.$.+.o.` ! q - - 6 V T e.t.x.V._.;X3XqXfXhXvXvXvXxXxXhXaXiX%X.XZ.=.& & f j t.x.N._.*X<XtXyXcXcXbXbXvXnXvXbXcXyXyX5X1X}./.N.l.y.R I 8 O - q v ` o.+.#.%.@.#.#.#.#.#.#.",
"@.#.#.#.#.#.%.%.$.+.o.` v q - + 8 B T r.x.b.T.[.>XqXfXkXmXBXVXCXZXZXBXvXaX9X+XD.-.>   & h e.f.P./.-X2XtXyXbXMXMXVXVXVXBXMXvXcXgX5X2X}.E.N.f.r.R B 8 O - 5 v ` o.#.#.@.%.#.@.#.@.#.#.",
"@.@.#.#.#.#.%.#.#.#.o.` y 5 - + 8 G R s.c.P.].-X2XyXfXcXmXBXCXCXZXZXCXBXvXiX%X X0.Q i g j r.x.N._.-X3XyXjXnXBXCXZXZXZXZXVXNXbXgX5X2X}.^.M.f.r.R F p + - q v ` o.#.#.$.#.#.#.#.#.o.#.",
"#.@.#.#.@.#.#.#.#.#.X.` t < O + i I 7.k.Q.].*X3X5XyXsXhXhXvXmXNXCXZXZXCXmXhX9X#X|.w.5.2.u.d.c.P./.-X6XyXcXmXBXZXZXAXAXZXCXVXnXjXsX2X;X^.N.f.r.R C 8 - - q v ` o.#.#.%.#.#.#.#.@.#.@.",
"@.#.@.@.#.#.#.#.%.#.o.( k #   O s :.C.W.oX<X4X0XqXqX9X8XwXiXaXxXNXVXCXCXBXcXaX&X#XOX|.Y.S.H.K.L./.=X1XyXxXnXBXZXZXAXAXAXZXVXmXxXsX1X}.^.b.f.r.R C 8 + - q v ` o.#.%.%.@.#.#.#.#.@.@.",
"#.#.@.@.#.#.#.%.#.#.@.n r +     d :.U.W.,XqXsXdXuX0X,X$X#X$X7XiXaXvXBXVXBXmXxXaXeX7X$X@XoX!.!.E.^.*X1XtXjXnXVXCXZXZXAXAXZXVXMXcXsX2X}.!.b.f.r.R F 8 + - q v ` } #.#.@.%.#.#.@.#.@.@.",
"o.#.@.@.#.#.#.#.#.#.o.M 9       d 8.Y.%XwXdXkXjXpX8X+XY.D.F..X$XiXhXmXBXCXBXBXvXxXaXpX8X1X=X_.E.^.*X<XtXgXbXNXVXZXZXAXZXCXVXbXjXsX1X}.E.b.f.r.R C 8 O - q v ` o.#.@.#.#.#.+.#.#.#.@.",
"#.@.#.#.#.#.%.%.#.$.#.M 9       d 0.XX,XaXcXnXcXdX&XW.0.=.-.0. X&XpXvXBXVXCXCXBXmXnXkXpXqX<X{.!.^.].;X0XgXcXNXVXCXZXZXCXCXNXbXgXsX5X}.E.M.f.r.Y C 8 - - q v ` o.@.%.%.$.#.+.+.#.#.#.",
"#.#.#.#.#.#.$.$.%.#.o.M 9       d 0. XiXaXmXBXmXaX&XY.=.O O =.F.$XiXkXNXCXCXAXCXCXVXMXkXyX2X*X_.P._.;X0XyXbXmXVXVXCXVXVXBXbXbXyXtX1X{.^.N.x.r.R C 8 + - 5 v ` X.@.#.%.#.#.#.#.#.#.#.",
"#.#.#.o.#.#.#.$.#.#.o.c 9       d 0. X8XhXVXCXBXaX&XU.d     d Z.+XiXcXNXCXAXAXAXAXCXVXnXfX5X*X_.P.*X;XqXxXvXBXVXVXBXNXmXvXcXyXyX5X>X{.^.N.l.i.R G 8 + - 5 v ` o.#.#.%.#.#.#.#.#.@.#.",
"#.#.#.#.#.%.%.#.#.+.X.M *       d q.+XiXxXVXCXBXhX&XD.s     7 q.+X9XcXNXCXAXAXAXAXCXVXnXfX4X*X_._.*X>XqXcXbXVXVXBXBXvXbXzXyXyX6X2X:X[./.L.c.d.R C 8 + + < y ` o.#.#.@.%.#.#.#.#.#.X.",
"o.#.#.#.#.#.#.#.+.#.o.l *       d q.+XiXvXVXZXBXhX&XF.s     6 q.+XiXcXNXCXZXAXAXAXCXVXnXdX4X*X_.L.*X>XtXcXMXVXVXBXmXcXyXtX5X2X1X:X}.}./.P.v.d.R G 8 + + < y ( o.#.%.#.#.#.@.#.#.#.#.",
"#.#.#.#.#.#.#.#.#.#.o.M 6       d q. XiXcXCXZXVXhX&XU.d     i q.+XwXcXVXCXAXAXAXZXZXVXbXsX4X*X!.P.*X;XqXcXMXVXVXmXbXyXqX2X=X*X*X[.}.'.).T.m.j.<.G 8 X O : z ` o.#.#.%.@.#.@.#.@.#.#.",
"#.#.#.#.#.#.#.%.#.@.X.M 4       d q.OXiXxXBXVXNXhX7XU.=.    _ F.@XiXcXNXCXCXZXAXCXCXmXcXsX3X*X_._.*X1XqXcXNXVXNXnXxXyX3X*X]._.I.).'.'./.T.m.j.<.I 6 O O < y ` o.#.#.@.%.#.#.#.#.#.@.",
"#.#.#.#.#.#.#.%.%.@.@.M 9       d 0.W.8XaXvXNXcXpX7X|.5.s d 5.Y.%XuXcXNXCXCXCXCXVXNXnXjXqX1X*X/.P._.<XqXcXbXMXMXcXyX4X=X_.I.P.P.T.~./.E.L.n.g.<.G p - ; q v ` o.#.%.#.@.#.#.#.@.#.#.",
"@.@.@.#.#.#.#.#.#.#.o.D 9 *   X d 8.Y.$XiXhXhXhXrX%X XZ.8.0.U.+X8XhXvXNXCXCXVXNXmXnXkXdX0X<X{.!.P.*X;XqXyXcXbXbXzXyX2X*XP.M.M.M.V.L.T.L.H.k.a.>.K a 5 5 e ~ { o.#.#.%.@.#.#.#.#.#.@.",
"@.@.@.@.#.#.$.$.#.#.X.) l 9 * 9 _ 5.F.XX$X8XwXrX8X%X+X.X XXX$X8XpXcXmXVXVXVXMXnXbXjXdXtX3X-X]._.*X*X*X3XyXyXjXyXyXtX:X*XI.V.M.M.M.b.n.z.k.s.2.;.J A u t v ` } o.#.#.$.#.#.#.#.#.#.o.",
"#.@.@.@.#.#.#.$.#.#.#.D M l l l ' 4.0.G..XOX#X$X%X%X%X%X&X8XwXaXcXmXVXCXVXNXnXlXdXtXtX2X>X-X]._.P.*X*X>X5X6XyXtX6X2X:X*XI.I.M.M.v.l.j.s.2.<.;.| | D n ~ ` { } +.#.#.$.#.#.#.#.o.#.#.",
"@.#.#.#.#.o.#.#.#.#.@.o.] ) ( )  .4.4.5.0.Z.F. X+X%X8X9XpXxXcXmXBXCXCXCXVXMXbXdXtX2X>X-X{.].`.`.I.'.*X*X>X1X2X2X1X:X*X-X*XI.B.m.l.s.1.Y U K J J [ ' ] } X.} o.@.#.#.#.#.#.#.#.#.#.#.",
"#.#.#.@.#.#.#.#.#.#.@.@.o.X.X.X.o. . .D A S 5.q.Y.$X9XaXcXNXCXCXZXZXCXCXMXbXdXqX2X-X]._.).)././.*X_._.'.*X*X*X>X*X*X*XI.I.I.L.n.g.1.U B p u A D [ o.o.o.o.@.@.#.#.#.#.#.#.o.#.#.#.#.",
"o.#.#.o.#.#.#.#.#.#.#.#.#.#.%.#.@.) k .     , -.U.#XwXhXnXCXCXZXZXCXVXBXbXgXqX1X*X^.P.V.I.P.^.^.P.P.P.I._.P.P.P.P./._._.`.P.L.A.u.;.B , - ; e ~ } +.@.%.@.#.#.#.#.#.#.#.#.#.#.#.o.#.",
"#.#.#.#.#.#.o.#.#.#.#.$.$.%.%.%.@.) 9         S q.XX7XpXcXmXBXBXmXmXvXxXpXqX1X=X!.N.x.x.x.M.B.L.L.L.L.N.K.L.N.N.L.L.P.P.L.L.n.l.2.H p - - ; e ! } +.#.%.%.%.#.#.#.#.@.@.#.#.o.$.#.#.",
"#.#.o.#.#.#.#.#.#.#.#.#.$.%.%.%.#.) k         A 8.Y.$X9XaXhXhXxXaXaXiX9X8X,XoXQ.b.p.t.t.p.x.l.c.H.n.z.l.l.p.p.p.x.c.v.m.J.c.k.a.:.J u : ; < t ( X.+.$.%.#.%.@.#.#.o.@.@.o.#.#.#.#.#.",
"#.#.#.#.#.o.#.#.+.@.#.#.#.%.%.#.#.) l 9 .   # A 5.F..X$X7X8X8X8X7X%X$X+XXXY.S.g.y.t.j j L e.y.i.a.a.a.y.y.y.y.e.y.u.i.g.g.g.i.6.;.| b e t t ! ) o.+.$.%.%.@.@.@.#.#.#.@.#.#.#.#.o.#.",
"#.#.#.#.o.#.#.#.#.+.#.#.#.$.%.#.@.X.) x k k l ' 4.9.D.|.|. X X X|.Y.F.Z.0.7.:.U V g f f h V P P ;.;.P P U L P P P P Y <.<.<.>.;.O.| ` ~ ( ( { X.o.@.$.#.$.#.#.#.#.#.#.#.#.#.#.#.#.#.",
"#.o.#.#.#.#.#.#.+.#.+.#.#.#.#.#.#.o.X.X...) }  .$.4.5.7.8.8.8.5.5.-.=.=._ S 0 = % % % % % = 0 a N s N N a 0 a a N B B F G K J J | [ [ o.} o.+.@.@.@.#.#.#.#.#.#.#.#.#.#.#.o.#.#.#.#.",
"#.#.#.#.#.#.#.o.#.#.+.#.+.#.#.#.@.#.@.#.#.#.@.o. .' D s i i i 1 1 1 1 , > # # @ @ @ @ @ # > # , , , $ , # , , , 4 # $ # 1 7 u A D ] o.@.#.#.#.#.#.#.#.#.#.#.o.#.o.#.#.o.#.#.#.o.o.#.",
"o.#.o.#.#.#.#.#.#.+.#.+.#.+.#.#.#.@.%.%.%.%.#.X.( r #           O 1 s d S _ &.=.=.*.&.*._ d s a 8 7 8 8 0 0 0 7 , + O X X O : w n ] o.%.$.%.%.#.#.#.#.#.#.#.#.#.#.#.#.#.#.#.#.#.#.#.",
"#.#.#.#.#.#.o.#.#.#.o.#.+.+.#.#.#.#.%.%.%.%.#.X.m 9           @ d -.5.0.q.q.D.F.F.D.w.q.0.7.:. .K Z C K H U H G B p @ X   O - w v ] o.#.%.%.%.#.$.@.@.#.#.o.#.#.#.#.o.#.o.#.#.#.$.#.",
"#.#.o.#.#.#.#.#.#.#.#.#.#.#.#.#.#.#.#.%.%.%.#.} x 9         1 =.0.D.Y.XXOX@X#X#X$X#X#X+XY.Y.C.u.,.R R y.1.u.3.<.Y G a $ O O - < z ` o.#.#.#.%.%.#.@.#.#.#.#.#.#.#.#.$.#.#.#.#.#.o.#.",
"o.#.#.#.#.#.#.#.#.#.#.#.#.#.#.#.#.#.#.%.%.$.#.X.l 9       @ =.0.U.OX%X8X9XiXiXaXiXiXwX8X,XoXW.S.l.p.p.f.l.z.k.g.u.>.I p @ + - 5 z ) @.#.%.%.$.#.#.o.@.#.#.#.#.#.#.o.#.#.#.#.o.#.#.#.",
"#.#.#.#.o.#.#.#.#.o.#.#.o.#.#.#.#.#.#.#.%.#.#.} M 9       d 5.U.+X7XiXhXcXvXvXvXvXvXkXpX0X,X=XL.J.c.b.J.K.L.L.n.k.u.Y F 7 + - 5 c D o.#.#.#.$.$.#.@.#.#.#.o.#.#.#.#.#.#.o.#.#.#.#.#.",
"#.#.o.#.#.#.#.#.o.#.#.#.#.o.#.o.#.#.#.$.#.#.#.X.c *       S 0. X%XiXxXmXVXCXCXCXVXNXvXkXdX4X=X].L.P.V.I.^.^.^.L.n.j.<.H p + - 5 y ` o.+.$.#.%.#.@.#.#.#.#.o.#.o.#.#.#.#.#.#.#.o.#.#.",
"#.#.#.#.#.#.o.#.#.#.#.#.#.#.#.#.#.#.$.$.#.%.#.o.m *       &.q.XX8XaXmXVXZXZXZXZXVXNXbXhXyX5X-X[.^.P.I.(.).`./.R.B.k.2.I p + - < y ` } $.#.$.#.#.@.@.@.#.#.#.#.#.#.#.#.o.#.o.#.#.#.#.",
"#.#.#.#.#.#.#.#.#.#.#.#.#.#.o.#.#.#.#.$.#.#.@.X.m *       &.q.+X9XhXNXZXAXZXCXBXvXkXhXuXwX<X*X].(.~.(.(.).`.`.^.K.k.1.I p + - < t ` } +.#.#.%.@.#.#.#.o.#.#.o.#.#.o.#.#.#.#.#.o.#.#.",
"#.o.#.#.o.#.#.#.#.#.o.#.#.#.#.#.#.#.#.#.#.#.@.X.m *       &.Z.+X9XxXBXZXCXCXNXxXaXiX8X,X=X=X]._.I.I.(.(.).`._.E.K.k.u.U p + - < y ` X.+.%.%.#.#.#.#.#.@.#.#.#.#.#.#.#.#.#.#.#.#.#.o.",
"#.#.#.o.#.#.#.#.#.o.#.#.#.#.o.#.#.#.#.#.#.%.@.X.x *       &.Z.+X9XxXVXZXCXBXzXiX&X#XXXW.Q.Q.R.P.I.I.~.(.).)./.^.J.k.1.I p + - < y ( o.+.#.@.%.@.#.#.#.#.#.#.o.#.#.#.#.#.#.#.#.#.#.#.",
"#.#.#.#.#.#.o.#.#.#.#.#.#.#.#.#.#.#.#.%.#.#.@.J x *       &.q.+XeXxXBXCXBXvXiX&X XD.0.h.k.z.m.P.V.I.~.(.).)./.P.J.k.3.I p + - < z D o.+.#.%.#.@.#.#.#.#.#.#.#.#.#.#.#.o.o.#.#.#.#.#.",
"o.#.#.#.o.#.#.#.#.#.#.#.#.o.#.#.@.#.#.#.%.%.@.X.x 9       Q q.+X9XxXBXVXmXzX8X Xw.*.N V R i.v.L.~.(.(.)._._.^.P.J.k.1.I a + - < y ( X.+.%.#.%.#.#.#.#.#.#.o.#.#.o.#.#.#.#.#.#.$.#.#.",
"#.#.#.#.#.#.#.#.$.o.#.#.#.#.#.#.#.#.#.#.#.#.@.X.l 4       I q.XX8XaXvXmXxXiX%XU.-.X   % L i.K.E._.[.[.[.`._./.L.n.j.1.H p + - < z ` o.#.@.%.#.@.#.o.#.#.#.#.#.#.#.#.#.#.#.#.#.o.#.o.",
"#.o.#.#.o.#.#.#.#.#.#.#.#.#.#.o.#.#.#.#.#.#.#.} M 9       S 0..X,XpXkXcXfX9X+Xq.d     o U k.Q.=X>X:X:X-X}.'./.L.m.j.1.H p + + < y ` } @.%.@.#.#.@.@.#.#.#.#.#.o.o.#.#.#.#.#.#.#.#.#.",
"#.#.#.#.#.#.#.#.o.$.#.o.#.o.#.#.#.@.#.%.%.$.@.} ! 9 X   X S 8.Y.@X0XuXsXwX,XW.5.+     p 7.W.,X3X0XtX6X2X-X}.`.L.v.j.R H p O + < t ` o.+.#.@.%.@.#.#.#.#.#.#.#.#.#.#.#.#.o.#.#.o.#.#.",
"#.#.#.#.#.#.#.#.#.o.#.#.#.#.#.#.#.@.@.#.#.#.+.X.( 9 +   X d 7.S.oX<X4X0X1XoXS.:.      *.D.+X8XdXlXlXsX6X2X}._.P.v.d.y.H 8 O + : r ` X.+.#.%.%.#.#.#.@.#.#.#.+.#.#.#.#.o.#.#.@.#.#.#.",
"#.#.#.o.#.#.o.#.#.#.#.#.#.#.#.o.#.#.@.%.@.%.+.o.( r > O O s :.C.G.=X=X;X=XQ.C.I     ; 5.|.,XpXcXMXlXlXsX6X-X_.P.v.d.R Z 8 O + : r ` [ +.@.%.#.#.#.@.#.#.#.#.#.+.#.#.#.#.#.#.#.#.o.#.",
"#.o.o.#.#.#.#.#.#.#.#.#.#.#.#.#.#.#.#.#.#.#.+.o.` t < + O a ;.h.H.R.].]._.K.a.L .   d 0. X8XzXvXMXMXbXfX6X-X_.P.x.p.R Z p O + : y ` } #.$.#.%.@.@.#.#.#.+.#.+.#.#.#.#.#.#.#.#.#.#.#.",
"#.#.#.#.#.#.#.o.#.#.#.o.o.#.#.#.@.#.#.%.%.+.+.+.` v < - + p I 1.l.K.L.I.L.c.y.j & * *.w.OX8XzXvXMXMXlXyX2X-X^.N.f.r.R H a + - q y ` o.#.#.#.#.#.#.#.+.#.#.+.#.#.o.#.#.#.#.#.#.#.#.#.",
"#.#.#.#.#.#.#.#.o.#.#.#.#.#.#.$.@.#.#.#.%.$.o.o.` y q ; O 8 G R d.b.V.V.N.v.p.L V C -.Z.XX&XiXzXcXzXdX0X>X!.R.c.d.r.R K a 4 q e n ] o.+.%.#.%.#.@.+.+.+.$.+.#.+.#.#.o.#.#.+.+.#.o.O.",
"#.#.o.$.o.#.#.#.#.#.#.#.#.#.#.o.#.@.@.%.#.$.+.o.] u q - + p I r.d.v.V.I.P.M.x.t.e.1.7.F. X#X8X9XiX9X8X$XoXL.S.p.r.R P J A z y n ~ } o.+.#.#.@.#.#.+.+.+.+.#.+.#.o.#.#.#.+.#.#.#.#.#.",
"#.#.o.#.#.#.#.#.#.#.#.#.#.o.#.#.#.@.#.#.#.#.#.o.` y < - + p P R f.m.P.~.~.P.N.c.f.j.k.A.Y..X+X#X#X+XXXY.G.k.a.y.,.P P O.' ~ ( ( D o.o.#.#.$.#.#.#.#.#.#.$.o.#.#.#.#.#.#.#.#.o.#.#.#.",
"#.#.#.#.#.#.o.#.#.#.o.#.#.#.#.#.#.#.#.%.%.#.#.o.( y < - - p U u.k.B.E./.)./.E.P.K.m.n.S.S.F.G.F.D.D.q.0.7.:.;.;.P P o.| [ { { { o.o.#.o.#.#.#.#.#.#.o.#.#.#.#.#.#.#.#.o.#.#.#.#.#.#.",
"#.o.#.#.#.#.#.#.#.#.#.#.#.#.o.#.@.#.#.#.%.#.@.o.` y < - + p I 1.k.K.E._.`.).)./.E.P.L.H.k.h.7.:.*.Q W S S S B B D D [ | o.o.@.+.+.+.#.#.#.#.o.#.#.#.#.#.#.#.o.#.#.o.#.#.#.#.#.#.#.#.",
"#.#.#.#.#.o.#.o.o.#.#.o.#.#.#.#.@.#.#.%.$.#.+.[ ` y < - + p I 1.j.m.R.^./.`.`.`.`./.L.K.k.3.P N O         O + 4 u n ` [ +.+.%.#.#.#.#.@.@.#.#.#.o.#.#.o.#.#.#.#.#.#.#.#.#.o.#.#.o.#.",
"#.#.o.#.#.#.#.#.#.#.#.#.#.o.#.#.@.#.#.#.%.#.#.o.` v q - + p F >.u.k.H.L.E.E.).'.`._.^.B.l.y.L f             X + 5 u ` } @.%.%.%.%.#.#.+.#.o.$.#.#.#.#.#.#.o.#.#.#.#.#.#.#.#.#.#.#.#.",
"#.#.#.#.#.o.#.#.#.#.o.#.#.#.#.#.+.#.#.#.#.%.@.o.` v w > @ 7 B U 2.s.k.n.K.L.E.^.)./.~.N.x.p.e.h f %         X + : r ~ { @.%.%.#.#.%.#.#.#.#.#.#.#.#.#.o.#.#.#.#.#.#.#.o.o.#.#.#.#.#.",
"#.#.#.#.#.#.#.#.#.#.#.#.#.#.#.#.#.#.#.%.%.%.#.o.` b r > # 8 a F U <.u.g.k.n.B.L.P.~.P.V.b.x.t.e.j j g & %   O - ; e ~ } @.#.%.%.#.#.#.#.#.#.#.#.#.o.#.#.#.#.#.#.o.#.#.#.#.#.#.o.o.#.",
"#.#.o.#.#.#.#.o.#.#.#.#.#.#.o.#.+.#.#.#.#.#.@.X.` D u 5 > 1 8 p B K U <.u.d.c.b.V.V.P.V.M.b.x.p.t.e.T L N 8 O - : y ~ } @.@.@.%.%.#.#.#.#.o.#.#.#.#.#.#.#.o.#.#.#.#.#.#.#.#.#.#.#.#.",
"#.#.o.#.#.#.#.o.#.#.#.#.#.#.#.#.#.#.#.#.#.$.+.o.[ ~ y 0 < # $ $ 1 i p F Y y.g.v.T.T.~.~.~.~.~.~.b.l.p.R I N $ + : r ~ } o.+.%.@.#.#.@.@.#.@.#.#.#.#.#.#.#.#.#.#.o.#.#.#.#.#.o.#.#.#.",
"$.o.#.#.#.#.#.#.#.#.#.o.#.#.#.o.#.#.#.#.#.#.+.o.[ D u 0 , : O X X X O 8 F >.s.l.R.E.E.'.(.(.~.'.T.R.z.i.Y B 1 + - e n ] o.$.#.%.#.#.@.#.#.#.@.#.$.o.#.o.#.#.o.#.#.#.#.#.o.#.$.#.o.#.",
"#.o.#.#.#.#.#.#.#.o.#.#.#.#.#.#.#.#.#.%.%.#.#.o.[ ~ A 0 6 + X         O S >.h.Q.R.!.}.}.}.}.}.}.{.!.Q.k.2.G 6 O - q z ] +.$.#.#.#.#.#.#.#.#.#.#.#.#.#.#.#.#.#.#.#.#.o.#.#.#.#.#.#.#.",
"#.#.#.#.#.o.#.#.#.#.#.o.o.#.#.#.#.@.#.#.%.#.#.o.} D b 0 , +           O S 5.S.W.oX<X6X6X6XyX6X6X1X;X!.Y.8.=.6   X < l ] o.#.#.%.%.#.#.#.#.#.o.#.#.#.#.o.o.#.#.#.#.#.#.#.#.#.#.#.#.#.",
"#.#.#.#.#.#.o.#.#.#.#.#.#.+.#.+.#.#.#.%.%.@.@.o.` D u r , O           O I 8.W.oX4XyXsXlXlXgXlXsXuX4X$XW.C.=.$     @ k ` #.#.%.#.#.$.#.#.#.#.#.#.#.#.#.#.#.#.#.#.#.#.#.#.#.#.#.o.o.#.",
"#.#.o.#.#.#.#.#.o.#.#.#.+.#.+.@.#.@.#.#.%.#.@.o.] ` s 0 # O           + -.U.+X,XuXjXlXMXMXMXMXlXlXuX4XoXF.-.1     X t ) X.#.#.%.#.#.o.#.#.o.#.#.o.#.#.#.o.#.#.o.o.#.#.#.#.o.#.#.#.#.",
"#.#.#.#.#.#.#.#.#.#.#.#.#.#.@.@.#.#.#.%.#.$.+.o.[ D u 7 # O           $ -.U.+XwXhXnXVXCXCXCXCXNXnXhX8X+XU.-.1       k D @.#.%.#.#.#.#.#.#.#.#.o.#.#.o.#.#.#.#.#.#.#.o.#.#.#.#.o.#.#.",
"#.o.#.o.#.$.o.#.@.#.#.#.#.#.@.#.#.#.#.#.$.#.+.o.[ ~ u 0 , +           i 8.Y.#XiXjXMXCXCXZXZXCXVXNXjXiX$XY.5.i       k n @.#.#.#.#.#.#.o.#.#.#.#.#.#.#.#.#.#.#.$.o.#.#.#.#.#.#.#.#.#.",
"#.#.#.o.#.#.#.#.#.#.#.#.#.o.#.#.#.#.#.#.#.#.@.o.[ D b u 7 4 O         a 5.|.#X8XzXvXBXBXVXVXVXBXvXaX9X@XG.4.0     # k ) o.#.#.%.%.#.#.#.#.#.#.#.#.o.#.o.#.#.#.#.#.#.o.#.#.o.#.o.#.#.",
"#.#.#.#.#.#.#.o.#.#.#.o.#.#.#.#.#.#.#.#.#.%.@.@.o.D D b u u 4 X       A 4.G.OX&XrXzXcXvXvXvXvXvXaXrX7XXXF.5.s @ . 9 l ] o.#.#.#.#.#.#.#.o.#.#.#.#.#.#.#.#.#.#.o.#.#.$.#.#.#.#.#.#.#.",
"#.#.#.#.o.#.#.#.#.#.#.#.#.#.#.#.#.#.#.O.#.#.#.@.o.[ D D A b v 9 4 * 9 ` 4.w.|.@X%X8XrXpXpXaXrXrX9X7X@X|.D.4.~ w 9 k M X.@.#.#.#.#.#.@.+.#.#.o.#.#.#.o.#.#.o.#.#.#.#.#.#.#.#.o.#.o.#.",
"#.o.#.#.#.#.#.#.o.$.#.#.#.#.#.o.#.#.#.#.#.#.#.#.o.X.} ] ` D D c k k k ' 6.9.A.G..X@X@X@X@X@X@X@X@XXXG.A.9.%. .! l m D X.#.#.#.#.#.#.+.#.#.#.#.#.#.#.#.#.#.#.#.#.o.#.#.#.#.#.#.#.#.#.",
"#.#.#.#.#.o.#.o.#.#.#.#.#.#.#.#.#.@.#.#.#.#.#.@.o.o.o.o.o.[ ] ] ( ( ] X.$.6.C.C.A.G.G.G.G.G..XG.G.A.A.9.6.$.o.) ..X.o.o.@.+.#.@.#.#.#.#.#.#.#.#.#.#.#.#.#.#.o.#.#.#.#.#.#.#.#.#.#.#.",
"o.#.#.#.#.#.#.#.#.$.o.#.o.#.#.#.#.#.o.#.@.#.@.#.+.+.+.#.+.+.@.@.o.o.+.#.$.$.%.%.6.6.6.6.6.6.6.%.6.6.%.$.$.#.#.@.o.o.+.#.#.+.#.#.#.#.o.#.#.#.#.#.o.#.#.#.#.#.#.#.#.#.#.o.#.o.#.#.#.#.",
"$.#.#.#.#.#.o.#.#.#.#.#.#.#.o.#.#.@.#.@.#.@.#.#.+.+.$.#.+.#.#.#.$.$.#.#.+.X...) ^ ^ ^ m ^ ^ / / m ^ ) X.o.#.#.#.#.#.#.#.+.#.#.#.#.#.#.#.o.#.#.o.#.#.#.o.#.#.#.#.#.o.#.#.#.#.#.#.#.#.",
"#.#.#.o.#.#.#.#.#.o.#.o.#.#.#.#.#.#.@.@.@.@.#.#.$.+.#.#.#.%.$.%.%.%.%.#.@.X.^ m ^ x k k r ! ^ ^ m m m / ..@.@.%.#.%.#.#.#.+.#.#.@.#.@.#.#.#.#.#.#.#.#.#.#.#.o.#.#.#.#.#.o.#.o.#.o.#.",
"#.#.#.o.#.#.#.#.#.#.#.#.#.o.#.#.#.#.#.#.#.#.#.#.#.#.#.#.$.$.$.$.%.%.%.#.@.X./ m ^ x k l k l l l m m m / X.#.%.%.#.%.#.#.#.#.#.X.#.#.#.o.#.#.#.#.#.#.#.#.o.#.#.#.#.#.o.#.#.#.#.#.#.#."
};
