/* XPM */
static char *result[] = {
/* columns rows colors chars-per-pixel */
"90 105 246 2 ",
"   c #000000",
".  c #000D05",
"X  c #00000B",
"o  c #001409",
"O  c #000014",
"+  c #00001C",
"@  c #040A1C",
"#  c #10031D",
"$  c #041919",
"%  c #121B1E",
"&  c #09330D",
"*  c #00251C",
"=  c #000024",
"-  c #010D24",
";  c #00032A",
":  c #110C2C",
">  c #041521",
",  c #051A22",
"<  c #0A1B22",
"1  c #01172A",
"2  c #181B24",
"3  c #261832",
"4  c #092627",
"5  c #002C23",
"6  c #00232D",
"7  c #142523",
"8  c #172A26",
"9  c #003225",
"0  c #01382C",
"q  c #1B332A",
"w  c #002631",
"e  c #002D33",
"r  c #013335",
"t  c #023B33",
"y  c #073A38",
"u  c #183C34",
"i  c #25272C",
"p  c #243928",
"a  c #2F2B37",
"s  c #2A3634",
"d  c #353B39",
"f  c #034602",
"g  c #164B10",
"h  c #24491F",
"j  c #255919",
"k  c #297012",
"l  c #00412F",
"z  c #004434",
"x  c #07463A",
"c  c #024C3A",
"v  c #17453B",
"b  c #1A4A3E",
"n  c #05513D",
"m  c #14513F",
"M  c #2C442C",
"N  c #28482A",
"B  c #30482D",
"V  c #2B4835",
"C  c #234C3D",
"Z  c #354838",
"A  c #365333",
"S  c #305634",
"D  c #385333",
"F  c #3A5A39",
"G  c #38672A",
"H  c #3B7228",
"J  c #3D6437",
"K  c #41563B",
"L  c #417A2C",
"P  c #416635",
"I  c #43643B",
"U  c #456A3C",
"Y  c #496B3D",
"T  c #467438",
"R  c #4C7D3A",
"E  c #341940",
"W  c #3C3643",
"Q  c #1B4D41",
"!  c #0A5041",
"~  c #155743",
"^  c #1D5344",
"/  c #1D5B45",
"(  c #314D41",
")  c #235544",
"_  c #295543",
"`  c #235A46",
"'  c #2B5A45",
"]  c #215748",
"[  c #255C49",
"{  c #295D49",
"}  c #345B46",
"|  c #25624A",
" . c #2D654E",
".. c #366449",
"X. c #2F6750",
"o. c #2F6850",
"O. c #346650",
"+. c #316951",
"@. c #367056",
"#. c #387157",
"$. c #464A48",
"%. c #495649",
"&. c #51584E",
"*. c #555C53",
"=. c #466843",
"-. c #4A6E41",
";. c #52684B",
":. c #4D7243",
">. c #4C7743",
",. c #517543",
"<. c #527A45",
"1. c #57774D",
"2. c #557D49",
"3. c #486653",
"4. c #586757",
"5. c #5C7559",
"6. c #626B5D",
"7. c #63755D",
"8. c #5F7260",
"9. c #647362",
"0. c #6A7565",
"q. c #6B7A67",
"w. c #6C7269",
"e. c #71766E",
"r. c #717B6B",
"t. c #4D813A",
"y. c #51843D",
"u. c #56933C",
"i. c #558443",
"p. c #578845",
"a. c #5B844C",
"s. c #5A844D",
"d. c #5E8A4D",
"f. c #5C9444",
"g. c #5D9547",
"h. c #608A4E",
"j. c #61934D",
"k. c #639B4B",
"l. c #628E51",
"z. c #67885A",
"x. c #659353",
"c. c #689855",
"v. c #6A9C55",
"b. c #6D9C59",
"n. c #67A54A",
"m. c #6CA355",
"M. c #6DA952",
"N. c #6FA25A",
"B. c #71AC56",
"V. c #72A45D",
"C. c #74AB5C",
"Z. c #75B359",
"A. c #7ABA5D",
"S. c #6D8568",
"D. c #74866D",
"F. c #6E9161",
"G. c #759768",
"H. c #7A8674",
"J. c #7C8B75",
"K. c #7D9673",
"L. c #7AA667",
"P. c #77AB60",
"I. c #79AE62",
"U. c #7DB465",
"Y. c #7EBB62",
"T. c #7FB368",
"R. c #828E7A",
"E. c #83937C",
"W. c #859A7A",
"Q. c #81BC66",
"!. c #82B66B",
"~. c #83BD6A",
"^. c #85A776",
"/. c #87B175",
"(. c #8BB976",
"). c #87C56A",
"_. c #86C16C",
"`. c #89C56E",
"'. c #8CC671",
"]. c #8DCA72",
"[. c #90CC75",
"{. c #92C67A",
"}. c #94C97B",
"|. c #94CB7B",
" X c #94D178",
".X c #899781",
"XX c #8C9C84",
"oX c #919F89",
"OX c #8EA583",
"+X c #95A48B",
"@X c #96A88B",
"#X c #96B687",
"$X c #9BA792",
"%X c #9CAC93",
"&X c #9DB392",
"*X c #A1AF97",
"=X c #A1B396",
"-X c #A4B898",
";X c #A9BB9D",
":X c #ADBEA1",
">X c #9BC786",
",X c #9ACC83",
"<X c #9DD285",
"1X c #A1CE8C",
"2X c #A4D38D",
"3X c #A6DB8E",
"4X c #A8C798",
"5X c #AAD695",
"6X c #B0D69D",
"7X c #B1DB9D",
"8X c #B5E59E",
"9X c #AEC1A2",
"0X c #B2C4A5",
"qX c #B4CAA7",
"wX c #BACDAC",
"eX c #B5DDA1",
"rX c #B8DBA6",
"tX c #BBD2AC",
"yX c #BECFB2",
"uX c #BED2B1",
"iX c #B9E2A4",
"pX c #BEE2AB",
"aX c #C1D4B3",
"sX c #C4DAB5",
"dX c #C8DCBA",
"fX c #C1E4AE",
"gX c #C2EBAD",
"hX c #C5E5B2",
"jX c #C6E9B3",
"kX c #C9EBB6",
"lX c #CCE3BC",
"zX c #CDEBBB",
"xX c #D0EEBE",
"cX c #CFF2BC",
"vX c #CFE4C0",
"bX c #D4EBC3",
"nX c #D4EAC5",
"mX c #D5F2C4",
"MX c #DBF7C9",
"NX c #DCF4CB",
"BX c #E0F9CF",
"VX c #E1F7D1",
"CX c #E4FCD3",
"ZX c #E8FFD7",
"AX c #ECFFDB",
"SX c #F0FFDF",
/* pixels */
"+.+.+.+...+.+.o.+.X.+.+.+.+.X.+.+.X.+.+.+.+.+.+.X.X.O.X.X.X.+.+.+.+.+.+.@.o.@.o.+.+.#.+.+.+.+.#.+.+.+.@.+.#.+.+.+.+.+.#.+.+.+.@.+.#.+.+.@.o.+.+.+.+.o.+.X.X.X.X.+.X.X.+.X.+.X.+.o.+.",
"+. .+.X.+.X.+.+.X.+.o.o.o.X.+.X.X.+.X.O.+.X.+.+.X.X.X.+.X.X.+.+.+.@.o.@.+.@.o.@.+.+.+.#.+.@.+.+.+.@.@.+.+.+.+.#.+.#.+.+.+.@.@.+.+.O.@.+.+.+.+.+.+.+.+.+.X.o.X.O.X.+.+.X.+.X.+...+.+.",
"X.+.X.+.X.+.X.+.+.X.+...X.+.X.+.+.X.X.+.X.+.X.O.+.X.+.X.X.X.o.o.+.+.+.+.+.o.o.@.+.+.+.+.+.+.+.+.+.+.o.o.+.+.O.X.+.+.+.+.+.+.o.o.+.+.+.+.+.+.+.+.X.+.o.+.+.+.+.o.+.X.+.+.+.X.o.+...o.",
"+.X.+.X.+.X.+.X.X.+.X.+.+.X.+.X.X.+.+.X.+.X.+. .O.+.X.+.o.+.+.o.X.X.X...o. .o. .X. .X.X.o.o.+.o.X.X.o.o.X.X.X. .o.o.+.o.+. .o.o.X.X.X. .o.o.+.+.+.X.+.X.o.+.+.+.X.+.O.+.X.o.+.+.+.X.",
"X.+.X.X.X.O.X.+.+.o...+.+.+.+.o.O.+.+.+.X.X.+.X.+.+.+.+.+.+.o. . .{ { [ [ [ [ [ [ [ ' [ { [ ' { { { [ [ ' [ [ [ { [ { [ { [ [ { ] [ [ [ { { |  .X.X.+.+.+.+.+.+.+.X.+.X.+.X.+.X.X.+.",
"+.X.X.+.X.X.+.X.+.+.o.X...o.X.+.X.+.+.X.X.X.X.+.+.+.+.+.+.+. . .] ) Q Q v v v b Q Q Q v Q v Q Q Q b Q Q b Q Q Q b b b Q b b b b b b b b Q ) {  . .+.+.+.@.+.+.+.X.+.X.+.X.+.X.+.+.+.",
"X.+.X.+.+.X.+.+.o.X.X.+.+.X.+.X.+.X.+.X.X.X.+.+.+.+.@.@.@.+. .| Q v r r w 6 e e e e e e e e e e e e e e e e e e e e e e r e e e 6 6 e e y v ^ [  .+.+.@.@.+.+.o.+.X.+.X.+.o.+...+.X.",
"+.X.O.+.X.+.O.+.X.+.+.+.X.+.X.+.X.+.X.+.X.X.+.+.@.+.@.+.@.o.| C Q r 6 = = + = = = ; = ; = ; ; = = ; ; = = ; ; = ; = ; = ; = = = = = = ; w r b ]  .X.+.#.+.@.+.+...+.X.o.+.+.+.o.X.+.",
"+.X.X.o.X.+.X.+.+.X.+.+.o.+.X.+.X.+.X.+.o.+.+.+.o.@.@.+.+.O.| ) v r > + O O O O + + + + + + + + + + + + + + + + + + + = + + + + O O O + 1 y v )  .X.+.@.@.@.+.X.+.+.o.+.+.+.o.X.+.+.",
"X.+.X.+.+.X.+.X.X.+.o.+.+.X.+.X.+.X.+.X.+.+.+.+.o.+.+.o.+. .{ C b u q 7 % % % 7 7 7 7 8 7 7 8 8 7 7 7 7 8 7 7 7 7 7 7 7 7 7 7 7 % % % 7 q p C _ ] X.+.X.+.+.+.X.o.+.+.X.+.o.X.+.X.+.",
"+.X.+.+.X.+.X.+.+.X.+...X.+.X.+.X.+.+.+.+.+.+.+.o.X. .{  .{ ' } S F D D D D D D D D D D D D D D D D D D D D D D D A A A D D D D D D D D F S } ' { { |  . . .X.X.+.X.+.+.+.+.o.o.o.o.",
"X.+.o.+.o...+.X.X.+.X.+.+.X.+.X.+.+.+.+.+.+.+.+.| [ / Q ^ C ' F ..=.-.,.,.,.,.,.:.,.,.,.,.Y ,.,.,.,.,.:.,.,.,.,.,.,.,.,.,.,.,.Y ,.,.,.:.-.=...F _ ^ Q ^ ] ]  .X.+.@.+.+.+.+.+.o.o...",
"+.o.+.o.o.+.+.+.+.o.+.o...+.o.+.X.+.@.+.+.+.+.X.| Q x r r u C } -.2.d.l.x.c.x.l.h.l.l.l.l.l.h.l.l.l.l.l.h.l.l.h.h.x.l.h.l.l.x.x.c.x.x.l.d.1.-.} ( y r y x ^ [ X.+.@.@.o.o.+.o.o.+.+.",
"+...+.+...+.o.+.X.+.+.o.o.+.X.+.X.+.+.@.@.@.@. .] ! e ; ; w V U 1.x.b.P.P.P.C.C.V.V.V.V.V.V.V.V.V.V.V.V.V.V.V.C.C.V.V.N.V.V.V.C.P.P.C.V.b.l.<.I s 6 ; ; w ! ] X.+.@.@.+.@.+...+.X.o.",
"X.+.X.+.+.X.+.X.+.X.+...+.X.+.X.X.+.X.@.@.@.+. .] y 1 ; + < A -.h.b.P.U.!.~.!.Q.!.!.Q.!.Q.Q.!.Q.U.!.!.Q.!.Q.Q.!.!.Q.!.!.Q.!.!.Q.!.~.~.U.P.b.a.-.M > = ; 6 ! ]  .+.@.@.@.+.+.+.+.+.X.",
"+.X.+.X.X.+.X.+.X.+.X.+.X.+.X.+.X.X.X.@.+.X.X. .] y w ; + p K 2.c.P.!._.`.].`.`._._.~.~.~._.~.~._._.~.~._.~.~.~.~.Q.`.~.~.~.~.`.).].'._.U.V.x.<.D q = = 6 v _  .+.+.o.+.+.o.+.o.X.+.",
"X.+.X.+.X.+.X.+.o.X.+.X.+.X.+.+.X... . . . .{ { _ C u p M F Y h.N.T.~.'.].].].].'.).`.`.`.`.`.`.`.`.`.].`.`.`.`.].`.`.].`.`.].].].[.].].).Z.b.a.-.D M q u C _ {  . .X.X.X.X.+.+.+.o.",
"+.X.o.+.+.X.+.X.+.+.X.+.+.+.+.+.o. . .| [ [ ' } ' F F F Y ,.h.b.V.U._.].].].].].].'.].].].`.].'.].`.].`.].`.].'.`.].`.].].].].[. X].[.]._.Y.P.b.a.,.Y F F F ' ' ] [ ' {  . .+.+.+.+.",
"+...o.+.+.o.X.+.o.+.o.o.+.+.+.+.o. .' ^ Q C C C } I :.<.a.l.b.V.U.U._.`.].].].'.`.`.'.`.`.`.'.`.`.`.`.`.`.'.`.'.].].].].].].].[.[. X].].`.Y.U.P.b.l.a.<.-...F } C b ^ ] {  .+.+.+.+.",
"X.+.o.+.+...+.X.+.o.o.+.+.+.@.+.o.| ` b y y v S I ,.a.l.b.P.I.U.U.~._._.`.].`.`.`.).`._.`.).)._.`.`._._.`._._.'._.`.`.].].].].].[.].[.].`._.~.U.I.V.b.x.s.:.} V u y y b [ { +.+.o.@.",
"X.+.+.o.+.X.+.X.+.+.o.+.+.+.+.+. .{ ) y e 1 q V I 2.l.b.!.Q.~.~._.~._._._._._._._.~.`.~._._._._._._._._.~._._._._._.`.`.`.].].`.].'.].'.`.`.~.`.~.Y.I.N.x.<.I M 4 1 r x ] { X.+.+.+.",
"+.X.+.+.o.+.X.+.+.o.o.+.@.+.@.+.+.[ Q r ; = 4 B Y h.b.!.Q.).`.].`.)._._._._._._.~.`.~.`._.~._._._._._._._._._._._._._._._._._._._._._._.~.`.'.'.'.'.!.P.c.a.I M > = 1 r Q | X.O.@.o.",
"X.+.o.+.+.X.+.X.+.+.+.+.o.@.@.o. .{ b e = + + B Y h.b.Q.~.`.].].]._._._._._.~._._._._._._._.~._._.~._._._._.~.~.~.~.Q.!.U.Q.Q.U.Y.I.U.U.T._.`.'.'.`._.U.b.a.Y M O + = r Q [ o.@.@.+.",
"+.X...+.X.+.X.+.o.+.+.+.o.o.+.@.X.[ b w = O O M Y h.N.!.`.].].].`.).~.~.Y._.Y._.Y.~.~.~._.~._._._._._.`.'.`.'.~.Q.!.C.C.N.v.v.v.c.c.m.N.C.I.Y.).'.].).U.V.a.Y p + + = e b [ o.+.o.@.",
"X.+...o.X.+.X.+.X.o.o.+.@.+.+.+. .' b e = + + B Y h.V.!.`.].].].)._.Y.Y.Y.A.Y.Y.A.Y.Y.).Y.Q._._._._._.'.].].'._.Q.C.m.j.p.y.R R R R R y.j.n.B.Y.).].~.!.V.h.Y p O + ; r Q {  .+.o.+.",
"+.X.+.o.+.X.+.X.+...+.+.+.+.+.+. .{ b e = + @ B Y h.b.U.~.`.`.`.).Y.Y.A.A.A.A.A.A.A.A.Y.Y.Q.Y._._._.'.].].].'.~.U.N.j.R G j f f f f g j L p.v.I.~.~.~.Q.V.h.Y M + + ; r Q { X.+.@.o.",
"X.+.+.+.+.+.+...X.o.+.+.+.@.+.+. .{ b r ; + > B Y h.b.I.~.'.`.).).A.A.A.A.Z.A.A.A.A.A.Y.Y.Q._.~._.`.'.].].].'.~.Z.v.i.G f .           & j T g.V.Q.~.~.!.V.h.Y B @ + ; r Q { X.+.o.@.",
"+.X.+.o.o.+.+.+.X.+.+.+.+.+.@.+.X.[ Q r ; + > B Y h.b.I.~.`.`.`._.)._.Q.).).Y.)._.Q.~.~._._._._.~._.'.'.].].`.Y.C.c.<.J q             X M Y l.P.!.~.~.!.V.h.Y p - + 1 r ) { X.+.@.+.",
"X.+.o.+.+.o.+.X.+.+.+.+.+.+.@.+.X.' Q r ; + , B Y a.b.!.Q.~.].[.].{.{.{.'.{.{.{.{.{.{.{.'.'.`.~._.~._._._._.Y.T.G.b.h.;.%.W a E E E E $.;.1.F.!.Q.~.~.Q.b.h.Y M - = ; r Q  .X.+.@.o.",
"+.X.+.+.X.X.X.+.+.X.X.+.+.@.+.+.X.[ b r ; = , B U a.b.C.~.`.}.|.,X>X<X1X1X2X5X2X2X1X<X>X>X{.{.`._.Y.Y.U.Z.B.V.N.b.F.S.S.S.0.e.e.e.e.H.e.H.G.^./.!.~.Q.!.v.p.U M - ; 1 y Q { X.+.o.@.",
"X.+.X.o.+.X.+.X.X.+.X.+.+.+.@.+.X.{ b r ; + , B U h.x.C.Q.'.}.<X2X5X6XeXeXrXrXrXrXeX6X5X2X<X,X'.~.U.B.n.k.f.f.d.z.G.W..XoX$X$X*X$X$X%X%X&X#X(.{.`.Q.Z.M.k.y.P p @ = 1 y Q { X.+.o.+.",
"+.X.+...X.+.X.+.+.X.+.+.+.@.+.+.X.' Q r ; + , M P R k.B.Q.'.|.5X7XrXpXhXjXlXkXkXzXhXpXrX6X2X<X].Y.Z.k.u.H k G Y 7.K.+X*X:X:XyXaXaXaXaXaXqXqX4X>X].Q.B.n.u.T G N - = 1 y ^ { X.+.@.+.",
"+.+. .+.+.+.X.+.+.+.+.+.o.@.+.o. .{ b r ; + , B P y.j.B.Q.].2X5XrXhXzXbXmXMXNXmXmXbXzXpXpX7X<X{.Y.B.f.L f f f A 7.E.*XqXaXvXnXnXnXNXnXnXlXsXeX2X}.).M.n.u.L G h @ = 1 y Q { X.O.@.o.",
" .+.+.+.X.+.O.X.+.o.+.+.o.o.@.@.o.{ b r ; + > M P R f.M.Q.].2X7XpXkXmXNXVXVXCXVXCXNXmXvXpX8X2X|.Y.B.u.k f . . Z q.XX:XdXnXVXCXCXZXZXCXVXmXzXpX7X<X_.B.n.u.R D p @ + 1 y Q { +.O.o.@.",
"O.+.+.+.+. .X.+.o.+.+.+.o.@.o.+. .{ ^ r ; = > B P R f.M.Q.'.2X7XjXzXMXCXZXAXAXAXZXCXmXmXpXiX2X|.Y.M.u.L j q W *.R.*XyXvXNXZXAXAXAXZXCXNXbXzXhXeX2X}.Y.B.v.i.Y p - + - r Q { +.+.o.+.",
"+.+. .+.+.+.+.X.o.+.+.+.+.o.@.+. .{ b r ; + $ M P R j.n.Q.{.5X7XjXmXBXZXAXSXSXAXAXZXVXmXkXiX2X|.~.C.n.g.1.4.w.H.oX:XaXnXCXZXAXZXCXVXnXnXkXhXrXrX7X2X>X(.G.l.;.Z @ O = r Q { +.+.@.+.",
"X.X.O.X.+.X.+.+.+.+.X.+.+.@.o.o.X.' b r ; + , B P R f.M.Q.'.2X7XjXmXCXZXSXSXSXAXAXZXNXbXpXeX<X{._.I.P.L.K.K..X$X:XaXvXNXCXZXZXBXnXvXsXuXwXrXrXrXrX7X5X>XOXG.5.Z @   O w ! [ +.+.@.o.",
"X.X.X.+.X.+.+.X.+.X.+.+.+.o.@.o.X.{ b r ; = > B P R f.M.Q.{.2XfXjXmXVXZXAXSXSXAXAXCXNXmXpXeX<X{._.Y./.#X#X-X:XwXaXvXnXBXCXCXNXnXdXqX;X%X&X-XqXtXpXhXrXeX-XW.0.K +     5 x [ X.+.o.@.",
"X.+.+.+.+.+.X.+.X.+.X.+.o.@.@.+. .{ Q r ; + $ B P t.f.M.Q.'.3X8XjXmXVXZXAXAXAXAXZXVXMXzXpXeX,X'._.~.>X1X6XuXdXvXnXNXVXCXCXBXnXsX0X@XE.J.J.OX4XtXzXzXzXuX4X@XD.%.+     5 c [ X.+.o.+.",
"+.X.+.X.O.X.+.X.+.X.+.+.o.@.o.+. .[ Q r = O % B P t.f.M.Q.[.2X7XpXbXNXCXAXAXAXAXZXVXNXmXuX5X>X`._.{.>X6XpXvXmXNXVXCXCXZXCXNXlXwX%XJ.4.%.4.J.=XtXvXMXNXlXtX&XH.&.O     * z [ X.+.@.o.",
"X.+.+.o.+.X.X.+.+.X.+.+.+.+.o.+.+.{ Q r ; = > M P R k.M.Q.'.2X7XpXzXmXVXCXCXZXZXCXCXNXzXpX5X>X`._.{.2XrXzXMXVXZXAXAXAXZXCXNXdX0XXX9.i   s r.%XuXnXVXCXnXaX-XJ.&.O     $ c `  .+.+.+.",
"+.O.+.o.+.o.+.X.X.+.X.O.+.+.@.+. .{ b r = + $ B U y.k.B.Q.{.2X5XiXjXzXmXNXMXVXCXCXVXMXvXpX5X>X_._.{.5XpXzXMXZXAXSXSXSXAXCXNXdX:XW.4.    X 9.$XuXnXZXCXnXsX;XR.&.O     o z ` o.+.+.@.",
"+.X.+...+.+.X.+.+.X.+.+.#.@.+.+. .[ b e = + @ M P i.v.Z.~.[.|.5X7XeXpXhXvXmXMXBXCXCXMXmXhX6X>X(._.}.5XiXmXMXZXSXSXSXAXAXCXNXdX;XE.%.      5.$XuXNXZXZXNXdX;XR.*.X     o z ` +.+.+.@.",
"X.+.X.+...X.+.X.X.+.X.+.+.+.@.o.X.' b e = O + B Y p.v.C.~.]. X2X<X2X6XrXpXzXmXVXCXCXVXmXpX5X,X`.~.}.5XpXmXMXZXAXSXSXSXAXCXNXdX;XE.%.      6.$XaXnXAXZXNXdX;XE.&.X       z ` +.+.@.+.",
"X.+.+.o.o.o.+.X.+.+.X.+.+.+.@.+.X.[ Q e = O + M Y p.N.A._.[. X X,X,X<X2X6XpXvXMXVXZXBXmXjX6X>X`.`.}.5XrXzXNXZXAXSXSXSXAXZXNXdX;XE.&.      7.%XaXVXZXZXNXdX:XR.*.        z ] o.+.o.@.",
"+.+.o...+.+.X.+.+.o.+.+.+.@.+.+. .[ v e = + O B Y d.N.U._.].[.`.`.).'. X2XeXjXmXMXCXVXmXjX6X>X'.~.{.2XrXzXMXCXZXAXAXAXZXCXNXlX9X.X4.O   2 q.%XaXnXZXCXNXuX:XJ.*.X     . z ` o.+.+.o.",
"X.+.X.+.+.X.+.X.+.+.+.+.@.o.+.+. .{ Q r - = < B Y a.b.I.!.)._._.Y.A.A.).>X5XrXvXNXMXMXmXpX6X,X`.~.{.2XrXjXbXNXCXCXZXAXZXCXNXlX0X+Xr.%.i $.D.%XuXnXNXNXvXuX%XJ.&.+     * c ` o.+.@.@.",
"+.X.+.+.X.+.X.+.+.o.+.+.+.+.+.X.O.{ ) y e 6 q Z =.1.x.V.I.U.Q.A.Z.Z.Z.A.'.2XeXpXvXmXmXzXpX6X,X`._.{.<X6XpXzXbXMXBXCXCXCXCXNXbXtX:X.XS.9.q.K.&XwXdXvXvXaX0X@XD.%.5     9 c [  .+.o.+.",
"X.X.+.X.X.+.X.+.X.+.X.+.+.+.+.+.X.{ [ Q y y u S =.:.s.x.b.V.C.Z.B.Z.Z.Y.'.<X5XiXhXkXkXpXeX5X}.`.`.{.,X5X7XpXkXbXmXMXMXCXCXCXNXdXwX:X$XOXXX@X&X0XwXuXwX9X%X.Xq.3.x * 9 z m | X.+.+.+.",
"+.+.X.+.+.+.+.X.+.X.+.+.+.+.+.+. . .{ ) Q Q C } } =.:.2.a.x.v.m.M.Z.A.).'.<X2X7XrXiXpXeX5X<X}.'.'.'.}.<X5X7XiXjXkXmXMXCXCXCXVXNXnXuXwX9X:X;X:X:X:X&X%XoXK.D.8.} C z z n /  ...+.+.+.",
"+.+.+...+.o.+.X.X.o.o.o.+.+.+.+.X. . .| { [ ' ' } F } ..Y <.h.k.M.A.Y.).[.,X<X3X5X5X3X3X<X,X}.].].].].|.<X<X5XeXpXcXmXMXCXZXCXCXVXmXvXdXuXqX9X&X+X.XD.q.9.4.3...C m m | | o.+.+.+.+.",
"o.+.o.o.+.o...+.+...+.+.+.+.+.+.+.X. .o. . .{ { _ C v p B K Y h.N.Z._.).]. X X,X X,X,X|.}.}.'.'.`.).'.'.`.].,X2XiXpXcXMXCXZXAXZXAXCXBXNXvXuX9X@XJ.8.$.( V C '  . .o.| | o.o.X.+.+.+.",
"X.+...o.+.+.+.X.X.+.X.+.+.X.+.X.+.o.+.o.#.+. . .^ y 1 = + p F <.x.C.U._.'.'.'.).)._._._.~._._._._.~.Q.Y.A.A._.{.1X7XhXzXMXCXZXZXAXAXCXVXbXuX9X.X9.d       9 m | o.+.@.+.+.X.+.X.+.+.",
"+.X.+.X.o.+.X.+.+.X.+.X.+.+.X.+.+.+.@.@.@.+.+. .] r ; + X + B Y d.b.P.U.Y.Y.Y.I.Z.C.C.Z.Z.U.U.U.U.U.Z.M.n.M.B.Y.>X4XeXhXlXnXnXVXBXBXVXNXvXwX&XE.4.O       * n | +.@.@.@.@.+.X.+.+.+.",
"X.+.X.+.+.X.+.X.X.+.o.+.o...+.X.+.+.o.@.@.@.+.X./ y ; = X O p K ,.l.b.N.C.N.m.n.g.g.g.n.v.m.N.N.V.N.m.k.n.u.n.N.L.#X&X0XwXuXdXdXvXvXvXlXuX9X+XD.%.X       9 n  .+.@.@.@.+.+.X.+.+.+.",
"+.X.+.X.X.+.X.+.+.X.+.+.o.+.X.+.o.o.o.@.@.o.+. .) x 6 = + O 7 B =.:.s.d.d.d.p.i.i.R i.i.p.p.l.x.x.l.d.p.t.t.u.g.c.G.^.OX%X=X;X:X9XqX0X0X;X@XE.q.} 9     * l n o.+.@.@.+.+.+.+.o.+.o.",
"+.X.+.X.o.+.o...X.+.+.X.+.X.+.X.+.+.+.#.@.+.+. .' b r 1 + + % p M F Y -.U =.I J J J G J U Y -.:.,.:.R T T P T :.1.5.z.q.D.H.J.E..XoXoXoXW.J.S.4...m z z c n |  .+.@.+.+.@.+.+.X.+...",
"..+.X.+.+.+.o.+.+.X.X.+.X.+...+.o.+.+.+.o.@.o. .' Q u 4 , + @ % 8 p p p p M N p p p p M N V A A D F D S A A A D D Z $.( $.%.%.4.6.6.6.6.6.5.4.3...| | / | |  .+.+.+.+.+.X.X.X.+.X.+.",
"o.+.+.X.X.+.+.X...+.+.X.o.+.o.+.o.+.o.@.+.+.+. .[ Q v q 7 @ O + + $ > < < > > $ > , < < 4 7 7 7 7 7 8 7 7 7 7 7 7 < 7 , < < 2 2 2 7 i i s C ( ' '  .o.+.o.o.+.+.+.+.+.+.o.o.+.+.+.X.",
"+.o.+.X.+.X.X.+.+.o.o.+.X.+.+.o.+.o.+.+.@.o.o. .' C v q < @ @ # 2 8 8 q p q p q p q 8 7 $ = + O O O X X X X O + ; 2 a d Z d s 2           X 9 c | X.+.@.@.@.+.+.+.o.o.X.+...+.X.X.+.",
"+.X.+.+.+.X.+.X.X.+.X.+.+.X.+.X.+.+.+.+.#.+.+. .{ C u 4 , < 7 p M A D F F I I F F F D B p 7 + X               = a $.4.9.q.q.8.3.d O         $ z m o.@.@.@.+.+.+.X.o.+.o.+.X.+.X.+.X.",
"X.+.+.X.X.+.X.+.+.X.+.X.X.+.X.+.+.+.+.@.+.+.+.X.' Q u w $ 7 p B F -.,.2.2.a.a.a.a.s.<.=.F p > X               : $.w.R.+X$X$XOXR.7.$.X       o z | o.@.@.@.@.+.+.+.+.+.+.+.o.X.+.X.+.",
"..+.X.+.o.+...+.X.+.o.+.o...+.X.o.+.o.@.@.@.+.X.[ Q r 1 - 8 B I ,.a.x.b.b.V.G.V.b.b.x.a.-.F q O               E 6..X*X0XwXtX0X=XW.w.Z       o z / X.+.@.@.+.+.+.X.+.+...+.X.+.X.X.X.",
"o.X.+.X.+.+.o.X.+.X.+.+.+.+.X.+.+.o.+.o.@.@.+. .] v e - + 8 D -.a.b.V.I.U.Q.Q.U.U.I.P.c.a.-.B +               $.e.oX0XdXnXnXdXwX%XH.%.O     o l ` X.+.+.@.+.+.X.+.X.X.+.X.+.X.+.o.+.",
"o.+.+.X.+.X.+...+.+.X.+.X.+.+.+.+.+.+.+.+.+.+. .) x 6 = = p D <.x.P.T.~.`.'.).].).).Y.P.x.2.F q O           X &.J.=XuXvXNXBXbXsX-XE.4.>     o z /  .+.@.+.+.+.+.+.+.+.o.+.+.X.+.X.+.",
"o.+.X.+.X.+.+.o.X.+.+.X.O.X.+.+.+.X.+.+.o.o.o.[ Q r 1 = + p I 2.c.P.Y.`.].]. X].].).~.I.b.l.:.F p +         q 4.K.-XuXnXNXNXnXuX-XR.*.<     o z `  .+.+.@.+.+.+.+.o.+.+.X.+.+.X.+.X.",
"+.X.+.X.X.+.+.+.+.X.+.+.+.+.@.+.o. . .| ` / m m t 1 + O O i K i.c.I._.]. X X X].[.].`.U.P.x.s.-.F A N f f f G 5.K.&XqXhXvXvXsXqX$XH.%.,     $ c ` o.@.+.+.+.+.+.+.X.+. .O.X.X.+.O.X.",
"X.+.X.+.+.X.+.o.X.+.+.+.+.+.@.O.o. .| n c l 0 4 + X     X 7 I 2.b.I._.].[. X X X].].~.~.L.V.c.l.a.>.T H H H R d.G.#X-XqXtXwX0X%X.X0.$.,     9 x | o.o.+.@.o.+.o.X.+.+.+.X.X.X.+.+.+.",
"X.+.X.+.X.+.X.+.+.X.+.+.+.+.#.#.o.| ! c 9 o               < K 2.b.T.~.].[. X X].].'.~.~.T.I.P.b.v.x.j.f.f.u.f.x.V.K.OX@X%X$XoX.Xr.4.Z @ O , t m { +.+.@.@.@.+.+.+. .+. .+.+.O.+.+.X.",
"+.X.+.X.+.X.+.X.X.+.+.+.#.#.#.+.o./ n 0 *                 > K 2.c.P._.].[.[.].'.`.`.`.~.~.U.T.I.P.C.C.M.m.M.n.m.b.G.G.G.D.r.w.4.&.W a < , 9 x /  .+.@.@.+.+.+.+.+.+.+.+. .+. .+.X.+.",
"X.+.X.+.+.+...o.o.+.+.+.+.#.+.@.o.[ m z * X               8 F 2.c.P.~.'.].].].'._.`.~.~.~.~.~.!.!.Y.!.Q.).Y.Y.C.V.c.a.,.%.Z a 3 : # > > 4 u C C  .X.+.@.@.o.O.+.+.+.+.+.+.+. .+.+...",
"o...+.X.o.+.o.+.+.+.o.o.o.o.o.o. ...} } ( Z Z d a i : : 8 B I 2.x.V.U.~.).).~.`._.~.`.~.`.~.`.`.'.'.].[.[.|.[.(.L.c.<.A o           O $ 8 u C ' |  .o.+.+.+.X.O.+. .+. .+.+.+.+.+.o.",
"+.o.+.X.+.o.+.+.+.+. . .| | / [ O.O.3.4.9.0.0.0.7.6.&.I K Y :.2.x.b.V.P.T.U.Y.~._.).).).).].).).].|.,X<X3X3X3X<X(.G.s.B               # , 0 u C C |  ...X.X.X.X.+.+.+.+.o...+.X.+.o.",
"+.+.X.+.+.+.+.+.+.+. .| / ! n m } 3.q.H.E.XX+XoXW.E.G.F.h.a.i.p.p.l.x.c.N.V.T.U._.`.).].].).).).]. X3X3X8X8XiX7X4X/.F.}                   $ 4 y b C ' | {  . .X.+.+.+.+.o.+.X.+.+.+.",
"+.X.+.X.+.o.+.+.+.o. .S c z 0 z ( 4.D..X%X;X0X4X4X#X(.^.V.v.j.p.<.<.>.i.a.x.N.P.~.).].].].).).).[.<X3XiXgXcXkXhXeX&XR.4.O                   X * 0 v C C ' }  . .+.+.+.+.o.+.+.X.o.+.",
"X.+.X.+.+.+.@.+.+.o.o.~ z 5 o * ( 8.R.%X0XuXsXdXaX6X1X(.!.C.k.d.R P F D =.2.c.P.!.`.].].].).).).].<X8XgXcXmXMXbXaX;XXX6.3                     X $ q V C _ ' {  .+.+.+.+.+.o.+.o.X.X.",
"+.X.X.+.X.+.+.+.@.o. .m 0       ( 9.XX;XaXvXnXmXzXfX7X<X'.U.n.p.T S p 8 V -.h.N.U._.].`.).).Y.).].<X7XjXmXMXVXNXdX0X@Xq.W                       + , q v C _ '  .+.@.+.+.+.+.+.+.X.+.",
"..+.+.X.+.+.+.@.+.o.| m 9       d w.oX0XdXNXCXCXMXkXiX2X{.A.n.f.T A q % p F s.c.I.~._.)._.Y.A.A._.,X5XpXcXMXVXnXdXqX@XD.%.        7 s d s s i % # @ 1 q v C '  .+.+.@.+.+.o.+.+.+.X.",
"o.o.+.X.+.+.+.+.+.o.| n *       d 0.+XwXlXVXZXZXMXkXrX>X~.Z.k.p.T J A V D -.s.c.V.I.U.U.Z.B.M.B.U.(.4XtXjXvXnXvXaX:X+XD.=.N g A %.6.9.7.6.4.&.W i # O , 0 v ]  .+.+.+.@.+.+...+.X.+.",
"+.+.+.o.+.+.+.@.@.o. .n *       d w.$XwXbXCXAXZXMXkXeX>X!.v.u.y.t.<.:.:.:.2.a.x.c.b.N.N.m.k.v.v.L.L.#X4XqXwXuXwX0X%XW.z.<.T :.5.G.W.+X+XXXR.r.6.$.2     5 t )  .o.@.+.+.+.+.+.X.+.X.",
"X.+.+.+.+.+.@.+.O.+.{ n *       d e.@XaXnXZXAXZXNXhXqX#Xb.p.t.t.y.j.x.x.x.x.l.l.h.h.s.s.p.p.i.p.l.z.K.XX$X*X*X%X@XW.G.h.y.h.F.^.#X4X0X0X:X%XoXr.&.i     o 0 m | o.+.+.@.+.+.+.+.+.+.",
"+.+.o.+.+.o.+.+.+.X. .c *       d e.W.aXnXCXZXCXMXuX&XK.1.J H L d.m.C.I.V.V.x.d.1.-.=.I I J J Y -.1.5.q.e.r.H.J.H.F.l.f.k.M.!.}.6XtXvXvXdXwX%XR.6.a       0 m  .o.@.+.+.+.+.+.o.+.o.",
"X.+.+.o.o.+.+.@.+.+.| m 5       d r.$XaXvXCXZXVXbXwX%XD.%.g g H j.V.Q.~.!.P.v.a.=.A p q q p M M V Z Z W W $.$.*.1.2.u.k.n.Q.}.5XpXvXmXNXnXaX:XXX6.d       9 m | o.@.+.@.+.+.+.+.+...",
"+.X.+.+.+.+.+.@.@.+.| ~ 9       d r.W.:XdXmXVXNXdX9XXX6.a   f H j.C.~.~.!.C.c.<.D 7 O   X O + @ @ + O X     O N P R j.M.Q.].2X7XkXmXVXVXNXdX9XoX0.d       9 m | +.+.+.+.+.+.o.o.+.o.",
" .+.X.X.+.+.+.+.+.+. .~ l o . X K 6.XX:XyXlXvXvXaX*XR.*.:   o G h.V.Q.!.U.V.x.Y V O         X O X       .   o j T j.V.!.}.2X7XgXkXmXmXNXvXyX:XXX7.K X   . 0 m  .o.+.+.+.+.o.o.o.o.o.",
"+.+.X.X.+.+.+.+.+.+. ./ c 9 * 9 Z 6.K.@X9XqXuXwX;XoXe.$.=   . j R x.V.C.V.x.a.I p O             X       o & k T x.^.(.1X5X8XgXgXkXkXlXsXyX0X$XR.6.( 5 $ 9 c /  .+.+.@.+.+.+.o.o.o.o.",
"X.+.O.X.+.o.+.+.+.+. .[ m c z x } 4.D..X@X&X-X%XoXH.6.W @     h T i.l.x.h.a.Y D 8 X             X o & g j H y.v.!.>X5XrXjXjXjXhXuXuXqX9X&X+XR.D.4.} z z c n |  .+.+.+.+.+.o.+.o.+.+.",
"+.X.+.X.+.+.+.+.+.o. . .| / m m } 3.8.q.H.K.R.J.e.w.&.a +     p A Y Y ,.Y I D M 7 O             + p A H t.f.m.!.#X5XfXkXxXxXxXdXtX4X@X.XH.q.8.3.3.} ~ m m ` | o.+.+.+.+.+.+.+.+.+.o.",
"O.+.X.+...o.+.+.X.X.X.X. .| |  . ...3.3.4.4.4.*.$.$.d i # O O 7 p M B A B M p i < + O O         % B H i.g.M.Y.{.3XiXkXcXBXBXnXsX9X@XH.4.$.Z ( _ .. .| |  . .o.o.o.o.+.X.o.+.o.+.X.+.",
"+.+.+.X.+.+.o.+.X.+.X.+.+.+.+.+.X.| _ C V 8 2 < # # @ > > > < $ , , % < < < < , < $ > + + O X O 8 S J i.k.Z.Q.,X5XfXcXBXBXBXnXaX-XE.4.7     $ z / o.+.+.o.o.+.+.+...+.+.X.+.+.o.+.X.",
"X.+.X.+.X.+.X.+.+.+.+.+.@.@.@.@.X.[ n 0 $           O $ 4 8 8 6 1 = = @ + = - , 4 7 8 4 - + + = q S T i.k.B.Y.{.2XiXkXxXmXnXdX0X@Xe.(         0 ~ +.+.@.@.+.+.+.+.+.+.X.+.X.+...X.+.",
"+.X.+.X.+.X.+.X.+.+.+.O.@.@.@.+.+.| n 0 $           * e u u u u e 1 - ; 1 1 6 r u u u u r 6 6 w V J -.i.p.m.I.T.}.4XaXdXdXsXaX*X.X9.s         z ~ o.@.@.@.@.+.+.X.o.X.+.X.+.X.+.+.X.",
"+...+.X.X.+...o.+.+.+.+.+.#.#.+.o.| m c 0 * o o $ 5 0 v b C C u v y r r r y u v v C C b v v y v C F ..>.i.f.c.L.^.(.;X:X:X:X*XoXJ.4.C o   . 9 c / +.@.@.@.@.+.+.+.X.+.X.+.X.+.X.X.+.",
"+.+.X.+.+.X.+.+.+.+.X.+.+.+.+.+.o. .| ~ n c z z c m m ] _ ' _ ) C ) Q Q Q ^ ^ _ ) _ ] _ _ ] ) _ [  .J J ..T >.1.z.G.R.W.oX.X.XH.q.3._ l l z n ~ | o.+.@.+.+.+.X.X.+.X.+.X.+.X.+.+.X.",
"o.+.+.X.+.X.o.+.+.+.+.O.+.+.+.+.+. . .| | ' ` ` ` [ { { { {  .{ { { { {  .{ { { {  .{ }  .| {  .| } ' S S D D F %.&.4.6.6.9.6.4.3.O. .| / / / o...o.+.+.+.+.o.+.o...+.X.+.X.o.+.X.+.",
"o.+.X.+.X.X.o.+.+.+.+.+.+.+.X.+.+.o.+. .X.X.+. .o.o.X.X.X.X.X.X.X.X.X.X.X.X.X.X.X.X.o.+.+.O.+.+.X.| ' C v q 7 7 2 2 2 i i s V V _ }  .o.o.+.+.o.+.X.+.X.+.X.+.+.+.+.X.+.X.+.+.+.o...",
"X.+.X.+.+.+.o.+.X.+.+.+.o.+.X.+...o.o.+.+.+.+.+.+.o.+.+.+.@.+.+.+.o.+.@.+.+.@.o.o.@.o.+.@.+.@.+.+. .] b u 1 = O               9 x ^  .o.+.#.@.+.+.O.+.+.+. .+.+.+.X.+.X.+.X.X.+.X.+.",
"+.X.+.X.+.o.+.X.+.X.o.+.+.X.+.X.+.+.+.+.@.+.+.@.@.@.o.@.+.@.+.@.+.@.@.o.+.@.o.@.@.o.@.+.@.@.@.@.+. .' Q y e ; =               5 z ~ | +.@.@.@.+.+.+.+.+.X.+.X.+.X.o.X.+.X.+.+.X.+.X.",
"o...X.+.+...+.X.X.+.X.o.X.+.X.+.+.+.+.+.+.+.+.+.+.@.@.o.+.+.+.+.+.@.o.+.@.+.+.+.o.@.o.@.o.@.@.@.+. .{ ) Q u r 1 > + X     o * l n / o.+.#.@.@.+.+.+.+.+.X.X.+. .+.+.o...+.+.+.+.X.+.",
"+.+.X.+.X.+.X.+.+.X.+...+.X.+.X.X.+.+.+.+.+.+.@.+.+.+.o.@.+.+.+.+.+.+.+.+.+.+.+.o.+.+.+.+.@.+.o.+.X.| [ _ ^ Q ! z z t t 0 z c n ~ | o.o.+.@.+.O.+.+.+.+.O.+.+.+.o.+.+.+...o.o.+.+.X.",
"o.+.X.+...o.+.X.+.+.o.....+.o.+.X.+.X.+.X.+.+.+.o.+.+.o.+.+.o.o.o.+.o.+.+.+.+.+.+.o.+.+.o.+.+.+.+.X... .| { | | ] ] / / ) ] [ | | X.X.+.+.+.O.+.o.o.+.O.X.O.+.+.+.X.+.X.X.+.X.+.X.+.",
"X.+.+.+.+.o.X.+.+.o.+.+.o.+.X.+.+.X.+.X.+.o.+.X.o.+.+.+.+.o.o.o.+.o.+.o.+.o. .+.+.+.o.o.+.o.+.+.X.+.o.o. .o. .o. .X.X.X. . . .o.X.o.X.+.+.+.X.+.o...+.+.X.X.+.X.X.+.X.+.+.X.+.X.o...",
"+.X.+.X.+.X.+.X.o.X.+.X.+.X.+.X.o.+.o.o.X.+.+.+.+.o.o.o.+.+.+...+.+.o.o.+.+.+.+...+.o.o.o.o.+.+.+.X.+.+.O.+.+.+.+.+.+.@.+.+.+.+.+.+.+.X.+.X.+.X.+.+.+.X.+.X.X.+.+.X.+.o...o.X.+.+.+.",
"X.+.X.+.o.+.X.+.+.X.X.+.X.+.X.+.+.+.o...+.X.o.+.+.o.o.o.+.o.X.+.o.+.o.o.o.+.o.+.+.+.o.o.+.o.o.o.X.+.+.+.@.+.+.@.+.+.@.+.+.+.#.+.+.+.+.o.X.+.X.+.o.+.X.+.X.+.+.X.X.+.X.+.+.+.+.X.o.+.",
"+.+.+.o.+...+.X.X.+.X.+.X.+.X.+.+.X.+.X.+.+...o.X.+.X.+.X.+.X.o.+.+.+.o.+.o.o.o.o.+.+.+.o.+...o.+.+.+.+.+.@.+.+.+.@.+.+.@.+.+.+.+.+.+.X.+.X.+.X.X.+.X.+.X.+.X.+.+.o.+.+.+.o.X.+...+."
};
