/* XPM */
static char *result[] = {
/* columns rows colors chars-per-pixel */
"90 105 249 2 ",
"   c #000000",
".  c #000C04",
"X  c #00000B",
"o  c #001606",
"O  c #000014",
"+  c #00001C",
"@  c #030B1B",
"#  c #01181A",
"$  c #131B1E",
"%  c #002701",
"&  c #003304",
"*  c #01241B",
"=  c #12361B",
"-  c #000024",
";  c #020B25",
":  c #000329",
">  c #041522",
",  c #051921",
"<  c #051827",
"1  c #06122E",
"2  c #161A25",
"3  c #2A1736",
"4  c #042728",
"5  c #152524",
"6  c #192A29",
"7  c #01362A",
"8  c #1A342A",
"9  c #012531",
"0  c #002E33",
"q  c #003335",
"w  c #023B33",
"e  c #073A38",
"r  c #193D34",
"t  c #24282C",
"y  c #263B29",
"u  c #2B2836",
"i  c #2C3533",
"p  c #343A39",
"a  c #024900",
"s  c #0D5006",
"d  c #25581A",
"f  c #066000",
"g  c #347611",
"h  c #00422F",
"j  c #004434",
"k  c #05463A",
"l  c #014C3A",
"z  c #17473B",
"x  c #14453D",
"c  c #194A3E",
"v  c #04513E",
"b  c #13513F",
"n  c #2C452C",
"m  c #294929",
"M  c #30472D",
"N  c #2F5B26",
"B  c #274A38",
"V  c #364838",
"C  c #2B533B",
"Z  c #365232",
"A  c #385332",
"S  c #385A39",
"D  c #366529",
"F  c #3E7B25",
"G  c #3C6239",
"H  c #415B3A",
"J  c #416534",
"K  c #43643C",
"L  c #456A3C",
"P  c #496B3D",
"I  c #477D33",
"U  c #477439",
"Y  c #4C7D3B",
"T  c #372741",
"R  c #44384B",
"E  c #0A4E41",
"W  c #134A41",
"Q  c #1B4D41",
"!  c #1D5344",
"~  c #195944",
"^  c #234F40",
"/  c #3B4841",
"(  c #235444",
")  c #2B5542",
"_  c #235A46",
"`  c #2C5A45",
"'  c #215748",
"]  c #255C49",
"[  c #295D49",
"{  c #365B45",
"}  c #26614B",
"|  c #2E654E",
" . c #2D684F",
".. c #376349",
"X. c #2F6750",
"o. c #2F6850",
"O. c #306750",
"+. c #316951",
"@. c #367056",
"#. c #387157",
"$. c #454B47",
"%. c #49574A",
"&. c #4B534C",
"*. c #515A4F",
"=. c #525455",
"-. c #545C53",
";. c #476845",
":. c #4A6D42",
">. c #546A4C",
",. c #4D7243",
"<. c #4D7842",
"1. c #517543",
"2. c #537A47",
"3. c #547C49",
"4. c #496553",
"5. c #596758",
"6. c #5C7459",
"7. c #626D5E",
"8. c #61775A",
"9. c #5F7762",
"0. c #656B62",
"q. c #647362",
"w. c #6B7867",
"e. c #717B6D",
"r. c #747971",
"t. c #4E813C",
"y. c #51823E",
"u. c #559439",
"i. c #548443",
"p. c #588846",
"a. c #5B854C",
"s. c #5E8A4D",
"d. c #5D9446",
"f. c #5F8652",
"g. c #608A4E",
"h. c #61954C",
"j. c #639A4B",
"k. c #628E51",
"l. c #68885D",
"z. c #659353",
"x. c #689954",
"c. c #6A9C55",
"v. c #6D9C59",
"b. c #66A64A",
"n. c #6CA355",
"m. c #6DA953",
"M. c #6FA259",
"N. c #71AC56",
"B. c #72A45D",
"V. c #74AA5D",
"C. c #76B25B",
"Z. c #75B459",
"A. c #7ABA5D",
"S. c #72836D",
"D. c #7B8F6F",
"F. c #729066",
"G. c #7B8676",
"H. c #7C8B75",
"J. c #7C9374",
"K. c #7AA567",
"L. c #77AB60",
"P. c #79AD62",
"I. c #7DB465",
"U. c #7EBB62",
"Y. c #7FB16A",
"T. c #828E7A",
"R. c #84947C",
"E. c #86997D",
"W. c #81BC66",
"Q. c #81B56A",
"!. c #83BD6A",
"~. c #86A877",
"^. c #8AB975",
"/. c #91BB7F",
"(. c #83C266",
"). c #86C16C",
"_. c #89C56E",
"`. c #8BCA6E",
"'. c #8CC671",
"]. c #8DCA72",
"[. c #90CC75",
"{. c #92C57A",
"}. c #94C97B",
"|. c #94CB7B",
" X c #95D179",
".X c #899582",
"XX c #8C9C83",
"oX c #909E88",
"OX c #8FA385",
"+X c #94A48B",
"@X c #96A88B",
"#X c #96B787",
"$X c #9BA792",
"%X c #9CAB92",
"&X c #9EB292",
"*X c #A1AE97",
"=X c #A3B698",
"-X c #A9BB9D",
";X c #ADBEA1",
":X c #9ACC83",
">X c #9DC988",
",X c #9DD284",
"<X c #9FD188",
"1X c #A1CC8C",
"2X c #A3D38D",
"3X c #A4DA8B",
"4X c #A8C997",
"5X c #AAD695",
"6X c #B1D69D",
"7X c #B2DB9D",
"8X c #B2E29B",
"9X c #AEC2A1",
"0X c #B1C4A5",
"qX c #B3C9A5",
"wX c #B6CAAA",
"eX c #B9CDAC",
"rX c #B5DDA1",
"tX c #B8DBA6",
"yX c #BCD4AD",
"uX c #BECFB2",
"iX c #BED2B1",
"pX c #B9E2A5",
"aX c #BEE2AA",
"sX c #C1D4B4",
"dX c #C4DAB5",
"fX c #C7DBB8",
"gX c #C9DEBA",
"hX c #C1E4AE",
"jX c #C3ECAE",
"kX c #C5E5B2",
"lX c #C7EAB4",
"zX c #CCE3BD",
"xX c #CDEBBB",
"cX c #D0EEBE",
"vX c #D0F3BC",
"bX c #CFE3C0",
"nX c #D2E7C3",
"mX c #D4ECC4",
"MX c #D9EEC9",
"NX c #D5F2C3",
"BX c #D8F4C7",
"VX c #DCF4CB",
"CX c #DEFACC",
"ZX c #E0F9CF",
"AX c #E1F7D1",
"SX c #E4FCD3",
"DX c #E8FFD7",
"FX c #ECFFDB",
"GX c #F0FFDF",
/* pixels */
"O.O.O.O.O.O.O.+.+.+.+.| +.+.| +.O.+.O.O.+.o.+.+.O.o.+.O.o.+.+.+.+.+.+.@.+.+.@.+.+.+.@.+.+.+.+.+.@.+.+.+.+.@.+.@.+.+.+.+.+.@.+.+.+.@.+.+.+.+.+.+.+.+.O.+.+.+.o.+.| +.O.+.+.+.+.+.o.o.",
"O.O.+.O.O.O.O.O.+.+.+.+.+.+.+.+.+.O.+.o.o.o.o.+.+.O.O.+.O.+.o.+.+.+.+.+.+.@.+.@.+.+.+.@.+.@.@.+.+.@.+.@.+.+.+.+.+.@.@.+.@.+.+.@.@.+.+.@.o.@.+.+.+.+.O.o.+.o.+.O.+.+.+.O.+.+.+.+.o.o.",
"+.+.O.+.+.O.O.+.+.| +.| O.O.| O.o.O.O.o.o.+.+.+.O.O.o.+.+.O.O.o.+.+.+.+.O.o.+.+.O.+.+.+.+.+.+.+.+.+.+.+.+.+.+.+.+.+.+.+.+.+.+.+.O.+.+.O.+.+.+.O.o.o.+.o.+.+.o.o.O.O.O.O.+.+.| +.+.+.",
"+.+.+.+.O.+.o.O.+.+.+.+.+.O.O.O.+.O.+.+.o.o.+.o.O.O.O.O.o.o.o.| +.+.O.O.o.O.o.o.O.O.O.O.O.O.O.o.+.+.O.o.O.O.O.O.O.O.O.o.o.o.o.O.| | +.| o.o.o.O.+.o.o.o.o.+.o.o.O.O.O.O.+.| +.+. .| ",
"+.+.| +.+.+.o.+.+.| +.+.+.+.+...o.O.+.O.+.+.+.X.O.+.+.+.+.+.O.| | [ [ ] ` ] ] ` ] ] ] ] [ ` [ ` [ ] ` ] [ ] ] ] ] ] [ [ [ [ ] ` [ ] ] [ ] [ | | o.+.+.+.+.+.+.+.+.o.+. .| +.| +.+...",
"+.| +.+.o.| O.+.+.+.+.| +.+. . .+.O.O.+.X.X.+.+.+.+.+. .+. .| } ] ( Q W z W z W c c c c c W c W c c W c c c c c c c c W c c W z z z x c ^ ( ] [ O.+.+.+.@.+.+.+.+.o.o. .+.+.+.+.+.+.",
"+.+.+.+.o.o.o.O.+.| +.+.+.+.+.+.O.+.O.O.O.O.X.+.+.+.@.@.@.+.| _ Q x w 0 9 9 9 9 0 0 0 0 0 0 q 0 q 0 0 0 0 0 0 0 0 0 0 0 q 0 q 9 9 9 9 0 e W ( ] | o.+.@.@.+.+.+.+.+.+...+.O.| O.+.+.",
"+.| +.| o.o.+.+.+.+.+.+.| +.+.+.O.O.O.O.O.O.+.+.+.@.@.@.@.+.} ) W q 9 - + - - - : - : : - : : - - - : : : - : : - : - : - : - - - - - - 9 q W ' | O.+.@.@.+.+.+.+.+.+.+.+.O.O.O.+.+.",
"+.+.+.+.o.+.o.o.+.| +.+.+.+.+.| +.+.X.X.o.o.X.+.+.@.+.+.+.| [ ( z 0 < + O O O + + + + + + + + + + + + + + + + + + - + + + + + + O O O + < q W ( [ X.@.#.@.+.+.+.+.+.+.+.O.+.O... . .",
"| +.+.+.+.o.o.o.+.+.| +.| +.+.+.+.+.X.X.+.o.+.+.+.+.+.X.O.| [ ) B r 8 5 $ $ $ 5 5 5 5 5 5 5 6 5 5 5 5 5 5 5 6 5 5 5 5 5 5 5 5 5 $ $ $ 5 8 B B ) [ X.X.+.+.+.+.+.| +.+.| +.O.+.+. .+.",
"+.+.+.+.O.O. .+.+.+.+.+.O.O.+.| +.+.+.+.+.+.+.+.o.X.| | } [ ` ) S S A A A A A A A Z A A A A A A S Z Z Z A A A A A A A A Z Z A A A A A A Z C S ` [ [ } } X.X.X.+.+.+.O.O. .+.+.+. .+.",
"| +.O.+.O.O.| ..| +.| +.+.O.O.O.+.+.+.+.+.+.+.+.X.] ! ! Q ( ) { ..;.:.1.1.1.1.1.1.1.1.1.1.P 1.1.1.1.1.1.1.1.1.P 1.1.1.1.1.1.1.1.1.1.1.,.:.;...S ) ^ W ! ' ' } +.+.+.+.+.O.+.+.O.+.+.",
"+.| +.+.+.+.+.+.+.+.+.+.+.+.+.+.+.+.+.+.@.+.+.X.] Q k q q r B G :.3.f.z.z.x.z.z.k.k.z.k.k.k.z.k.k.k.k.k.k.k.k.z.g.z.k.z.k.k.k.z.z.z.z.k.s.3.,.{ ^ e q q E ! ] X.@.@.@.+. .+.O.+.O.+.",
"+.+.| +.+.+.+.+.+.+.| +.+.+...+.+.+.+.@.@.@.+.X.~ E 0 : : 4 B ;.3.z.v.B.L.V.V.V.B.B.B.B.B.B.B.B.B.B.B.B.B.B.B.B.B.B.B.B.B.B.B.B.L.L.L.B.v.k.2.K i 9 : : 0 W ' X. .@.+.@.@.+.+.O.+.O.",
"O.O.+.+.O.+.O.O.| +.+.+.o.o.|  .+.+.+.@.+.@.+.| ' e 1 : + , V ,.f.v.P.I.!.!.!.Q.W.I.Q.I.Q.I.I.I.I.Q.Q.I.A.Q.Q.Q.Q.I.Q.I.Q.Q.Q.W.!.!.!.I.L.v.a.P n ; - - 9 e ' | +.@.@.@. .+.+.+.O.+.",
"O.O.| +.O.O.O.| +.+.+.+.o.o.o.+.+.+.+.+.+.+.X.| ' e 9 : + y H 2.z.L.I._.'.'._._.!._.).).).).).).).).).).).).).).).(.).!.).).!.`._.`.'.).Y.M.z.1.S y - - 9 x ( | +.+.+.+.+.+. .+.+.O.",
"O.+.+.+.+.+.| +.O.O.+.+.+.+.+. .+.O.| | | | [ [ ) B r y n S P g.M.P.)._.].[.'.].`._.'._._._._._.`._._._._._._._.`._._._.'._.].].[.[.`.`.).C.v.g.P H n 8 r Q ` [ [ O.X.O.o.o.+.O.+.o.",
"+.+.+.o.+.+.+.+.O.O.+.+.+.+.+.+.+.+.| } ] ] ` ` ) S S { K 1.g.x.L.I.).].].[.].].`.'.'.'.].].`.'._.`._.].'.'.].'.'.].'.].[.`.].[.[. X[.`.).W.V.x.g.P P S S S ) ) ] ' ] [ | o.O.+.+.o.",
"+. . .o.+.| +.| O.O.+.+.+.+.+.+.| } [ ( Q c B ) { K ,.2.a.z.v.V.P.Y.)._.].].'.]._.'._._._._.'._._._._._._._.'._._.].].].`.].[.[.[.[.[.]._.!.I.B.v.k.a.2.:.;.{ C B W Q ' [ | O.+.+.+.",
"+...+.o.+.+.+.+.O.+.o.+.+.+.+.+.| ..( c e e r C ;.,.a.z.v.V.P.Q.U.!.)._._._._._._._._.)._._.)._._._._._._.!._._._._.'.`.[.`.[.`.].[.].'._.).!.Q.P.B.c.k.a.:.K B r e k z ) | O.+.o.@.",
"+.o.o.o.+.O.O.O.o.+.+.o. .@.@.+.| [ ( e 0 < 8 C K 2.z.B.P.!.!.!.).U.)._._.).).).!.).).).).).)._.!._.!._.!._.!.'._._._._._._.'.].].'.`.'._._._._.!.Q.P.v.k.3.K M 6 < 0 x ( [ O.+.+.+.",
"+.o.o.+.| O.O.O.+.o.+.+.+.+.+.+.| [ Q q ; - , M P g.v.V.!.!.`.`.'._.).)._._.).).).).!.).).).).!._.!.!._._.!.'.!.!.).).).!._.!._.).).)._._.)._._.`.).W.V.c.a.K M > - < q Q } O.O.@.o.",
"+.+. .+.+.+.+.+.o.o.+.+.@.+.@. .| [ c 0 - + + M P g.v.Q.!.[.].].'._.).!.).Y.).U.).).).).).).).).!._.!.!.!.!._.!.!.!.!.Q.Q.I.Q.I.I.I.I.I.Q.!.)._.[.`.!.Q.v.a.P y O + : q Q [ o.o.@.+.",
"+.+.| ..+.+.+.+.o.o.+. . .@.+.@.| [ c 9 - O O M P g.B.W._.'.[.'._._._.Y.).U.U.(.(.).W.!.W.).!.)._.!._._.'.'._.!.!.I.C.V.n.n.c.c.c.c.n.M.B.C.W.)._.`._.Q.B.g.K y + + : 0 W [ o.@.o.@.",
"+.+.+.| +.+.+.+.+.+.+.+.@.+.+.+.| ] c 9 - + + M P g.B.Q.'.].].`._.(.U.U.U.U.A.U.A.U.U.(.U.(.!.).).)._.].].`.'.).Q.V.n.h.p.y.t.I Y Y Y y.h.c.C.Q.!.`.!.Q.B.g.P n O + : q W [ O.O.@.o.",
"| +.+.+.| +.+.| +.| +.O.+.+.+.+.O.[ c q - + @ M P g.v.Q.!.'.`.`.(.U.A.A.A.A.A.A.A.A.A.U.(.W.!.).).)._.].].].'.).I.n.d.t.D d a a a a s N I y.c.C.!._.).W.B.g.P y + + : q ^ ] O.+.o.@.",
"O.O.+.| +.+.+.+.| +.+.+.+.@. .@.O.] c q - + > M P g.v.Q.!.!.`.).(.(.A.U.A.A.A.A.U.A.U.U.U.W.!.!.).)._.].[.[.'.!.C.c.i.D a .           % d U h.N.W.!.!.Q.B.g.P M @ + ; q Q [ O.O.o.+.",
"+.O.O.O.+.+.+.O.O.+.+.O.+. .@.+.| [ c q : - , M P g.v.V.!._.`._._.(.(.W.W.(.U.(.!.!.!.U.!.!.).).).)._.'.].`.'.Y.L.x.3.G =             O m P g.B.Q.!.Q.Q.B.g.P y ; + 1 q Q | O.+.@.o.",
"+.+.+.| +.+.O.O.O.O.+.O.+.+.+.+.O.` Q q : + , M K g.v.Q.W.!.].[.{.{.{.{.[.{.{.{.:X{.'.'.'.).).).).).!.).).!.U.P.L.x.f.>.&.p T T 3 3 T R *.g.F.V.!.!.!.Q.M.g.J n @ - 1 e Q [ O.O.o.@.",
"+.+.+.+.+.+.+.+.O.O.+.O. .@.@.+.| [ c q : - # M P 3.c.V.W.'.}.}.:X<X<X1X1X5X5X1X2X1X1X>X:X:X{._.!.U.I.I.L.N.V.M.v.F.l.S.e.e.r.r.r.r.r.G.F.D.~.Q.!.!.W.C.c.a.P n ; - 1 w ! [ O.+.@.+.",
"+.| +.| ..o.o.o.O.+.+.+.+.+.@.+.| [ c q : - , M J g.z.V.W.'.}.<X<X5X6XrXtXtXrXtXtXrX6X5X1X:X:X_.(.I.N.n.d.d.d.g.l.F.T.XXoX$X$X$X$X$X%X%X%X#X/./.!.(.W.m.h.y.G m @ - 1 q Q | O.+.o.+.",
"+.+.+.+.| o.o.o.+.+.+.+.+.@. .+.| [ Q q ; + , n J i.j.N.W.'.,X2X6XpXaXkXlXlXlXxXxXaXaXpX6X5X,X{.U.N.b.u.F g D P 8.H.+X*X;XuX;XuXsXsXsXyXyXqX4X>X[.W.Z.b.u.I D y > - 1 e ^ [ O.+.@.o.",
"+.+.+.+.+.+.O.+.+.+.+.@. .@.@.+.| [ c q : - , M J y.j.m.W.].3X5XpXaXxXNXNXBXBXBXNXmXbXaXpX5X<X[.U.N.d.F f a & Z q.R.&XwXsXbXmXMXMXMXMXmXzXdXrX5X|.(.N.b.u.I N y @ + < e Q | X.+.o.@.",
"+.+.+.+.+.| +.O.+. .+.o.+.+.+.+.| [ Q q : + , n J Y d.m.I.'.2X7XaXxXNXVXAXAXDXAXAXAXNXNXaX8X2X{.U.N.u.g a o   V w.XX;XsXmXVXSXDXSXDXAXVXNXxXaX5X,X).N.b.u.I J y ; + 1 e Q [ X.+.@.+.",
"| +.O.O.O.O.o.+.+.+.o.o.@. .+.+.+.] Q q : + , M J y.d.m.U.{.2XrXaXmXBXSXFXFXFXFXDXSXBXmXaXpX2X[.(.m.d.F d 8 p =.G.%XuXbXVXDXFXFXFXDXSXVXNXxXaXrX2X}.U.N.z.2.K y @ + ; q Q [ X.+.@.o.",
"+.+.O.O.O.O.O.+.|  .o.o.@.+.@.+.| [ Q q : + # M J Y d.m.U.}.2XrXxXNXCXDXFXGXFXFXFXDXCXNXNXrX2X:XW.N.c.p.6.5.9.G.$X;XfXMXSXDXFXDXSXAXMXmXzXkXaXtX7X2X:X^.K.k.>.V @ O - q W [ O.+.o.@.",
"| +.+.| +.+.+.O.+.| +.o.+.@.+.o.O.[ c q : + , n J t.u.m.A.}.2XpXaXNXAXDXFXGXGXGXFXDXAXNXaX7X<X:XW.I.Y.K.J.E.XX$X;XuXbXVXDXDXSXCXMXzXdXiXyXyXtXtXtXrX5X>XOXF.6.V +   O 7 b [ X.o.o.o.",
"+.+.+.+.o.+.o.+.+.+.O.O.+.+.@.o.| [ c q : + , n J Y d.m.Q.[.2XpXbXNXAXDXFXGXGXFXDXSXVXnXaX7X>X'.).U.Y.OX#X4X9XwXsXbXMXCXSXSXVXmXdXqX-X%X&X=XqXtXaXkXtXtX=X~.w.H +     4 k [ o.O.@.o.",
"O.| +.| o.+.o.o.O.+.O.+.+.@.@.o.| [ c q : - # n J Y u.m.A.}.2XpXaXCXAXDXFXGXGXDXDXAXNXNXaXrX>X'.).).:X>XqXyXdXzXnXMXVXSXDXVXmXdX9X%XR.H.H.OX-XyXzXxXxXyX4X@XS.&.O     4 l ] X.O.o.@.",
"O.+.+.+.+.o.o.o.+.O.O.+.+.+.o.@.+.[ c q : + $ n J Y j.m.Q.[.2X8XaXNXAXAXDXFXDXDXDXSXNXnXaX6X:X'.).{.>X6XaXzXMXVXAXDXDXDXSXVXbXeX%XH.5.$.5.J.=XyXxXVXVXzXeX*XD.%.+     # l [ O.+.@.+.",
"O.O.o.o.o.+.+.+.+.o.O.+.+.@.+.o.| [ c q : - , n J y.j.m.U.{.2X5XaXNXNXCXSXSXDXDXSXAXVXmXaX6X:X)._.{.1XtXxXBXAXDXFXFXFXFXSXMXgX0XoX7.i   i e.%XyXmXAXZXMXsX*XT.*.O     # l _ +.+.+.+.",
"O.O.+. .+.+.+.+.O.+.+.+.+.+.@.+.| [ c q : + # M J y.j.m.W.{.2X7XaXaXbXNXBXBXAXSXSXAXNXNXaX6X:XY._.{.5XaXxXAXDXFXGXGXFXFXSXVXgX9XE.4.    X 7.%XiXMXSXSXMXdX-XT.*.O     o j _ | +.@.+.",
"+.+.+. .+.+.| +.+.O.+.+.+.+.@.+.| [ c q : + , M L i.j.V.W.[. X2X7XrXaXaXNXNXVXAXSXSXBXNXaX6X:X'.).:X2XaXvXZXFXFXGXGXGXFXSXVXgX-XR.%.      5.%XiXMXDXDXMXfX-XR.=.X     o j _ o.+.+.+.",
"+.+.+...+.| +.+.O.+.O.+.+.@.o.o.| [ c q - - , M P s.n.C.).]. X2X<X5X7XpXaXbXNXCXSXSXAXNXaX6X:X).!.{.5XpXNXCXDXFXGXGXGXFXDXVXkX-XR.&.      7.%XsXMXFXDXAXgX-XR.*.X       j _ o.+.@.@.",
"o.o.+. .| +.| O.o.O.+.+.o.@.+.+.| [ c 0 : + > V P s.M.I._.]. X X:X:X,X2X7XaXmXBXAXSXSXNXaXrX:X'.).{.5XpXnXCXSXFXFXGXFXFXSXVXdX;XR.%.      8.%XsXVXDXDXVXdX;XT.*.X       j _ +.O.o.@.",
"o.o.+.| +.+.O.O.+.O.O.+.o.+.@.+.| [ c q : + $ M :.s.M.I._.].].].`.(._.:X1XrXaXNXAXSXCXNXaXrX:X^.).{.2XtXxXBXSXDXFXGXFXDXSXVXgX9XE.5.O   2 w.%XsXMXSXSXMXfX-XH.*.X     . j _ o.+.@.o.",
"o.+.+...+.+.O.O.o.+.o.+.+.@.@.+.| [ ! q ; - , M P a.v.P.I._.`.W.U.A.A.(.:X5XaXnXNXBXVXNXaXrX>X'.!.{.1XtXkXNXVXZXDXDXFXDXSXVXzXqX@XS.%.t $.S.&XyXnXZXZXzXuX&XH.=.O     * j _ +.O.o.o.",
"+.+.+.+.+.+.O.+.+.+.+.+.+.o.+.+.| [ c q 1 - @ y H 2.k.M.I.I.I.A.Z.Z.Z.A.'.1XrXaXmXNXNXbXaX6X:X).).{.<X6XaXxXNXVXZXSXSXDXSXVXnXiX=XXXS.7.w.E.*XwXgXbXzXdX9X@XS.%.4     7 l } +.o.+.@.",
"+.+.+.| +.+.+.| +.+.+.+.+.+.@.+.o.[ Q q 1 - + 5 Z P 2.g.v.M.V.m.Z.m.Z.U.'.<X5XpXkXxXlXaXrX2X:X'._.{.:X5X7XaXlXNXBXVXZXSXSXZXBXbXsX-X@XXXXX@X=X9XsXsXwX9X&X.XS.%.h * 7 h b } O.+.+.+.",
"+.+.+.+.+.+.+.+.+.+.+.+.+.@.@.@.O.[ Q q ; + O O 5 M H P 3.s.z.n.m.Z.A.(.].,X3X7XrXpXpXpX5X<X|.'._.].|.,X5X7XpXaXxXNXCXZXSXSXAXMXzXdXeX0X;X-X-X;X=X=X&XOXJ.S.6.O.B h l v ~  ...+.+.+.",
"+.| +.| +.o.+.+.| +.+.+.+.@.@.@.o.[ Q q 1 + X X O + 5 y Z ;.a.z.m.Z.W.`.[.:X,X3X5X5X5X3X<X:X].].'.].[.|.,X<X5X8XaXvXBXZXSXDXDXSXZXMXzXgXsXwX9X&X@XE.D.w.9.5.4.{ ] ~ b ~ } +.+. .+.+.",
"+.+.+.+. .+. . .+.+.+.+.@.+.@.+.| | ! x 9 + X X     X O 5 Z P s.c.C.W.'.]. X X:X X:X:X:X|.].'.'._.'.'._.'.].:X2X8XaXvXBXSXDXFXDXDXDXSXVXzXsX9X@XT.7.&.V B ) { ..| } }  .| +.O.+.+.+.",
"+.| +.+.+...+.+.+.O.+.+.+.+.@. .O.[ ) c r 6 # + O X   X + y S 3.z.L.I.).'.'.'.)._.!.).).).).).).!.).(.U.A.A.(.|.1X6XaXNXVXSXDXDXFXDXDXZXxXsX;XE.q.p       7 b } o.+.+.+.+.+.+.O. .+.",
"O.O.+.+. .| +.+.X.+.+.X. .| |  .} [ ) S C V Z M y y 5 $ 6 n K 3.k.M.P.Y.I.U.U.C.C.C.N.C.C.P.I.P.I.I.Z.m.b.b.m.U.:X4XtXdXxXmXMXVXSXSXZXMXzXsX*XT.*.        o v } +.@.#.@.+.+.+.+.+.O.",
"O.O.+.+.+.+.+.+.+.+.X.} [ ' ~ ! ( ) { O.;.:.,.,.P P H H G K :.3.k.z.M.M.M.M.n.j.b.j.d.j.j.n.n.n.n.x.d.d.u.u.u.b.K.#X>X9XuXsXgXbXzXzXzXfXeX-XoXw.H         # v } +.@.#.@.@.O.+.+.O.+.",
"O.O.O.+.+.+.+.@.@.+.X.X.! E k q x B G ;.i.a.f.g.k.g.g.a.a.a.a.f.a.s.f.f.a.a.i.i.i.t.t.t.t.t.t.y.t.I I g g g g t.k.F.OX&X&X;X;X;X9X9X9X-X*XE.S.5.u         7 v } +.@.@.@.+.O.+.O.+.O.",
"+.O.o.+.+.+.+.@.@.+.O.] W q 1 : 4 B S 2.f.x.B.L.L.L.L.M.M.v.z.f.a.2.;.L G G G S G D S D D N N d d s f a a a a N ;.6.S.D.R.E.XXXX.X.XR.T.S.w.-.$.t       * j ! } +.@.@.+.+.+.+.+.+.+.",
"o.+.O.O.+.+.@.@.@.+.O.' E 1 : : > M ;.a.x.L.I.I.Y.!.I.U.Y.P.M.z.a.;.Z n 5 5 5 y y y 8 = = & % % % o o o o . % % 8 S %.5.5.7.7.7.5.5.*.%.$.V p t $ + @ 4 w c ] | O.@.@.+.+.+.+.+.+.O.",
"O.+.O.+.+.+.+.+.+.+.X.' e 9 : + 6 A 1.k.B.I.)._.'.].'.'.).I.L.v.a...M @ X O O + ; , , > # @ @ @ @ . O X X O O # # 5 5 6 i t t 8 6 5 5 2 > # @ O + @ 4 8 B B ` | +.+.@.+.+.+.+.+.O.+.",
"+.O.+.o.+.o.X.X.X.X.[ ( B e 6 y M P a.x.P.I._.].].[. X].].).I.M.f.,.Z 6 + O O # = 8 t i p V / $.&.&.&.=.&.%.$.$.p 6 O           + 6 i p p p u t 2 @ 4 6 z ! ]  .+.+.+.@.+.+.+.+.O.O.",
"+.+.+.+.| | [ [ [ ` ` { ) C S H P a.z.M.A.(.(.`.[. X[.[.].`.U.L.x.a.;.S M m m m Z S H >.5.q.r.r.G.r.T.T.G.G.r.w.5.$.6         , H -.w.w.w.7.-.H i 2 @ 4 w z _ | +.+.+.@.+.+.+.+.O.O.",
"+.+.+.o.| [ ( ( Q ^ ) S ;.;.1.3.s.z.n.V.A.A.(.`.`.`.[.`.].'.).Y.L.z.s.2.,.P U U U 2.f.l.J.XXoX$X*X*X*X*X*X*X%X+XT.w.$.+     O &.e.R.+X$X$XE.T.7.$.t X X 4 j C } +. .@.+.+.+.+.| O.| ",
"+.+.+.O.| ] ! x e z B { ,.3.k.z.M.V.V.Z.A.A.(.(.(.`.`.`.'.'.).!.P.L.M.x.z.z.h.d.h.z.v.~.#X=X;XuXsXsXfXsXsXuXwX;X$XT.5.p     V w.oX=X0XsXsX-X@XT.-.u     . w b } +.+.+.+.+.+.+.+.+.+.",
"@.+.+.+.} ! x q 9 6 B ;.3.k.v.L.I.I.U.U.A.A.A.A.(.(.`.`.'.'.'.!.!.Y.I.P.L.L.M.m.N.L.Q./.4XtXsXbXbXMXMXMXMXmXbXsX0X+XS.&., , *.H.=XsXzXcXgXsX;XE.7.i       7 b |  .@.@.+. .+.+.| +.| ",
"+.@.+.o.} ( e < - 2 M K 3.v.V.Q.!._.).!.W.W.W.W.W.!.!.!._.!.!.'.).Y.).!.U.U.A.Z.A.(.{.>X6XaXmXBXAXSXSXDXSXSXVXnXiX=XR.5.6 6 5.R.4XdXMXCXVXfX0X+Xw.p       7 b } +.+.@.+.+.+.+.+.+.+.",
"+.o.+.o.} Q q : + + y P g.v.Q.!.`.[.[.[.{.[.{.[.].^.!.Q.!.W.!.!.)._._._._._.(.(.A.(.|.2XpXaXxXBXZXSXFXFXFXFXDXBXfX;XE.5.i 2 -.R.;XdXVXVXMXgX0X+Xw.V       7 b } +. .@.+.+.+.+.| +.| ",
"@.o.+.o.[ Q 0 - O O y J i.n.Q._. X X X3X2X2X2X<X>X}.^.Q.V.C.V.Q.I.)._._.]._.(.(.(._.|.<X7XaXxXBXCXZXSXFXGXFXFXAXzX0XOX7.i $ $.S.%XwXzXbXzXuX-XXXq./ #   * h ~ | +.@. .+.+.+.+.+.+.+.",
"o.@.+.o.[ c 9 - X X y J i.c.C.!. X X3X7XpX7XhX7X5X#X/.~.v.z.x.n.I.I._.'.]._._.(.(._.[.,X3X8XpXaXvXNXCXDXFXFXFXSXbXwX+Xq.p + p 9..X-XwXwXqX;X@XJ.6.{ w 7 w l _ | +.+.+.+.+.| +.| +.| ",
"+.@.O.X.[ c 0 - O O y J i.n.C.). X3X8XjXjXlXxXkXtX4X#XF.g.Y i.h.M.I.!._._.`.).).).).'.:X:X2X3X8XjXlXvXZXDXFXFXSXnXuX+Xe.V X @ &.w.E.+X%X%XoXJ.e.4.{ b l v ~ } +.+.+.+.+.+.+.+.+.| +.",
"@.+.+.X.[ c 0 - O O y J i.d.N.(.[.3X8XjXvXCXZXcXdX9XOXS.>.A D Y j.L.U._._._._.).(.).'.'.'.|.:X,X3XpXlXvXZXDXFXZXnXwX$Xe.$.    , $.7.w.e.S.l.9.4.4.[ ] ~ ~ } | O.+.+.+.+.| +.+.+.o.+.",
"o.@.o.o.[ Q q - + + y D t.d.m.U.[.2XpXlXvXZXZXMXgX9XoXw./ & s D d.M.I.).`._._._.!.).).).!.(.)._. X2X7XxXBXZXSXZXbXwX@XS.$.        t V $.$.{ O..... .+. .o.o.+.O.+.| +.| +.| +.| o.o.",
"+.o.o.X.| ! e < - , M S Y d.b.P.'.<X7XlXvXZXZXcXsX;X.X5.3   % D p.M.I._._.]._._._.).).U.U.Z.Z.Z.W.}.5XaXcXNXVXmXdX0X+Xe./                 4 w W ] +.+.@.@.+.+.+.+.+.+.+.+.+.+.+.o.o.",
"@.+.+.o.[ ( W q 9 8 B S Y i.d.N.I.{.4XtXfXbXbXfXwX$XG.=.:   % D p.M.I._._.]._._._.).U.U.C.m.b.b.n.Q.#X4XtXkXgXfXwX*X.X0.p                   7 j } o.@.@.@.+.+.+.+.+. ...O.| +.| o.+.",
"o.o.+.o.| ] Q x e z C G G Y p.x.v.~.#X1X9XwXwX;X*X.Xr.R : X % J p.M.I._._.].]._._._.!.I.m.b.u.u.g.v.~.#X-X9XwX;X*XoXe.*.,                   7 k ~ o.@.@.@.@.@.O.+.+. .+.O.+.+.+.o.+.",
"+.+.+.+.| [ _ ( c ( ) S ..U <.i.g.l.D.E.OXOX+XXX.Xr.=.3 + O m U k.V.I.).].].].]._.).!.I.M.d.y.I U 2.8.J.XX+X$XoX.Xr.-.i                   * w b ] o.+.@.@.+.+.+.+.+.+.+.O.O.+.+.O.O.",
"+.+.+.O.| | | } } [ [ { S ..G K ;.>.>.6.9.q.q.5.=.R 3 : + 5 A Y z.L.Y.)._.].].].'.).I.P.M.p.U S M V &.5.0.w.r.0.5.&.i X               X # 7 z ( } o.+.@.@.+.+.+.+.+.+.+.O.O.| +.+.O.",
"+.+.O.+.o.o.o.o.O.O.| ` C C B m y y y p p i i i t - + + + y S 3.z.L.Y.).].].].].].).!.L.z.a.P n , - : u R H $./ u t +               X > 6 r B ] ..| +.@.+.+.+.+.| +.+.+.+.+.+.+.O.O.",
"+.O.+.O.+.+.o.@.+.o.| [ ! r 4 ; O O O + > 2 5 2 - O O X + y K 3.z.V.I._._.].].]._.).Y.L.v.3.K n + X         X . > 5 6 i i i i t 6 2 @ 2 5 r c C [ | +.+.@.+.+.o.+.+.+.| | +.| +.O.O.",
"o.O.+.+.+.@.@.@.@.+.o._ x 9 - O X + 3 p $.&.-.*.$.p 3 + + 8 S 3.x.L.Y.).].].].].]._.!.P.v.g.1.S y *     . o % & m { 5.8.w.w.7.5.&.p t > , 7 x c [ | o.@.+.+.+.+.| +.+.+.+.+.+.+.O.O.",
"O.+.o.O.+.+.+.@.@.+.o.( j > X   + 3 &.7.S.J.R.H.G.0.*.u ; 8 A Y z.P.U._.].].].].]._.).I.K.x.g.2.P S d s a a f D ,.l.H.E.+XOXXXH.w.*.p @ O # w b [ +.+.+.+.+.+.+.+.+.+.| +.+.+.+.O.+.",
"+.o.o.o.+.+.@.@.@.o.} ~ w O     - $.w.T.$X-X;X;X%XR.0.&.3 * d U h.V.!._.[.[.[.[.].`._.!.Q.V.v.k.s.i.t.t.g g F i.F.~.&X4X0X0X-X$XR.7.$.+     4 k _ | +.+.@.+.O.+.+.+.+.+.+.+.+.+.+.+.",
"+.+.+.o.+.+.+.+.+.o.| b 7       u 5.T.*XwXfXgXiXwX%XT.-.t # s U h.V.!.'.[.[.[.[.].`._.!.!.Q.P.K.B.n.u.u.u.u.u.B.^.>XtXdXzXgXsX;X+Xe.&.O     # j _ +.+.@.+.+.+.+.+.| +.| +.| | +.+.| ",
"+.o.+.+.+.+.+.@.+.+.} b 4       p 0.E.wXsXmXVXmXfX;XXX0.i . & D d.B.!._.[.].].`.].'._._.!.!.!.Q.I.A.Z.m.b.b.C.!.>XqXlXNXVXVXbXuX*XT.*.+     . j ~ +.+.+.@.+.+.+.| +.+.+.+.+.+.+.+.+.",
"+.+.+.+.+.+.+.@.@.+.| b 7       p w.+XwXbXBXAXBXzX9XoX0.i . & D p.M.Q.!.`.`.`.).).!.!.!.!._.!.!.).).(.A.(.A._.|.5XpXxXBXZXVXbXuX=XT.5.,     o j ( | +.@.+.+.+.+.+.+.+.| +.+.+. .+.| ",
"O.O.+.O.o.+.+.+.+.+.| b h .     H 0.OX9XfXmXMXmXsX;XoX0.i   & N Y x.V.Q.Q.W.Q.Q.I.I.Q.Q.W.W.(.`.'.[.].}.[. X,X2X7XhXxXNXVXmXgXwX*XT.-.6     * l } | +.+.+.+.+.+.+.+.+.| O.O... .| +.",
"o.+.O.O.+.+.+.+.+.o.+.~ j 7 # 7 H 0..X&XwXiXfXiX0X$XT.-.u   % d P g.x.B.B.B.B.v.v.v.V.V.C.Q.!.`.]. X X3X3X5X8X7XpXkXkXzXzXsXwX-XoXS.-.z * * h v _ | +.+.+.+. .+.+.| +.+.O.O.+.+.+.+.",
"+.O.O.O.+.+.+.+.o.o.| } v l j j / 7.S.OX&X;X;X;X$XE.w.&.t   o d D 1.a.z.z.k.a.a.a.g.k.c.B.C.W.(.[. X3X8XpXjXjXlXhXdXyXyX9X-X$XoXH.q.4.B j j l b |  .+.+.+.+.+.+.+.+.+.| O.O.+.+.+.+.",
"+.O.O.O.o.+.+.+.+.o.| } ~ ~ b b { 4.9.S.J..X.XJ.G.w.-.p 2 X   = m J P P P P P K K P 2.g.j.n.A.).[.3X8XpXlXvXNXcXxXsX4X=X+XR.S.w.9.4..._ b b ~ }  .+.+.+.+.+.| +.+.| +.+.O.+.+.+.+.| ",
"+.+.+.| +.| +.+.o.o.o.o.| | | | ....4.4.5.5.5.-.=.H p t $ O O * y y M M Z n y y y n S <.p.j.N.U.[.3X8XjXvXCXCXBXbXuX&X.Xw.*./ B ) { ..| } } X.X... . .+. .+.| +.O.| +.| +.+.o.o.+.+.",
"+.+.+.+.+.+.+.+.+.O.+.+.+. .+.+.X.[ ` B z 8 2 2 @ @ ; $ ; $ # $ , , $ , # + O X O + n G i.d.b.A._.2X7XlXBXCXZXBXgXwX$Xe.$.      4 k  .o.o.o.o.o.+.+.+.+.+.+.+.+.O.+.+.+.+.o.o.o.+.| ",
"+.| +.| +.| +.| +.+.+.+.@.@.@.+.o.] v h #           O * 4 6 6 4 > - - - - + O X X + 8 N G i.j.N.!.>X5XaXxXMXVXbXuX;X.X5.,       % l } o.@.@.@.+.+.+.O.O.+.+.+.+.O.O.+.+.+.+. .+.+.+.",
"+.+.+.+.+.+.+.+.+.+.+.+.+.@.@.@.o.} v 7 #     X     5 4 r r r r 0 9 < : - - - + - - 7 C G t.p.n.L.^.&X6XyXfXfXsX0X%XG.=.#       * E } o.@.@.@.+.+.+.+.O.+.+.| +.O.O.| +.+.+.| ..+.| ",
"| +.+.+.+.O.O.O.O.+.+.+.+.@.@.@.o.} ~ l 7 * o o # 7 w z ^ ^ ^ r r e e q q 9 9 9 9 0 z C G F i.p.g.Q.~.#X=X0X0X-X%X.XS.4.7     % j E o.+.@.#.@.+.+.+.| O.+.+.O.O.+.+.+.+.+.+.+.+.| +.",
"+.+.+.+.| O.O.O.+.O.O.+.+.+.+.+.o.} ~ ~ v l j j j k c ( ^ ) ' ) ( ^ Q Q Q W W W W W ( C C G ..G P 8.S.T.E.E.XX.XT.S.9.[ c j j l v ~ o.+.+.+.+.+.+.+.O.O.+.O.O.+.+.+.+.+.+.+.+.+.+.+.",
"+.+.+.+.+. .+.+.O.+.O.+.+.+.+.+.O.| |  .} _ } _ } ` [ [ [ | [ [ [ | [ [ [ [ | [ [ [ ` ` C C M A H H P -.5.7.7.7.5.5.4.{ [ ~ ~ _ }  .O.O.+.+.+.+.| +.| +.+.+.+.o.o.o.+...O.O.| +.+.+.",
"+.|  .+. ...+.+.+.O.+.+.+.+.O.O.O.| +.| | +.| +.o.| O.O.O.O.O.O.X.X.O.X.X.+.O.+.O.O.| [ C B y t $ $ $ 2 t t t p p ) ` ..O.O.+.+.+. .O.O.+.O.+.+.+.+.+.+.+.+.o.o.o.+. .| O.O.O.+.+.| ",
"+.| +.+.+.| O.O.O.+.+.o.o.o.+.+. .+.+.+.+.+. . .@. .+.+.+.+.@.+.+.+.@.+.+.@.+.+.@.+.| [ ) z 0 ; + X             # 7 v ] | @.@.@.@.+. .o.+.| +.| +.+.+.+.+.+... .+.+.+.|  .+.+.+.+.| ",
"+.+.| +.+.+.O.O.+.O. .| o.o.+.+.| ..+.+.+.@.@.@.+.@.o.@. .@.+.+.@.+.+.@.+.@.@.@.@.@.o.} ( z e < - +             o w v _ | @.@.@.+.@.@.o.+.+.+.+.| +.O.O.+.+.+. .+.+.+...o.+.+.+.+.+.",
"+.+.+.+.+.| +.+.+.+.+...+.+.+.+.+.+.+.+.+.@. .+.+.@.@. .@.+.+.+.+.@.+.+.@.+.+.@.@.@. .} ] ^ W e 0 < ; O X     * 7 l v }  .@.@.@.@.+. . .| +.+.+.+.| O.O.O.O.o.o.O.+.O.| o.o.+.+.+.+.",
"| +.| +.+.+.| +.+.+.+.+.+.+.| +.+.+.+.+.+.+.+.+.+.+.+.+.+.+.+.+.+.+.+.+.+. .@.+.+.+. . .[ ' ( ^ W k j w w 7 h j l b _ } +.+.+.@.+.+.o.+.+.+.+.+.+.+.O.O.O.+.o.o.O.O.O.+.o.o.O.O.| +.",
"O.O.|  .+.+.+.| | ..+.+.| +.| +.+.+.+.+.+.+...+. .+.+.o.+.+.+.+.+.+.+. .+.+.+.+.+.+.O.X.X.[ [ [ [ _ _ ( _ ~ ~ ] } } | | +.+.+.+.O.+.+.O.+.O.+.+.+.+.+.+.+.+.+.+.+.+.+.+.+.+.+.+.+.+.",
"O.O...+.o.+.+.+. .+.+.+.+.+.+.+.+.+.+.| +. .| +.+.+.+.+.+.o.+.+.+.+.+. . .+.+.+.+.O.O.X.O.O.O.+.o.o.| | | | +.o.| | +.+.+.+. . .o.o.o.+.+.o.O.O.| +.| +.O.+.+.+.| +.| +.+.| +.| | +.",
"O.+.+.+.o.o.+.+.+.+.+.+.O.O.| O.+.+.+.o. .+.+.+. .o.o.o.+.O.O.+.+.+.+.+.+.+.+.+.O.O.+.+.+.+.+.+.o.+.+.+.O.O.o.o. .+.+.+.+.+.+.| o.+.+.+.O.O.O.O.O.O.+.| +.+.+.+.+.+.+.| +.| +.+.+.+.",
"O.+.+.+.o.o.+.+.o.o.+.O.+.O.O.O.+.O.O.o.o.o.+.+.+.+.o.o.O.O.+.+. . . .+.+.+.+.+.O.O.+.+.+.@.+.+.@.+.@.+.@.+.@.o. .+.+.+.| +.+...+.o.o.+.+.O.O.O.O.O.+.+.| +.| +.| +.+.+.+.+.+.| +.+.",
"+.| +.+.+.| +.+.o.o.o.+.+.+.+.+.O.O.O.O.+.O.+.+.O.| +.+.+.| +.+.O.O.O.+.+.+.+.+.O.O.O.+.+.+.+.+.@.+.@.o.@.o.+.@.+.+.+.+.O.O.O.O.+.+.+.+.+.+.+. .O.+.+.+.+.+... .+.+.+.+.| +.+.+.| +."
};
