/* XPM */
static char *result[] = {
/* columns rows colors chars-per-pixel */
"90 105 246 2 ",
"   c #000000",
".  c #000D05",
"X  c #00000C",
"o  c #001A08",
"O  c #000014",
"+  c #00001D",
"@  c #020A18",
"#  c #04151B",
"$  c #121B1E",
"%  c #002700",
"&  c #013A02",
"*  c #00281C",
"=  c #063015",
"-  c #000024",
";  c #00022A",
":  c #000C2A",
">  c #021526",
",  c #0A1B22",
"<  c #001C2D",
"1  c #161C24",
"2  c #041631",
"3  c #32123F",
"4  c #042924",
"5  c #00232E",
"6  c #152523",
"7  c #182A26",
"8  c #1C2D24",
"9  c #003528",
"0  c #1B3429",
"q  c #002530",
"w  c #002E33",
"e  c #003436",
"r  c #043735",
"t  c #033C3A",
"y  c #0B3E3A",
"u  c #163B34",
"i  c #272C2E",
"p  c #243629",
"a  c #233B2A",
"s  c #293533",
"d  c #353D38",
"f  c #014700",
"g  c #105207",
"h  c #23620F",
"j  c #306E14",
"k  c #004433",
"l  c #034B37",
"z  c #0E413B",
"x  c #014C3A",
"c  c #0E4D3A",
"v  c #12433C",
"b  c #1B453A",
"n  c #1A4A3F",
"m  c #01523C",
"M  c #0C513E",
"N  c #2A452B",
"B  c #314A2F",
"V  c #2D5B24",
"C  c #34542E",
"Z  c #365B2D",
"A  c #25483A",
"S  c #364639",
"D  c #27513E",
"F  c #375233",
"G  c #3A5533",
"H  c #3C5B34",
"J  c #34593D",
"K  c #39593A",
"L  c #366728",
"P  c #3B6337",
"I  c #415E39",
"U  c #43643C",
"Y  c #466A3C",
"T  c #457831",
"R  c #497539",
"E  c #341A40",
"W  c #3A3242",
"Q  c #423E47",
"!  c #144C43",
"~  c #1B4D41",
"^  c #015A43",
"/  c #075B44",
"(  c #1D5344",
")  c #195A44",
"_  c #374A41",
"`  c #235544",
"'  c #2C5544",
"]  c #245946",
"[  c #2B5A45",
"{  c #255B49",
"}  c #295D49",
"|  c #315940",
" . c #315B49",
".. c #1E634B",
"X. c #27654D",
"o. c #2D634D",
"O. c #3A6245",
"+. c #2F6850",
"@. c #306950",
"#. c #356952",
"$. c #367056",
"%. c #424B44",
"&. c #474C4A",
"*. c #4A5749",
"=. c #525C51",
"-. c #476944",
";. c #51694B",
":. c #4D7343",
">. c #4F7746",
",. c #517543",
"<. c #547B45",
"1. c #577B49",
"2. c #557C49",
"3. c #4C6856",
"4. c #5A6959",
"5. c #47745B",
"6. c #5C7754",
"7. c #62735C",
"8. c #5B7C65",
"9. c #6A7866",
"0. c #71756F",
"q. c #717C6B",
"w. c #737771",
"e. c #4D8438",
"r. c #52873D",
"t. c #529136",
"y. c #568744",
"u. c #5B854D",
"i. c #5E8B4C",
"p. c #5D9545",
"a. c #5E8751",
"s. c #608D4E",
"d. c #62954C",
"f. c #639D4B",
"g. c #638E51",
"h. c #668959",
"j. c #659352",
"k. c #699657",
"l. c #6A9B55",
"z. c #6D9D59",
"x. c #67A54C",
"c. c #6CA454",
"v. c #6EA756",
"b. c #71AC56",
"n. c #72A55C",
"m. c #74AB5C",
"M. c #73B555",
"N. c #75B15B",
"B. c #79B55E",
"V. c #7ABA5D",
"C. c #6C8967",
"Z. c #74846D",
"A. c #6D906D",
"S. c #77996A",
"D. c #778673",
"F. c #7C8B75",
"G. c #799778",
"H. c #76A464",
"J. c #77AA60",
"K. c #79AD62",
"L. c #7DB464",
"P. c #7EBB62",
"I. c #7FC160",
"U. c #818E79",
"Y. c #84967C",
"T. c #81BD66",
"R. c #82B76A",
"E. c #83BD6A",
"W. c #87A779",
"Q. c #87B174",
"!. c #89B874",
"~. c #82C264",
"^. c #86C16C",
"/. c #89C56E",
"(. c #87C969",
"). c #8AC96E",
"_. c #8BC671",
"`. c #8DCA72",
"'. c #91CC75",
"]. c #91C57A",
"[. c #94CB7B",
"{. c #98CE7F",
"}. c #96D07C",
"|. c #8A9B83",
" X c #919E88",
".X c #8EA386",
"XX c #95A68B",
"oX c #97B787",
"OX c #9AA692",
"+X c #9CAC92",
"@X c #9DB395",
"#X c #A1AE97",
"$X c #A5B89A",
"%X c #ACBDA0",
"&X c #9ACD83",
"*X c #9CC988",
"=X c #9DD285",
"-X c #A2CE8C",
";X c #A0D787",
":X c #A3D38C",
">X c #A8C797",
",X c #A6D291",
"<X c #AAD594",
"1X c #ABD995",
"2X c #AED799",
"3X c #B2D79E",
"4X c #B2DA9D",
"5X c #B3E29C",
"6X c #ACC0A2",
"7X c #B4C8A7",
"8X c #BACDAC",
"9X c #B6DCA2",
"0X c #B9DCA7",
"qX c #BBD1AD",
"wX c #BDCEB0",
"eX c #BED3B2",
"rX c #B9E1A5",
"tX c #BDE2AA",
"yX c #C1DEAF",
"uX c #C1D5B4",
"iX c #C3DBB5",
"pX c #C7DBB9",
"aX c #C9DEBB",
"sX c #C1E6AE",
"dX c #C5E5B3",
"fX c #C7E8B3",
"gX c #C9EAB6",
"hX c #CCE3BD",
"jX c #CDEBBB",
"kX c #D1EEBF",
"lX c #CEF2BA",
"zX c #CFE3C1",
"xX c #D1E6C2",
"cX c #D4EBC3",
"vX c #D7EDC9",
"bX c #D9EEC9",
"nX c #D6F2C4",
"mX c #D9F4C7",
"MX c #DCF4CB",
"NX c #DCFBC8",
"BX c #E0F9CF",
"VX c #E1F7D1",
"CX c #E4FCD3",
"ZX c #E8FFD6",
"AX c #ECFFDA",
"SX c #F0FFDF",
/* pixels */
"@.+.@.+.@.+.@.@.+.+.+.+.@.@.@.+.+.@.+.+.@.+.+.+.#.@.#.@.@.$.@.$.@.@.@.@.$.@.@.@.@.#.$.@.@.$.@.@.@.$.@.@.@.$.@.@.@.$.@.$.@.@.@.@.#.@.@.+.@.+.@.+.+.+.#.+.@.@.+.@.+.@.@.+.+.#.+.+.@.@.",
"@.+.@.+.@.+.+.+.+.@.@.+.+.@.@.@.+.@.+.+.+.@.#.+.@.@.@.@.@.#.$.@.@.$.$.@.@.$.@.$.@.#.@.$.$.@.$.@.$.@.@.$.@.#.@.$.$.@.$.@.@.$.@.$.#.@.@.+.#.+.+.+.@.+.@.+.@.+.@.@.o.O.+.+.@.+.@.+.o.O.",
"+.+.+.+.@.@.@.+.+.+.@.#.+.@.@.+.@.@.@.@.@.@.+.+.@.@.@.@.@.@.@.@.@.@.@.@.@.@.@.$.@.@.@.@.+.@.@.@.@.@.@.@.@.@.@.@.@.@.@.@.@.@.@.@.@.@.@.@.+.+.@.@.+.+.+.+.@.@.@.+.@.@.+.@.+.+.+.#.@.@.",
"@.#.+.@.@.o.O.@.#.+.+.+.@.@.@.@.@.@.@.@.+.+.+.@.@.+.@.@.+.+.@.o.+.+.+.+.+.+.+.X.+.+.@.o.X.+.@.+.+.+.+.@.+.+.@.o.+.o.+.+.@.X.+.+.o.+.@.+.+.+.@.+.@.@.+.#.@.+.@.+.@.@.@.+.@.@.+.+.@.+.",
"+.+.+.+.@.+.@.@.+.+.+.@.O.@.@.+.@.@.+.@.@.@.+.+.+.o.} } } } ] ] { { { { } } } } } { } } } } } } } } { } } } { } } } ] } } } } o.o.#.o.@.@.@.@.@.+.#.@.+.+.#.+.@.@.@.@.o.@.@.@.+.@.@.",
"+.#.#.+.@.+.@.+.@.#.+.+.o.@.@.@.@.@.@.@.$.#.@.+.o.} { ( ~ ! n n n n n n n n n n n n n n n n n ~ n n n n n n n n n v n n ! n ( ] } X.+.@.$.@.$.@.@.+.+.+.+.+.+.#.@.@.@.@.+.@.@.@.@.+.",
"+.+.#.@.+.@.+.@.+.@.@.+.+.@.+.+.+.@.$.+.$.@.#.+.} ` ~ y e q q 5 q w w w w e w w w w w w w w w w e w w w w w w w w q 5 q q e y ~ ( X.+.@.$.@.@.@.@.+.+.@.@.+.+.+.@.o.@.@.@.+.@.+.@.@.",
"@.+.+.+.@.@.@.@.@.+.+.#.+.+.+.@.+.+.+.$.$.$.#.o.} ( z w : - - - - - ; - ; - - - ; - ; ; - - ; - - - ; ; - - ; ; - - - - - > q v ( { +.+.$.$.$.#.@.@.#.+.+.#.@.+.@.@.@.o.O.@.@.@.@.+.",
"@.@.@.@.@.@.@.@.@.@.o.@.+.@.+.@.@.@.#.$.$.@.@.o.{ ~ u q - + O X + + + + + + + + + + + + + - + + - + + + + + + + + + O O O - 5 u ~ ' o.@.#.$.$.@.@.@.@.@.@.@.@.@.@.@.+.+.@.+.+.+.#.@.",
"@.+.@.+.+.@.@.o.@.+.O.@.@.@.@.+.+.+.+.@.@.@.#.o.[ ` A 0 8 $ $ $ $ 6 6 6 6 6 7 7 6 6 6 6 6 7 6 6 6 6 6 6 7 6 6 6 6 $ $ $ 1 8 u b D } o.+.+.#.#.@.@.@.@.@.@.+.@.@.@.@.+.@.+.+.@.+.+.+.",
"@.+.@.+.@.+.@.@.@.@.@.@.@.@.@.@.+.+.+.X.+.X.} } [ J J F G G I B F F G F F F G G F F F F B F F F G F C F F F G F C F F G F F G J | [ } o.X.o.o.X.@.@.@.@.@.@.@.+.+.+.+.@.+.@.@.@.#.+.",
"O.@.+.+.@.+.@.+.@.+.@.@.@.@.#.@.+.+.} { ( ! ~ ` | | U -.,.,.1.R R ,.,.,.,.,.,.R ,.,.,.,.,.,.,.,.,.,.,.,.:.,.,.,.,.,.R 1.,.:.Y -.P ' D ~ ! ( { X.o.@.@.@.@.@.@.+.@.#.+.+.@.@.@.@.+.+.",
"+.@.+.@.@.@.+.@.@.@.@.@.#.@.$.$.@.o.) ! t e r b J -.>.u.s.j.j.k.k.g.g.g.g.d.s.g.g.g.j.g.g.j.g.j.s.j.g.g.g.g.g.g.g.j.j.j.j.g.u.>.-.D b r e t ! ` o.+.@.$.@.@.$.+.+.@.@.+.@.@.@.o.@.+.",
"+.@.@.+.@.+.@.@.+.@.@.@.$.$.$.@.#.} ( t 2 ; : 0 K :.u.j.z.n.m.m.m.n.n.n.n.n.n.n.n.n.n.n.n.n.n.n.n.n.n.n.n.n.n.n.J.m.J.J.n.n.j.u.:.K 0 ; ; q t ( o.+.$.$.$.@.@.@.#.+.@.@.+.@.@.@.@.+.",
"+.@.+.+.@.@.@.@.@.@.@.@.@.$.$.$.+.} ! w ; - - a K 2.j.H.R.R.E.E.E.T.R.R.R.R.R.R.R.L.L.L.L.R.L.L.R.L.R.L.L.R.R.R.R.T.E.E.E.L.H.j.1.K p - ; ; w ! X.@.@.$.#.$.#.+.+.@.+.@.@.+.@.@.+.@.",
"#.+.+.@.@.+.@.@.X.@.@.@.@.$.@.X.+.} ~ e : - , B Y u.z.K.E./.`.`./.!.E.^.E.^.T.^.^.^.^.^.^.^.^.^.^.^.^.^.^.^.E.^.^.^._._.^.E.K.z.i.Y B , - : e ~ } +.@.@.#.@.+.+.+.+.@.+.@.@.O.o.@.@.",
"+.+.@.+.@.+.@.O.@.@.+.+.o.+.o.o.} [ ` A 0 a B U <.k.n.R.E.).`.`.`.)././.)./././.)./.)./././././././.)._./.)._._.`.`.'.'.).).T.m.k.<.Y B s a b D [ [ o.o.+.+.+.+.@.@.@.@.@.@.o.@.@.@.",
"@.+.@.@.@.@.+.@.@.@.+.o.} } { ` '  .J J K U Y u.g.n.R.T./.).`.`.`._.`.`._._.`.`._._._._.`._.`._.)./.).`./.`.`.`.`.`.'.'.'.(.T.L.z.j.1.R I H J J ' } ] { } } o.+.@.@.@.@.@.@.@.@.@.@.",
"+.@.@.+.@.@.@.@.@.@.o.o.{ ( ~ ~ D J | -.>.2.s.k.z.m.R.E./.`.`.`.`./././././._././././.)././._./.^._._.`.`.`.`.`.'.'.'.'.'._.^.T.m.n.k.s.1.>.-.O.J A n ~ ( { o.o.@.@.@.@.@.@.@.@.o.@.",
"@.+.@.@.@.@.@.@.@.@.o.} ` v t u A K -.2.a.k.n.m.L.R.E.E.E././._./.^./.^././.^./.^./.^././.^.^._._.).^.).`.`.`.`.`.'.`.`.'.)./.E.R.R.m.z.l.a.2.-.J A u y v ( } o.@.@.@.@.@.o.@.@.@.@.",
"@.@.@.@.@.@.@.@.@.@.+.] ~ e 5 5 a K :.i.z.J.L.R.E.E.E.E.^.^.^.^.^.^.^.^.^.^.^.^.^.^.^.^.^.^.^.^.E.^._.)._./.`._.).`.`._.).)././.E.E.E.R.n.k.a.,.F u 5 5 e n ] o.@.@.@.@.@.@.@.@.@.o.",
"@.+.@.+.@.@.@.$.@.@.o.] z q - + 0 G ,.g.n.L.E./.).)./.E.^.^.^.^.^.^.^.^.^.^.^.E.^.^.^.^.^.^.E.^.^.^.E.E.^.E.^.^.E.^.^.^.E.^.E./././.`.E.R.n.g.R G p + - 5 v ` o.@.@.@.$.@.@.@.@.@.@.",
"+.@.@.@.+.$.@.$.@.@.o.` z < + O 8 G <.j.J.E./.`.`.`.).^.^.E.T.^.E.^.^.^.^.^.^.^.^.E.^.^.^.^.^.^.^.E.E.E.E.R.L.L.R.L.L.L.L.L.E.E./.`.`./.T.m.k.1.G 8 O + < z ( o.@.@.$.@.@.@.o.@.@.@.",
"@.@.@.+.+.@.@.@.@.+.o.` y : + O 1 I <.j.J.E.`.`.`.)./.^.^.T.T.T.E.T.T.E.E.^.E.^.E.^.^.^.^./._.^.^.E.E.L.J.n.v.l.l.l.c.l.l.n.m.R.T./.`./.R.R.l.<.G 8 O + : z ` o.@.@.$.@.@.@.@.@.@.@.",
"o.@.@.@.@.@.$.@.@.@.+.] y < + O 8 I R k.R.R./.`.).).E.T.T.V.T.V.P.V.P.P.T.T.T.~.^.^.^.^._._.`._./.E.L.n.j.p.i.R R R T R y.y.p.n.L.T.).).E.K.l.1.G 8 O + < y ( o.@.$.@.$.@.@.X.@.@.@.",
"@.@.+.@.@.@.@.$.@.@.X.` z 5 - + 8 G <.j.m.R.E.`.).(.T.~.V.V.V.V.V.V.V.V.P.P.P.E.E.^.^._._.`.'.`./.E.m.l.y.T L g f f f g h L R i.v.L.E./.E.K.l.1.I 8 + - < y ` o.@.@.$.@.@.@.@.@.o.@.",
"+.+.+.@.@.@.@.@.$.@.o.D z 5 - + 1 I ,.j.m.R.E././.(.T.~.T.V.V.V.V.V.V.V.P.P.T.T.E.^.^._.`.`.`.`./.L.n.p.R V &             f L y.l.B.E./.E.R.k.1.G 8 + - 5 v ` o.@.$.@.@.@.@.@.@.@.@.",
"#.@.+.+.@.@.@.$.@.@.o.` v q - + 8 I <.j.n.R.E._./.(.^.T.T.T.T.T.~.T.T.T.E.E.~.^.^.E.^.^./.`.`._.^.L.n.i.R C #             * C y.k.K.E.E.E.K.k.1.G p + - 5 v ` o.@.@.$.@.@.@.@.X.@.@.",
"+.+.@.+.@.@.$.@.@.@.o.` v 5 - - 8 I 1.g.n.R.E.'.'._._.].].].].].].].].]._.`._._._.E.E.E.^.^.E.E.L.K.z.h.6.*.%.d E 3 E E W &.;.h.n.R.R.E.E.m.l.u.H 0 + - 5 v ] o.@.@.@.$.@.@.@.@.o.@.",
"+.@.@.@.@.@.@.@.@.@.o.` v 5 - + 8 G R s.c.R.E._.[.{.{.-X-X-X,X,X,X,X-X-X*X*X&X]._.^.E.T.B.L.m.m.n.z.z.A.C.Z.q.w.w.0.w.w.D.D.S.G.Q.!.E.E.R.b.g.R G 8 + - 5 v ` o.@.@.$.@.$.@.@.@.@.@.",
"+.+.@.+.@.@.@.#.@.@.X.` z 5 - + 8 G R s.c.R.T.'.{.;X,X1X4X4X0X0X9X0X9X9X2X,X*X&X]./.T.B.v.x.d.p.i.h.C.S.Y..XOXOXOX#XOXOX#X+X@XoX!.!.T.T.M.x.y.R C 8 - - 5 n D X.@.@.$.@.@.@.+.+.@.@.",
"@.@.@.@.@.@.#.#.$.@.o.` v 5 - + 8 G R i.l.N.E.'.-X<X4XyXsXdXgXgXgXgXdXdXtX9X2X:X[./.L.M.t.e.j j L ,.C.Y.OX%X%X%XuXuXuXuXuXqX7X<X-X[./.~.x.f.r.T C 8 - - e c D +.@.@.@.@.@.+.+.+.@.@.",
"@.+.+.@.+.@.@.@.@.@. .] v q - + 0 C R y.f.N.^.[.=X4XtXtXcXcXvXvXmXmXnXcXfXtX9X<X&X_.L.x.t.h f & f ;.Z.|.$XqXaXxXvXvXbXbXvXhXhX0X2X;X`.T.x.t.e.T B 8 O - q v { } #.#.@.@.@.+.+.+.@.o.",
"+.@.+.+.@.+.$.$.#.@.o.` v q - + 0 C R y.x.N.^.&X1XrXfXcXnXBXCXCXCXCXVXMXnXfXtX1X&X_.B.f.t.h &   > =.F.+X7XhXmXVXCXZXCXCXVXMXkXfX4X<X[.T.M.f.r.R C 8 + - 5 v ] o.@.@.$.@.$.+.@.@.@.@.",
"+.@.+.@.@.@.$.@.@.@.o.] v q - + 8 C R r.f.m.^.=X1XtXgXnXBXCXAXAXAXAXZXVXmXlXtX4X=X/.B.x.e.L g 0 W 0.|.%XiXvXVXAXAXAXZXZXVXmXcXfX5X2X-X_.B.c.s.R G 8 + + 5 y D o.@.@.$.$.@.@.+.@.@.@.",
"@.+.@.@.@.@.@.@.@.@.} ] y q - - 8 C R y.p.N.P.&X1XtXjXmXCXAXSXAXSXAXAXVXMXcXtX1X=X/.L.v.t.i.6.4.0.|.+X8XhXMXZXAXAXZXVXMXvXhXhXdXyX4X<X-X!.R.z.6.*.p + O < k ` o.@.@.@.@.@.+.@.@.@.@.",
"@.@.@.@.@.@.@.$.#.@.o.] y q - + p C T r.f.M.^.&X1XtXnXNXZXAXAXSXSXAXAXCXmXjXtX1X&X^.L.K.H.H.G.Y. X%X%XaXvXVXZXZXCXMXvXaXuXqXqX9XyX9X3X3X,XoXW.h.;.p X X > r ) +.@.@.$.@.@.@.@.@.@.@.",
"@.+.+.@.@.@.$.@.$.@.o.` v q - + 8 F R r.p.N.^.=X2XtXjXNXCXAXSXSXAXAXZXVXmXgXtX<X&X^.E.!.!.oX@X>X%X8XpXxXVXVXCXCXbXaXuX6X$X+X#X>X3XyXdXdXyX3XW.U.4.s     O 9 n o.@.$.@.@.@.@.@.@.@.@.",
"+.@.@.@.@.@.@.@.@.+.o.` v q - + 8 C Y r.f.N.P.=X1XtXjXmXCXZXSXAXAXAXZXVXvXgX0X,X&X^.^.!.*X>XqXeXaXzXvXMXVXVXVXMXhXqX$X XF.D.Y.+X7XyXjXjXdX8X$XY.7.d       r M o.@.@.$.@.@.@.@.+.+.+.",
"+.@.+.@.+.@.$.$.@.+.o.` v q - + 8 C R r.f.N.^.=X1XrXgXvXVXCXAXZXAXAXCXMXnXfX9X:X].^.^.&X,X0XtXcXbXVXVXZXAXZXVXvXpX6X.X9.=.*.7..X%XaXkXBXkXiX%X X9.d       9 M +.+.$.@.@.@.@.@.@.@.+.",
"@.+.O.+.+.@.@.@.#.@.o.] z q - + 8 G R y.f.b.T.{.1XrXfXcXmXVXCXCXCXZXCXVXvXfX9X:X]./._.*X2XtXnXBXCXZXAXZXAXZXVXcXuX$XF.*.O X *.Y.%XaXMXVXVXhX7XXXq.d       9 c o.@.@.$.@.@.@.@.@.+.@.",
"@.+.@.@.@.@.@.$.@.@.o.] z 5 - + 8 G R y.c.T.E.{.:X4XrXfXkXnXMXVXVXCXCXVXvXgX9X:X].P._.*X9XtXnXCXZXSXSXSXSXZXBXcXqX+Xq.d     d U.%XhXVXCXVXxX7XOXq.S       9 M } @.@.$.@.@.@.+.@.@.@.",
"+.+.@.+.+.@.@.$.@.@.o.` z < - + 8 C R p.f.R.E.{.=X1X4XrXtXgXcXmXBXVXCXVXmXjX0X,X&X_./.*X5XfXnXCXAXSXSXSXSXZXBXcXqX+X9.8     s F.%XhXCXZXCXxXuXOXq.d       4 M X.+.$.@.@.@.@.+.+.@.+.",
"+.@.@.@.+.@.$.@.@.+.o.` y < + O 8 G R j.b.T.).}.=X=X:X<X9XtXdXjXmXVXCXCXMXcX0X,X].P._.&X9XtXnXCXAXSXSXSXSXZXBXcXuX+XC.6     s F.%XhXVXZXCXbXuXXXq.d       * M } +.@.@.$.@.+.+.@.@.@.",
"@.@.@.+.@.@.$.@.@.@.o.` y : + O $ I R j.m.T.T.'.}.}.&X&X*X<X0XdXcXBXCXCXBXcXtX,X].L.!.&X3XtXnXBXZXAXSXAXAXAXBXcXqX#Xq.i     d U.%XhXBXZXCXbX8XOXq.d       4 x o.@.@.@.@.@.@.@.@.@.+.",
"@.@.+.+.+.@.@.$.@.@.o.] z < + O 8 I 1.k.R.R./.`.`.`.^./.].&X<XtXjXmXVXCXNXcXtX<X&X/.P.&X9XtXcXBXZXAXAXAXAXZXBXvXuX#XD._     &.U.6XhXBXZXBXhX8XXX9.d       9 M o.@.@.$.@.@.@.@.@.@.@.",
"+.@.+.@.@.@.@.$.#.@.o.] v q - + 8 I <.g.z.R.T./.~.P.V.V.P._.&X4XtXcXmXBXmXcXrX,X].!._.&X2X0XcXmXVXZXAXZXZXZXBXcXiX$X|.4.d s 4.Y.%XaXbXBXmXaX7X Xq.S       9 c o.@.$.@.@.@.@.@.@.@.+.",
"@.@.+.@.@.@.@.@.@.+.o.] ! r 5 , 8 I Y i.k.n.R.T.P.V.M.M.V.E.&X<XtXjXcXnXcXtX9X=X].P._.&X,X9XtXcXnXNXVXCXCXZXCXnXhX7X+XU.9.7.Z..X$XuXhXhXpXuX$X|.7.S O   o k ) o.@.@.@.$.@.@.@.@.+.@.",
"+.@.+.@.@.#.@.@.@.@.O.{ ( v y u b J -.2.i.j.n.n.m.b.M.M.V.I.[.,X4XtXfXgXfXtX2X=X]./.`.].=X1XrXsXjXnXmXNXBXCXCXMXcXiX7X#XXX X X+X$X8XuXuX7X$X.XF.4._ 9 4 9 x ) o.@.@.@.#.@.+.@.@.+.+.",
"@.@.+.@.+.@.@.@.@.@.o.o.{ ( ~ n D J O.-.:.u.s.j.l.v.b.M.P.).[.=X1X4XrXrXrX4X,X&X`./._.].&X:X1X9XtXfXkXmXBXCXZXCXVXcXpXuX7X>X$X$X%X$X$X#XXXY.F.9.3. .l k x M X.o.@.@.@.@.@.@.+.+.@.@.",
"+.+.+.@.+.@.@.#.@.@.@.o.o.} } { [ J [ [ K I -.<.i.l.b.V.~.`.}.=X=X1X1X1X<X=X=X[.`.`.`.`.].&X=X:X1XrXfXlXNXBXZXZXCXCXMXvXhXpXuX7X$X+X XF.Z.9.4.3.3. .( ) ) X.o.+.@.@.@.@.@.+.@.@.+.#.",
"@.@.+.+.+.@.@.+.@.@.+.+.o.+.o.o.o.] D W u p B U R d.n.R.^.`.`.[.}.}.&X&X&X&X].`._._././._.).`.}.=X1XrXgXnXBXZXZXZXAXZXCXBXcXpX8X$X|.q.4.%.S A [ } o.} X.o.X.+.@.@.@.@.+.@.+.o.O.+.+.",
"+.@.@.@.o.@.@.+.+.@.@.@.+.@.$.@.+.} ! e ; + > B Y s.z.K.P./.`._./.^.^.^.^.^.^.^.^.^.E.~.V.V.V.I._.&X<X0XgXnXMXCXZXZXAXZXZXMXhX8X+XF.=.,     o k ( o.@.$.@.@.@.@.@.@.@.@.@.@.+.@.+.#.",
"@.@.@.+.@.@.+.+.@.@.@.@.@.$.$.@.+.} ! e ; + + p I 1.j.S.L.L.P.P.L.N.N.N.N.m.K.L.L.L.L.L.M.M.x.x.m.!.*X>X0XhXkXbXbXVXCXVXMXcXpX6XXX9._         9 ) +.@.$.$.$.@.@.@.@.+.+.@.+.@.@.@.+.",
"+.@.O.@.@.+.@.@.@.@.@.@.$.$.$.$.+.o.) t < ; : u K :.a.k.n.H.m.v.c.x.p.p.p.x.l.c.c.n.z.l.f.t.t.t.f.m.Q.oX$X7XqXuXpXhXhXxXhXpX8X$X|.9.A         k ) +.$.$.$.$.@.@.#.+.@.+.@.@.@.@.+.+.",
"@.@.+.+.@.@.+.+.@.+.+.+.+.@.$.@.+.X.{ ! t e e b K -.>.a.g.g.g.i.y.y.e.y.>.y.y.u.u.a.u.y.e.t.j j L y.h.S.W..X+X$X$X%X7X7X7X>X#X.XD.4.A o   . 9 m ) @.$.$.@.@.@.@.+.+.@.+.@.+.@.+.@.+.",
"@.@.@.@.@.+.+.+.@.@.+.@.@.@.$.@.@.+.X.{ ) ~ ~ ' |  .-.:.,.,.,.Y Y P P Z P P U U -.-.U L V h f f g V U ;.6.Z.Z.F.Y.|. X X X XU.F.8.3.' l k k l ) X.@.@.#.#.@.#.+.+.@.@.@.+.@.+.@.@.+.",
"@.@.+.@.+.#.+.#.+.+.@.@.@.@.@.@.@.X.o.o.X.X.} }  .| J K G G B B N N N a a a a N a N a 0 = % % % % % = 0 S S &.*.=.4.4.4.7.7.4.4.3.3. .} ) ) X.X.o.@.@.@.@.@.@.+.+.+.@.+.@.@.@.@.+.+.",
"+.@.@.+.+.@.@.+.@.@.+.+.+.@.@.@.+.@.@.+.#.@.+.o.[ D A u 7 1 1 $ , , , # , # # , , , 4 # # @ @ @ @ @ @ # # > 1 1 1 1 1 i 7 s s ' D [ o.@.#.@.@.@.@.@.+.+.@.@.+.@.#.+.+.@.@.@.+.@.+.@.",
"O.@.@.@.+.+.+.+.+.+.+.@.@.@.@.+.+.+.$.@.$.#.@.+.] n 9 : + O X X + , 7 0 0 0 0 8 7 8 p s d _ %.&.*.&.&.&._ S d s 1 O           # k n X.@.$.$.$.$.@.@.@.@.@.@.+.@.+.@.@.+.@.o.O.@.@.@.",
"o.+.@.@.+.+.@.@.+.@.+.@.@.@.@.@.@.@.$.$.$.$.@.o.` v q - O   O @ 0 B K K I H H C C H *.;.4.9.q.D.D.F.D.D.Z.q.9.4.=.d $           9 m X.@.$.$.$.#.@.@.@.@.@.@.@.+.@.+.+.+.+.@.+.+.@.@.",
"@.@.@.+.@.@.+.+.@.@.@.@.@.+.@.+.@.@.@.$.$.$.@.o.` z q - O O # a G U >.2.u.<.y.R R <.u.C.U.W.XX+X#X$X#X#X#XOX.XY.D.7.&.1         4 m X.@.$.$.$.$.@.@.@.@.o.O.+.@.@.@.@.@.@.+.+.@.@.@.",
"+.@.+.+.+.@.O.@.@.@.+.@.+.@.@.+.@.@.@.$.$.@.@.o.` z 5 - + @ p I :.u.g.z.c.l.f.p.d.j.n.Q.oX>X7XqXuXpXpXuXuX8X7X$XOXU.9.&.@       9 x X.@.$.$.#.@.@.@.@.@.@.@.@.+.@.+.+.+.@.+.+.@.@.o.",
"+.+.+.@.@.@.o.@.+.@.+.@.+.+.+.@.+.@.+.@.$.@.@.o.` z 5 - + 8 F Y i.k.n.K.L.L.m.m.v.m.Q.oX>X9XhXhXbXbXbXbXbXcXhXuX7X+XU.4.d       9 M o.@.@.@.@.@.@.+.@.+.+.@.@.@.@.@.#.+.+.+.#.+.@.@.",
"#.+.@.@.+.@.+.@.@.+.@.@.@.+.@.@.@.@.@.@.@.@.@.o.` y 5 - + p H ,.j.n.L.E.^.^.I.V.M.T._.*X3XtXxXMXVXCXZXZXZXVXMXcXuX$X X9.I       4 M } +.@.$.@.@.@.+.@.@.+.@.@.+.@.+.+.@.@.@.+.@.+.@.",
"+.@.@.+.@.@.@.@.+.+.+.@.@.@.o.O.+.@.@.@.$.@.@.X.` y < - + p I 2.k.J.E._.).).(.~.~.(.].:X9X0XjXvXVXCXZXAXAXAXZXmXaX7XXXq.%.      * m o.@.@.@.$.@.@.@.+.+.+.@.@.@.+.@.+.+.@.@.@.@.@.@.",
"+.#.+.@.@.o.@.+.+.@.@.+.@.@.@.@.@.@.@.#.$.@.@.[ ` y > - + p U <.l.K.E.`.`.`.(.~.~.(.'.*X,X9X0XhXcXvXVXZXAXAXAXVXhX8X+Xq.%.      * x X.@.$.@.@.@.@.@.@.+.@.+.+.+.@.@.@.+.+.+.#.+.+.O.",
"@.+.+.+.@.O.@.@.#.+.+.+.+.@.+.@.@.@.@.$.#.@.@.o.` t < - + p I u.z.K.E._.`.).).(.~.~._.].*X-X6X7XeXpXxXVXZXAXAXVXxX8X+Xq.%.      * x } +.@.$.@.@.@.+.+.+.@.O.@.@.+.@.@.+.@.+.+.+.@.@.",
"@.+.+.+.+.+.@.+.+.+.@.#.@.@.@.@.+.@.@.@.$.@.@.o.( y < - + p I <.k.K.E._.).(.(.(.I.V.T.E.Q.W.W.XX#X%XuXxXMXAXAXVXxX8X+XD.%.      * x X.+.@.$.+.@.@.+.@.@.@.@.+.@.@.@.@.+.@.@.+.@.@.@.",
"@.@.+.#.@.@.@.+.@.+.+.+.@.+.@.+.@.@.@.@.$.@.@.X.` z < - + p I 2.j.J.R.^.(.(.(.(.~.V.V.m.z.j.h.9.w. X%XuXvXVXZXVXxX8X+Xq.%.      * x } +.$.@.$.@.@.@.@.+.+.@.@.+.+.@.@.o.+.+.+.@.@.o.",
"@.+.@.+.+.#.+.+.@.+.@.@.+.@.@.@.+.@.@.$.$.@.@.o.` z < - + p H <.j.J.T./.).).(.).(.T.L.n.p.R V B *.w.OX7XhXMXVXMXxX8X+XZ.%.      * m X.+.+.$.+.@.+.@.+.+.@.@.@.+.@.+.@.O.@.@.+.+.+.@.",
"@.@.+.+.@.+.+.@.@.+.@.o.O.@.@.+.+.@.@.@.@.@.@.X.( y < - + p I <.j.m.L./.).'.'.}.'._.E.J.i.L %   O =.U.$XuXvXMXmXhX7XXXq.S       9 M X.@.@.+.$.@.@.@.@.+.O.@.+.+.@.@.@.@.+.+.+.#.+.@.",
"@.@.@.+.+.@.@.@.+.+.+.#.#.+.+.@.+.@.@.@.#.@.+.} ` y < - + p G R d.n.T.^.'.{.}.;X:X-X*XQ.z.Y o     s q.+X8XhXjXjXiX>X X9._       9 M } +.@.$.@.@.@.@.@.+.@.@.@.@.#.+.+.#.@.+.@.o.+.@.",
"+.@.@.@.@.@.+.+.+.@.@.+.+.+.@.+.+.@.$.@.$.@.@.o.( y < + + p I <.d.n.T.^.{.;X1X5XrX4X3X-XY.7.p     - 7.W.>X0XfXyX9X$XY.7.S     X 9 n o.+.@.$.@.@.+.@.@.@.@.@.+.+.+.+.@.+.+.@.@.O.+.+.",
"@.+.@.O.O.o.+.@.+.#.+.+.+.@.#.+.@.@.@.$.@.@.@.o.( t : + X p H R d.v.L._.{.1X5XsXlXgXdX7XoXF.&.    X ;.S.oX<X9X9X-XoXS.4.S X   + 9 ( } +.$.@.@.@.@.+.@.+.o.@.+.@.+.@.@.+.@.+.@.@.@.@.",
"@.@.@.o.@.@.@.@.+.+.+.@.+.@.+.+.+.@.@.@.$.@.o.o.( r - + X 8 I R p.v.P.`.;X5XsXlXlXmXkXpX$X|.4.;     I h.W.*X*X-XoXW.k.;.s O O : r ( o.+.@.@.$.@.@.@.@.@.@.@.@.@.+.+.+.+.@.+.+.@.+.+.",
"+.@.+.+.#.+.+.@.@.+.@.+.@.@.+.@.@.@.@.@.$.@.@.o.` t > + O p H R p.x.B.`.;X5XfXkXBXBXNXhX7XXX0.s   . V i.J.!.]._.R.S.g.Y s O + < t ( o.+.#.@.$.@.@.+.+.+.@.+.+.@.@.@.@.+.@.@.@.@.+.#.",
"+.+.@.+.+.@.@.@.+.@.@.@.O.@.+.@.+.@.@.$.@.$.+.o.` z 5 - - p Z R y.f.N.E.{.5XsXkXNXBXbXaX7XOX0.&.* & L r.v.P.~.L.N.l.R I p + ; q z ` } #.@.#.@.@.@.@.@.+.@.+.@.@.+.@.@.@.+.@.+.@.+.+.",
"@.@.+.+.+.@.@.@.@.+.@.+.o.+.@.+.@.@.@.@.@.@.o.o.` n e 5 5 N H R y.p.n.K.].-X4XdXhXzXhXpX6XXXD.;.C V T p.v.B.V.V.b.d.R H p + - < v ` } +.$.@.@.@.@.@.@.@.+.@.@.@.+.@.@.@.@.@.@.+.+.#.",
"+.+.+.#.@.+.@.+.@.@.@.@.@.@.@.+.@.@.@.@.@.@.@.o.{ ( b y z A J U R r.d.l.Q.oX$X7X8XuXwX7X@X.XF.6.R e.t.x.M.V.P.V.b.d.y.I p + - q y ] o.+.@.$.@.$.@.+.@.+.+.@.@.+.@.@.@.+.@.+.+.+.@.+.",
"@.@.@.@.@.+.+.+.#.+.+.+.+.@.@.+.@.+.@.@.@.@.@.o.o.] ( ~ ~ ' J P O.y.y.i.k.G.W.XX+X$X#X+X.XY.S.j.j.f.v.N.P.~.~.P.N.j.<.H p + - < y ` X.@.@.$.@.@.@.@.+.+.+.@.@.+.@.@.@.@.+.+.@.#.+.+.",
"+.@.+.@.+.+.#.@.+.+.@.#.+.+.+.@.@.+.@.@.@.+.@.+.o.o.X.} [ [ } O.P P P -.;.6.9.Z.q.w.F.F.F.S.S.n.J.m.P.E.(.)./.E.m.l.y.U p - - < y ` [ @.@.@.$.@.@.+.@.@.+.+.+.+.O.o.@.+.@.+.+.+.+.@.",
"@.O.@.+.+.@.+.+.@.+.+.+.@.+.@.+.@.+.@.+.@.@.@.+.o.@.o.o.o.o.[ [ D F B B S S d W Q &.=.6.h.k.J.K.L.^./.).`.`./.E.L.l.u.H p + + < y ` X.@.$.@.@.@.@.+.#.+.#.+.+.@.+.+.+.@.@.+.@.@.#.@.",
"@.o.@.@.+.@.#.+.@.+.@.+.#.+.@.@.+.+.@.+.@.+.@.+.@.@.@.$.@.@.[ ` b u 5 - O X       O a U u.k.J.T.^.`.`.`.`./.E.R.n.j.<.H p + - 5 y ` X.+.+.$.$.@.@.@.+.+.@.+.@.@.@.@.+.+.+.@.+.@.+.+.",
"@.+.@.+.+.@.+.+.+.@.@.@.@.+.@.o.@.@.@.+.+.@.@.O.@.$.$.$.#.+.o.n u 2 - X             f L r.c.B.^._.`.`./.^.E.R.m.z.s.:.F 0 + - 5 v ` o.o.@.@.$.@.@.+.+.@.@.O.o.+.+.+.+.@.@.@.O.o.@.+.",
"@.@.+.@.@.+.+.@.@.+.@.+.@.@.@.O.@.@.@.+.+.+.+.@.@.@.$.$.$.+.} ~ y : -           % f h e.t.v.B.~./.).(.E.L.K.n.k.i.,.U B 8 - : w b ` o.+.$.@.@.@.@.@.@.@.@.@.@.@.+.#.@.+.@.+.@.@.+.+.",
"#.+.+.@.+.@.@.o.+.@.@.@.@.+.@.@.+.@.+.@.@.@.+.@.@.$.$.$.#.+.} ~ r ; + X X % & g h j e.t.x.b.V.I.~.P.L.N.n.l.g.1.,.Y F s 6 # < r b ` o.o.@.$.@.@.@.@.+.@.@.+.@.@.@.#.+.+.@.+.@.+.@.@.",
"+.@.+.+.@.@.@.O.@.@.@.+.@.@.+.@.@.@.@.@.+.+.@.@.@.@.@.$.#.+.} ~ y : - X 8 N L T e.t.x.x.b.M.V.V.P.B.m.c.j.u.,.I I B a 8 1 , 5 y n } o.@.@.$.@.@.@.+.+.O.@.@.+.@.+.+.+.@.@.@.@.@.+.@.",
"+.@.@.@.+.@.+.@.+.@.+.+.+.@.+.@.@.+.@.@.@.+.@.+.@.$.@.@.@.+.X.n r : - # N U R i.f.b.M.~.T.~.~.~.P.N.c.j.2.Y F a 8 1 $ # , , 7 u D } o.+.#.@.@.@.+.@.@.@.@.@.+.@.@.o.@.+.@.@.+.@.@.@.",
"+.+.@.+.@.@.@.@.+.@.+.@.#.+.+.@.+.+.@.@.@.@.@.@.+.+.$.@.@.+.] c e ; + 1 B Y s.z.R.T.).'.(.).).).P.L.n.j.:.F 7 O X X X O - , 0 b A [ o.@.@.#.@.$.@.@.@.+.+.+.@.@.@.O.@.@.@.+.@.+.@.@.",
"#.@.+.@.@.@.+.@.+.@.o.O.+.#.+.+.+.@.@.@.@.+.@.@.@.+.$.+.@.o.] v q - O 6 G 1.k.R.!.[.{.;X{.{.}.}.].!.H.h.:.S +         X + 6 0 b ` ] o.+.@.$.@.@.@.@.o.@.@.@.+.+.+.@.@.@.+.@.+.+.+.@.",
"+.+.+.@.@.o.O.@.@.@.@.@.+.+.@.+.+.+.o.@.@.@.+.@.@.$.+.$.@.o.] l , X X 1 I 9.Y.!.-X<X5X5X5XrX5X5X,X*X.XS.6.S O           @ , u u A } o.@.@.@.$.@.@.@.@.@.+.+.+.@.+.@.@.+.@.@.#.+.@.@.",
"@.@.+.+.+.@.+.+.+.@.@.@.+.@.@.@.@.@.@.@.+.@.+.+.@.@.$.@.#.o.] t $     1 I q.W.$X3XsXfXgXlXfXlXsXyX2XoXW.9.&.O           O # 7 b D ] o.@.$.@.@.@.@.@.@.@.@.+.@.+.+.+.@.+.#.+.@.@.@.@.",
"@.+.@.@.@.+.+.@.@.@.@.+.+.+.@.@.+.@.@.+.+.@.@.+.@.@.@.$.@.+.D r X     1 =.U.].>XyXjXlXNXNXNXlXNXgXyX7XXXZ.=.+           O > 7 u A [ o.@.@.$.$.@.+.@.@.+.@.@.@.@.@.+.#.+.+.+.+.+.O.+.",
"@.+.+.+.+.+.+.@.+.@.@.+.@.+.@.@.@.+.O.+.@.+.@.+.@.$.$.@.@.o.) k       1 4.U.+X0XgXmXCXZXZXZXCXBXmXhX8X+XU.4.1           X > 7 b n } X.+.+.$.@.@.@.@.+.@.@.+.@.+.+.#.+.+.+.@.+.@.o.@.",
"@.@.#.+.@.+.#.+.@.@.@.+.@.+.o.@.@.@.@.+.+.@.@.@.@.+.@.$.@.o.) 9       i 4.U.+XuXhXBXZXZXSXZXZXCXBXhXuX$XU.4.7           O , 0 b D } o.@.@.@.$.@.o.O.@.@.@.@.+.+.@.+.+.@.+.@.+.@.+.@.",
"@.@.@.+.@.+.@.+.@.O.+.@.+.+.+.@.@.@.@.@.@.+.@.+.@.@.#.@.@.o.) k o     s 4.U.#X7XzXvXVXVXCXCXCXVXvXaX8X@XG.5.i         O , 7 u n D } o.+.@.#.@.@.@.@.@.@.+.@.+.@.+.+.@.@.+.+.+.@.@.@.",
"+.@.@.@.@.@.@.@.@.o.@.@.+.@.+.+.+.@.+.@.@.@.+.+.@.@.$.@.+.O.} l 9 . # s 4.D.OX%XeXaXvXvXvXvXvXvXaXeX6XXXU.4.A       @ 5 0 b b n ` } +.+.#.#.@.@.@.@.@.+.@.@.@.@.@.+.+.+.+.#.@.+.@.+.",
"@.o.O.o.+.@.+.@.@.o.@.@.#.+.#.+.@.@.+.@.@.@.@.@.@.@.@.@.+.+.X.M k 9 9 D 3.D.G.@X6X7XeXiXiXeXeXeX8X6X@X|.D.3.` 5 * * 9 z b A D ' { } O.+.@.@.@.@.@.@.@.@.+.@.@.+.@.@.@.o.+.#.+.+.@.@.",
"@.@.@.@.@.@.@.+.@.@.@.@.+.+.@.+.+.@.+.+.O.o.+.@.@.@.@.@.@.+.X.) M l l } $.8.D.|..X@X@X@X@X6X@X@X@X.XG.D.8.$.' ! k k c D ` ` ] [ o.o.+.+.@.@.@.+.@.@.@.@.+.+.@.@.@.@.@.@.@.+.+.@.+.@.",
"@.@.@.+.+.@.+.@.@.@.@.o.@.@.+.@.+.+.@.#.@.o.@.@.@.@.@.@.@.o.o.X.) ] ] X.#.5.h.C.A.G.G.G.G..XG.G.S.A.A.8.5.#.o.) ( ) ` X.} [ X.o.o.+.+.+.@.@.@.@.+.+.@.@.@.+.+.+.O.o.@.@.+.@.@.+.@.@.",
"@.@.+.+.+.+.+.+.+.+.@.O.+.+.@.@.#.+.+.+.@.O.@.+.@.@.+.@.@.@.@.o.+.X.o.+.#.#.$.$.5.5.5.5.$.5.5.$.5.5.$.$.$.@.+.@.o.o.+.+.o.@.+.@.+.+.#.+.@.+.@.+.@.@.+.+.O.+.@.+.@.@.+.@.@.+.+.#.+.@.",
"@.@.@.@.#.@.+.#.@.+.@.@.@.@.+.@.@.+.+.+.+.@.@.@.+.@.@.@.@.@.@.#.#.@.$.@.#.X.X.) ^ ^ ^ m ^ ^ / / ^ ^ ) ..o.+.@.@.#.#.$.@.@.@.@.@.#.+.+.+.+.@.+.@.+.+.@.@.@.@.+.@.@.@.@.+.@.+.+.+.@.o.",
"o.@.@.@.+.+.@.+.@.+.@.+.@.+.@.@.+.+.@.@.+.@.@.+.@.@.+.@.@.@.@.@.$.#.$.@.+...^ m ^ ^ k k r ! ^ ^ l m ^ / ..+.@.$.$.#.$.@.#.$.@.@.+.#.+.@.+.@.@.@.+.@.@.+.@.+.@.@.+.@.@.@.@.@.@.+.@.O.",
"+.+.@.+.#.+.+.@.+.+.@.+.+.#.+.+.+.@.@.@.+.@.@.@.@.+.+.@.@.@.@.#.@.$.@.$.+.X./ ^ x l l l k k l l m m m / X.@.@.$.$.@.$.@.$.@.$.@.@.@.+.+.O.@.+.@.+.@.@.@.+.@.@.@.@.@.+.@.+.+.@.+.@.@."
};
