/* XPM */
static char *result[] = {
/* columns rows colors chars-per-pixel */
"90 105 246 2 ",
"   c #000000",
".  c #000C07",
"X  c #00000D",
"o  c #001309",
"O  c #000015",
"+  c #030C15",
"@  c #00001C",
"#  c #010D1D",
"$  c #021817",
"%  c #02121D",
"&  c #121B1D",
"*  c #002B02",
"=  c #003402",
"-  c #00241B",
";  c #052919",
":  c #153316",
">  c #000024",
",  c #010A27",
"<  c #000229",
"1  c #021522",
"2  c #041A22",
"3  c #0B1C22",
"4  c #01162B",
"5  c #11132D",
"6  c #2A1E37",
"7  c #052624",
"8  c #01242C",
"9  c #002C2B",
"0  c #0D2B2B",
"q  c #142524",
"w  c #172A27",
"e  c #003326",
"r  c #00352A",
"t  c #0A362B",
"y  c #003B2C",
"u  c #18342A",
"i  c #1D342A",
"p  c #002331",
"a  c #002E33",
"s  c #003335",
"d  c #053A36",
"f  c #023C3A",
"g  c #143B33",
"h  c #193B34",
"j  c #262C2D",
"k  c #233A2A",
"l  c #263B28",
"z  c #2D2F36",
"x  c #2A3633",
"c  c #0D430D",
"v  c #275C1A",
"b  c #114B2A",
"n  c #004334",
"m  c #07453A",
"M  c #014C3A",
"N  c #14453D",
"B  c #184539",
"V  c #1D4539",
"C  c #1A4A3E",
"Z  c #09523E",
"A  c #1B503E",
"S  c #2B432D",
"D  c #2A4828",
"F  c #31482E",
"G  c #2A5228",
"H  c #32572C",
"J  c #274A37",
"K  c #2C4A32",
"L  c #224C3D",
"P  c #324D32",
"I  c #3A4539",
"U  c #2A543D",
"Y  c #365233",
"T  c #395433",
"R  c #345837",
"E  c #3B5A36",
"W  c #345B3C",
"Q  c #3C5B39",
"!  c #37642A",
"~  c #3D6636",
"^  c #41503C",
"/  c #446836",
"(  c #43633B",
")  c #466B3D",
"_  c #4A6C3E",
"`  c #48773A",
"'  c #4B733D",
"]  c #517F3C",
"[  c #382E41",
"{  c #423C48",
"}  c #054440",
"|  c #144D43",
" . c #1B4D41",
".. c #075341",
"X. c #135542",
"o. c #1D5244",
"O. c #185A45",
"+. c #1C5A45",
"@. c #214F41",
"#. c #394947",
"$. c #245444",
"%. c #2A5642",
"&. c #235B46",
"*. c #2A5A45",
"=. c #255C49",
"-. c #295D49",
";. c #325A40",
":. c #385A4B",
">. c #25614A",
",. c #2D654E",
"<. c #3C6244",
"1. c #32634D",
"2. c #2F6750",
"3. c #2F6850",
"4. c #306750",
"5. c #316951",
"6. c #377056",
"7. c #454A48",
"8. c #48584B",
"9. c #4D5A4D",
"0. c #52584E",
"q. c #4D5D50",
"w. c #545B53",
"e. c #436843",
"r. c #4A6C41",
"t. c #4D7244",
"y. c #4F7943",
"u. c #507544",
"i. c #537A45",
"p. c #58774A",
"a. c #557D49",
"s. c #486554",
"d. c #586D50",
"f. c #58695A",
"g. c #616D5E",
"h. c #63785B",
"j. c #5C7461",
"k. c #656A62",
"l. c #687666",
"z. c #717A6D",
"x. c #777C73",
"c. c #4F823D",
"v. c #52853E",
"b. c #548244",
"n. c #568546",
"m. c #598B45",
"M. c #5B854C",
"N. c #5E894E",
"B. c #5E9249",
"V. c #5F8A51",
"C. c #608C4F",
"Z. c #62984B",
"A. c #628E51",
"S. c #688959",
"D. c #659353",
"F. c #689756",
"G. c #699657",
"H. c #699956",
"J. c #6C9C59",
"K. c #709A5E",
"L. c #67A24D",
"P. c #6CA355",
"I. c #6FAA53",
"U. c #6FA15A",
"Y. c #72AD56",
"T. c #72A45D",
"R. c #75AA5E",
"E. c #77B35C",
"W. c #7ABA5D",
"Q. c #6E8468",
"!. c #73836C",
"~. c #759965",
"^. c #798573",
"/. c #798875",
"(. c #7D8A74",
"). c #7E9673",
"_. c #76A363",
"`. c #77AB61",
"'. c #79AD62",
"]. c #7DB465",
"[. c #7EBC62",
"{. c #7DB068",
"}. c #7FC061",
"|. c #828D7A",
" X c #83967A",
".X c #81AC6E",
"XX c #80B767",
"oX c #81BD65",
"OX c #82B66C",
"+X c #84BD6A",
"@X c #86A875",
"#X c #8AB975",
"$X c #83C266",
"%X c #86C06C",
"&X c #89C46E",
"*X c #8BC96E",
"=X c #8BC671",
"-X c #8DCA71",
";X c #91CD75",
":X c #93C77B",
">X c #95D17A",
",X c #8C9A85",
"<X c #909A87",
"1X c #8EA982",
"2X c #94A38B",
"3X c #97A98B",
"4X c #98B988",
"5X c #9CAC92",
"6X c #9EB391",
"7X c #A1AE97",
"8X c #A5B69A",
"9X c #ACBBA1",
"0X c #98C783",
"qX c #99CB82",
"wX c #9FD386",
"eX c #A1CD8C",
"rX c #A3D78B",
"tX c #A7C896",
"yX c #B0CF9E",
"uX c #ACD797",
"iX c #B1D99E",
"pX c #B4E39D",
"aX c #B4C8A7",
"sX c #B9CBAC",
"dX c #BAD7A9",
"fX c #BCCCB0",
"gX c #BFD2B1",
"hX c #B9E4A4",
"jX c #C1DFAF",
"kX c #C3D5B5",
"lX c #C7DCB9",
"zX c #C2E7AE",
"xX c #C8EAB5",
"cX c #CCE3BC",
"vX c #D0EFBE",
"bX c #CDF4B8",
"nX c #CFE3C0",
"mX c #D5EAC5",
"MX c #D5EAC6",
"NX c #D7F6C4",
"BX c #DCF3CB",
"VX c #DEFCCC",
"CX c #E0FDCD",
"ZX c #E5FDD3",
"AX c #E9FFD6",
"SX c #EBFFD9",
/* pixels */
"4.4.4.4.4.5.4.5.4.5.5.5.3.3.5.,.3.4.5.5.3.4.3.3.5.5.5.5.5.5.6.3.6.3.6.3.5.5.6.3.5.5.5.5.6.3.5.5.5.5.6.3.5.5.5.6.3.6.6.5.6.3.3.5.5.5.4.4.4.5.3.4.5.3.4.5.4.4.5.,.5.5.5.,.5.,.5.5.5.5.",
"4.4.5.4.5.4.5.4.5.4.,.5.3.3.5.5.5.4.4.4.4.5.3.3.5.5.5.6.6.5.3.6.3.6.5.3.6.3.3.6.6.5.6.5.3.6.6.5.6.3.3.6.6.5.6.5.3.3.5.5.3.6.6.5.5.5.4.4.5.4.5.4.4.5.3.3.5.4.4.5.,.5.5.5.5.5.5.4.,.5.",
"5.5.4.5.4.4.4.5.4.4.5.4.3.3.5.1.4.5.4.5.5.3.4.3.5.5.5.5.4.5.4.4.3.5.5.5.5.5.3.5.4.5.4.4.3.3.5.4.5.3.3.5.4.5.4.4.5.5.5.4.5.4.3.3.5.4.4.4.4.5.3.5.5.5.3.3.4.5.4.5.5.,.5.,.5.1.,.5.3.5.",
"5.5.5.5.4.4.4.5.4.5.4.5.5.3.5.5.5.4.4.5.4.5.5.3.1.3.3.3.5.1.3.,.5.5.5.,.5.,.5.5.5.1.4.,.3.5.3.5.5.5.5.3.,.5.1.,.3.3.3.5.5.5.3.3.2.4.4.4.5.4.4.4.3.3.5.3.5.4.5.4.5.5.5.5.5.5.3.5.5.5.",
",.5.3.5.5.3.5.3.5.5.5.5.5.5.5.1.5.5.3.5.5.5.4.2.3.,.-.-.-.=.-.-.=.*.*.=.=.=.-.-.=.*.=.=.*.=.*.-.=.-.=.*.=.*.=.-.-.=.=.-.=.-.>.,.2.2.2.4.5.5.5.5.5.5.5.1.3.3.4.5.5.5.5.3.5.3.5.3.3.3.",
"5.5.3.3.1.5.3.3.1.5.,.3.,.5.3.5.3.5.5.5.5.5.5.2.,.-.=.o. .| N N N C |  .C C C C C  . . . .C  .C C C  . .|  . . .C C N N N C $.$.=.>.2.4.5.5.6.5.5.3.5.3.3.5.5.4.3.3.5.3.3.3.1.5.1.5.",
",.5.,.3.3.5.3.1.3.3.5.5.5.3.3.5.5.5.5.5.6.6.5.2.-.$. .g s a p 8 p a a a a a a s a a a a a a a a a a s a p s a a p a 8 p a s d  .o.2.2.3.6.6.5.5.5.1.3.5.5.4.4.4.5.1.5.1.5.5.3.3.5.5.",
"5.5.3.3.3.5.5.5.5.5.3.3.1.5.5.3.5.5.5.6.5.6.4.2.-. .m a , > > > > > < > < > > > < > < > < < < > > > < > < > < > > > > > > , a N o.=.2.3.6.6.6.5.5.5.3.5.5.4.4.4.3.3.5.5.,.3.5.5.,.5.",
",.5.5.5.3.3.5.3.3.5.5.5.3.3.3.3.2.2.6.6.6.6.4.2.*.@.g p > O O X @ @ @ @ @ @ @ @ @ @ @ @ @ @ @ @ @ @ @ @ @ @ @ @ @ @ O O O > 8 h  .*.2.4.5.6.6.5.5.5.5.5.3.5.4.3.5.5.5.,.5.3.5.3.5.5.",
"5.5.3.3.3.3.5.5.,.5.3.5.5.<.3.5.2.2.2.2.2.2.2.1.*.@.J h i & & & & q q w q q q q w w q w q q q w w q q q w q q q q & & & q w h J %.*.-.4.5.5.5.2.,.5.5.5.4.4.5.5.5.3.5.5.5.3.1.3.5.3.",
"5.5.1.3.3.3.3.5.5.1.3.5.3.5.5.5.2.2.,.,.,.2.-.-.%.;.R Y Y T T T T Y Y Y T T T T Y Y Y Y T Y T T Y Y Y Y Y Y T T T Y T T Y Y Y U U ;.-.-.,.>.2.2.5.5.5.5.5.5.5.4.3.5.5.1.5.5.5.5.5.,.",
"3.1.5.3.5.5.3.3.5.5.3.5.5.6.5.5.2.2.=.=.| | | $.W :.( r.u.' p.' ' u.u.u.u.u.u.' u.u.u.u.u.u.u.' u.u.u.u.u.u.u.u.u.' u.' u.u.r.e.<.U $. .o.o.+.-.,.5.5.6.5.5.5.4.5.5.3.3.3.3.1.5.5.5.",
"3.3.5.5.5.3.5.3.3.3.5.5.5.6.5.6.5.2.+.| f s s V U e.u.M.C.D.D.A.D.D.A.D.A.A.A.A.C.A.A.A.D.A.A.A.A.A.A.A.A.A.A.A.D.D.D.D.A.A.M.u.e.R V f f f | $.>.4.5.6.5.5.5.4.5.<.3.3.3.3.5.,.5.1.",
"5.5.5.3.5.3.5.<.3.5.5.5.6.5.5.6.3.-.o.f p < < h R t.M.G.U.T.R.XXR.T.T.T.T.T.T.T.T.T.T.T.T.T.T.T.T.T.T.T.T.T.T.T.T.`.`.`.T.T.G.M.t.R u < < p f o.>.4.6.6.6.5.6.3.3.3.3.5.,.5.5.3.3.3.",
"5.3.1.3.3.5.3.3.3.3.5.5.5.6.6.5.4.-.| s < > @ i Q a.D._.XXXX+X+XOXXXXXXXXXXXXXXXXXXXXXXXXXXXXXXXXXXXXXXXXXXXXXXXXX+X+XXXXX].T.D.a.Q i > < < s | =.3.5.6.6.5.2.2.3.5.3.3.5.1.5.5.5.5.",
"5.5.5.3.3.3.3.5.5.3.3.5.5.6.5.5.2.*. .s , > 3 F _ N.J.'.+X&X=X=X*X&X+X+X&X+X+X%X+X&X+X+X%X%X+X%X+X%X%X%X&X+X+X+X&X&X-X-X%X+X'.U.N._ F 3 > < s  .-.5.5.5.5.4.3.2.3.5.5.5.5.5.3.3.5.3.",
",.5.3.3.3.3.5.5.4.5.4.5.5.,.2.-.-.*.U V i k F ( p.F.R.XX+X*X-X-X-X=X=X*X&X&X&X&X*X&X&X&X&X*X&X&X&X*X*X&X*X&X&X*X-X-X;X;X=X&XXXT.F.p./ F l k J @.%.-.1.,.2.2.2.2.5.4.5.5.5.,.5.,.3.5.",
"5.5.3.<.5.5.3.5.5.4.3.1.>.=.=.$.*.;.;.W Q e.r.a.A.U.XXXX&X-X;X-X-X-X=X&X-X=X-X-X-X&X-X-X-X&X-X*X*X=X=X=X=X=X-X&X-X-X-X;X=X&XoX'.U.A.p.' ( Q W ;.*.*.$.=.=.,.2.2.,.5.5.5.5.5.5.5.5.5.",
"1.5.5.5.5.5.5.5.5.4.1.>.=.o. . .$.;.:.e.u.a.C.F.T.R.XX+X&X*X-X-X*X&X&X-X&X&X*X&X&X&X&X=X&X&X&X*X&X=X*X&X&X*X*X&X&X-X-X-X*X&XOXXXT.U.G.C.a.t.e.<.;.@. . .o.$.-.,.5.5.5.5.5.4.5.5.5.5.",
"3.3.3.5.5.5.5.5.4.3.,.-.$.N d g J R r.i.A.G.T.R.'.XXoX+X+X*X&X&X&X&X&X%X&X%X&X&X&X+X&X&X&X+X&X&X&X+X&X&X&X+X&X&X+X=X&X&X&X&XOX+XXXXXR.U.G.A.a.e.R J g d N $.*.,.5.5.5.5.5.5.,.3.5.3.",
"3.3.3.5.5.5.5.5.6.5.,.&.C s 8 8 k E r.C.G.`.].XXOX+X%X+X+X&X&X&X+X+X&X+X&X%X%X%X+X&X+X&X%X%X%X%X+X&X%X%X%X%X%X&X&X+X&X+X+X%X+X%XOX+XoXXXR.G.C.r.Q k 8 8 s  .-.,.5.5.5.5.5.5.4.5.5.5.",
"3.3.5.5.5.5.5.5.5.5.,.$.N p > @ i E u.D.T.].+X&X*X*X&X%X&X+X+X&X+X&X+X&X+X%X%X%X&X+X&X+X&X+X%X%X%X+X&X+X%X%X%X%X+X&X+X&X&X+X&X&X&X*X&X+XXXT.S.u.Q w @ > p N $.>.5.5.5.6.5.5.5.4.,.5.",
"3.5.5.3.5.5.6.5.5.5.>.$.f 4 @ O & E i.D.R.XX=X-X=X=X&X&X+X+X+X+X&X+X+X&X&X+X+X&X+X+X+X+X&X+X+X&X%X&X+X%X%X%X+X%X&X+X&X+X&X+X&X&X*X;X;X=XoXT.F.] T q X @ 4 d $.,.3.6.5.5.5.5.4.5.5.4.",
"5.3.5.5.5.5.5.6.5.3.,.o.s >       D ' D.R.+X=X;X;X;X=X&X+X&X&X+X+X+X&X+X+X&X+X+X&X&X+X&X+X&X+X+X%X+X&X+X%X%X%X%X&X+X+X+X+X+X&X&X*X;X;X*XOXR.Z.' D       > s o.,.5.5.6.6.5.5.5.5.,.5.",
"1.3.5.3.5.5.6.6.6.5.,.Z 9 X       : ` m.Y.XX*X;X;X;X&X%X+X&X+X+X&X+X+X&X+X%X+X&X+X&X+X+X&X+X+X&X+X&X+X+X+X+X&X+X+X&X+X+X&X&X&X=X-X-X-X=X].R.C./ c       X a | >.5.6.6.6.5.5.5.5.3.3.",
"5.3.5.5.5.5.6.6.6.5.,.Z 9         * / v.U.XX%X-X=X=X*X%X%X%X%X%X&X+X%X+X&X+X&X+X&X+X+X&X&X+X+X&X+X+X&X&X&X&X+X+X&X+X&X+X+X+X+X&X-X-X-X=X].U.m.! *         8 ..2.6.6.6.6.5.5.5.5.3.3.",
"5.5.3.5.5.6.6.6.6.5.>.Z 9         = ! v.U.XX+X*X-X-X&X+X%X%X%X%X+X%X+X&X&X+X+X&X&X+X+X&X+X+X&X+X&X+X&X+X+X&X+X&X+X+X&X&X+X&X&X&X=X=X=X%X[.P.m.! *         9 ..>.5.6.6.6.5.5.3.5.3.3.",
"3.3.3.1.5.5.5.5.5.5.,.+.f , X X . D ' Z.T.XX+X*X&X&X&X&X%X%X%X%X&X+X&X+X+X&X+X+X+X&X+X+X&X+X+X&X+X&X+X+X&X+X&X+X+X&X+X+X&X+X+X&X&X=X=X%X].T.C.' G .   X > f o.-.5.6.5.5.5.5.3.3.5.3.",
"5.5.5.5.3.3.,.,.5.,.,.;.:.#.#.#.0.p.S.K.'.XX%X*X&X&X&X%X%X%X%X%X&X+X%X%X+X&X+X+X&X+X+X&X+X&X+X+X+X&X+X&X+X+X&X+X+X+X&X+X+X+X=X&X&X&X&X%X].'.K.A.d.9.7.I #.:.-.1.3.5.3.,.5.3.3.,.5.5.",
"5.3.3.3.,.>.>.+.+.=.1.s.f.j.l.z.^. X X@XOXOX%X%X%X&X%X%X%X%X+X%X+X&X+X+X&X+X+X&X+X&X&X+X&X+X&X&X&X+X+X+X&X+X+X&X&X&X+X+X+X&X&X+X&X&X&X$X#X.X.X). X^.!.z.j.f.s.1.>.A +.>.,.3.3.3.5.3.",
"5.5.5.1.<.>.Z M M C :.j.z.|.,X2X6X6X4X#X#X#X%X$X$X%X%X%X%X%X%X%X%X+X+X&X+X&X&X+X+X+X+X+X+X+X&X+X+X&X&X+X+X&X&X+X+X&X+X&X+X+X+X%X$X$X%X%X+X#X4X4X6X5X3X,X/.z.j.:.L M M Z U ,.3.5.5.5.",
"5.5.5.5.>.A M y e B 8.l.(.3X9XaXaXyXyXeX0X:X%XoXoX$X$X+X%X%X%X%X+X&X&X+X%X+X&X+X&X+X&X&X+X&X+X+X&X+X+X&X&X+X+X&X+X+X&X+X&X&X+X$X+X}.+X%X:X0XeXuXaXaXaX8X5X).l.8.b e y M Z ,.3.5.5.5.",
"5.6.4.3.,.M r o   9 q.z.<X9XfXlXcXcXjXiXeX:X%XoX[.[.oX%X=X+X%X%X&X+X+X&X+X%X+X&X+X&X+X%X%X%X+X&X+X%X+X=X&X+X&X%X+X&X%X%X+X&X+X+X[.[.[.%X:XwXyXdXxXcXlXfX8X2Xz.8.9   $ r M >.1.5.6.3.",
"5.5.5.3.=.M -     % 0.^.5XsXlXMXBXNXxXhXrX:X%X[.W.[.oX+X+X%X%X%X+X%X%X%X&X+X&X+X+X=X%X%X&X+X%X+X&X+X+X+X+X%X+X%X&X+X%X%X&X+X+XoX[.W.[.%X:XtXhXbXNXBXBXlXaX5X(.0.%     - M =.5.5.5.5.",
"6.5.5.3.=.n o     O 0./.7XgXMXZXZXVXvXzXuX0X%X[.W.W.oX%X+X%X%X%X=X&X+X%X+X&X+X%X%X+X&X+X+X%X+X&X%X%X&X+X&X+X%X%X+X=X+X+X%X%X%XoXW.W.[.+XqXuXzXNXCXZXBXMXkX7X|.0.X     o n &.5.5.5.6.",
"6.5.4.,.&.n         0./.9XkXMXZXAXZXNXzXiXqX+XW.W.W.oX+X%X%X%X%X+X+X%X%X%X+X&X+X+X&X+X%X&X+X&X+X+X%X%X%X+X&X+X%X%X+X+X&X%X%X+XoXW.W.W.%XqXuXzXNXZXSXZXBXkX7X|.0.        n +.5.3.5.5.",
"3.6.3.5.&.d         0.|.8XkXBXAXSXZXVXzXiX>X+XW.W.W.[.$X%X%X%X%X+X+X%X+X+X+X&X+X%X+X&X+X+X%X+X&X&X+X%X%X%X%X+X%X%X%X%X+X%X%XoXoXW.W.W.%XqXuXxXNXZXSXAXBXkX9X|.0.        n &.5.5.5.6.",
"6.3.3.,.&.n         0.|.9XlXBXAXSXZXNXxXiXqX%X[.W.W.oX+X%X%X+X%X&X=X+X&X=X+X%X%X%X%X+X&X&X+X&X+X%X%X+X&X+X%X&X+X%X%X%X%X%X%XoXoXW.E.W.$XqXuXxXNXZXSXSXMXkX8X|.0.        n $.5.3.6.5.",
"6.5.3.3.&.n         0.|.7XkXMXSXSXZXNXxXiX>X%XW.W.W.oXoX%X%X%X+X+X%X&X+X&X+X%X%X%X%X+X=X+X&X%X%X%X%X+X+X&X+X%X+X%X%X%X%X%X%X%XoXW.W.[.$XqXpXxXNXZXSXZXBXkX9X|.0.        n +.,.3.5.6.",
"3.6.5.3.&.n .     X 0.|.9XgXMXZXZXCXbXzXuX:X%XW.W.W.oX%X%X%X%X%X%X%X+X%X+X&X+X%X+X&X+X+X%X+X%X%X%X%X=X+X+X&X+X=X%X%X%X%X%X%X+XoXW.W.[.&X:XuXhXNXZXZXZXMXgX7X/.0.X     o n &.5.5.5.5.",
"5.6.5.5.>.M -     # 9.^.5XsXnXMXCXNXxXjXrX0X+XoXW.[.$X$X+X%X%X%X%X&X+X&X+X%X+X&X+X&X+X&X=X+X+X%X%X+X%X%X%X%X%X%X%X+X%X%X%X%X%XoX[.W.[.%X:XuXhXbXNXBXBXlXsX5X^.q.#     - M &.4.5.5.6.",
"3.3.5.5.>.M e .   9 8.!.<X9XgXlXcXcXzXiXeX:X%XoX[.$XoX%X%X%X%X%X%X+X%X+X&X+X&X+X%X+X%X+X+X%X&X+X%X%X%X%X%X%X%X%X%X%X%X%X%X+X+X$X}.[.}.%X:XeXdXhXnXnXlXfX9X2Xz.q.9   . e M >.4.5.5.5.",
"6.5.5.3.,.X.n e e g 8.l. X5X9XaXsXdXyXyX0X:X%X$X$X$X&X%X%X%X%X%X+X%X+X&X+X&X&X+X%X%X+X&X%X%X+X&X%X%X%X%X%X+X%X%X%X%X%X%X%X%X%X%X}.$X$X&X:XqXtXaXaXdXaX9X5X(.l.8.g e r n A >.4.5.5.5.",
"3.3.5.3.,.+.Z M M L 1.j.z. X,X2X7X6X4X#X#X=X*X*X$X$X&X%X%X%X+X%X&X+X&X+X%X%X+X&X+X+X&X+X%X%X%X+X%X%X%X%X%X%X%X+X%X%X+X%X%X%X%X&X&X&X*X&X=X#X0X6X6X5X5X<X|.!.j.:.C M M Z &.,.4.5.5.5.",
"5.5.5.,.,.>.+.+.O.&.:.s.f.k.z.^.(. X@X.X#X#X*X*X*X&X&X%X%X%X%X+X+X&X%X+X&X+X%X+X=X+X%X+X&X+X%X%X%X%X%X+X%X%X%X%X%X%X+X%X%X%X%X&X&X*X*X-X%X#X@X@X).(.^.l.k.f.s.:.-.+.X.>.>.,.3.5.5.5.",
"5.5.5.5.5.,.,.,.,.2.1.:.:.#.#.7.q.h.S._.OX+X*X;X-X=X&X%X%X%X%X%X%X+X+X&X+X&X+X&X&X+X+X&X+X&X%X%X%X%X%X%X%X%X%X%X%X%X%X%X%X%X%X&X*X-X-X&X+X]._.S.h.s.7.7.#.:.1.1.,.>.5.,.5.3.5.5.3.5.",
",.5.5.5.3.3.6.5.5.5.,.+.f 4 @ X ; H ' N.T.].+X%X-X=X=X%X%X+X%X%X+X+X&X+X%X%X%X+X+X%X%X+X%X=X+X+X%X%X%X%X%X%X%X%X%X%X%X%X%X%X%X&X=X=X&X+X].T.N.' H - O @ 4 n o.2.3.5.6.5.3.5.3.3.5.5.",
"5.5.5.5.6.3.6.6.6.5.>.X.d O       = H ] D.T.'.+X+X+X+X%X%X%X%X%X=X%X+X&X%X%X+X&X%X%X+X&X%X+X+X&X%X%X%X%X&X%X%X%X%X%X%X%X%X%X%X%X+X+XXX'.T.D.] H =       O f X.>.5.6.6.6.5.3.5.5.5.4.",
",.5.,.5.5.5.6.6.6.5.,.Z M 7       = v ~ n.D.J.`.'.].XX+X%X=X=X&X&X&X&X&X&X%X%X%X%X%X%X%X%X%X%X%X%X%X&X%X%X%X&X&X&X&X*X*X&X%X+XXXXX'.T.U.A.a.~ v =       8 n X.2.5.6.6.6.<.5.5.,.5.5.",
"5.5.5.5.5.5.5.6.6.5.,.&.M n r e ; n b U ~ t.M.A.J.`.].+X%X-X-X-X=X=X&X&X&X&X=X%X=X%X%X+X+X%X+X%X+X%X%X&X&X&X&X&X=X-X-X-X=X&X+X].T.K.D.a.t.) R b n e 9 r m ..+.2.5.6.6.5.5.5.5.5.5.,.",
"5.5.,.5.5.5.5.5.5.5.5.,.>.O.X...Z A C V L R Q t.C.J.`.XX&X-X;X-X-X-X=X=X=X&X&X%X+X%X%X%X%X%X%X%X%X+X&X&X=X=X=X=X-X-X-X;X=X=XXX'.J.C.u.Q Y J A A Z Z Z ..O.>.,.2.5.5.5.6.5.5.3.5.1.3.",
"5.,.5.5.5.5.5.5.5.5.5.5.3.3.3.>.>.&.C d 9 2 k Q u.A.T.XX%X-X-X;X-X=X=X=X&X&X&X%X%X%X%X+X%X+X%X%X%X=X%X%X&X%X=X=X=X-X;X-X-X&X].T.A.u.E l 2 8 d V *.>.,.5.3.3.2.2.5.5.5.3.5.5.5.5.5.3.",
",.5.5.3.5.5.4.5.4.4.2.2.3.3.3.5.2.=. .s < > 1 F r.M.J.'.+X&X-X=X&X&X&X%X%X%X%X+X%X%X%X%X%X%X%X%X%X%X+X%X%X%X+X=X%X=X=X=X&X+X'.J.M._ F 1 > < a  .-.,.4.5.5.5.2.2.5.4.5.3.5.3.5.3.5.5.",
"5.5.3.3.3.1.4.5.4.4.4.2.3.3.3.3.,.*. .h 0 0 k Y r.a.G.T.'.XXXXXX].].].].].].+X+X+X%X+X=X%X%X%X%X%X+X+XXXXXXX].].].XXXXXX].].T.G.M._ Y l 0 0 h @.*.,.2.2.5.5.2.2.4.5.5.,.5.3.1.3.3.5.",
",.5.,.3.3.5.5.5.5.5.2.2.2.>.=.+.$.%.%.U U Q ~ r.i.a.D.G.U.T.T.T.U.J.U.U.`.`.{.].+X+X%X=X&X%X&X%X+X+XXX].'.`.J.J.U.T.T.T.T.J.H.D.M.i.e.( Q U %.%.U $.=.+.>.2.2.2.5.5.5.5.5.5.3.3.5.5.",
"5.5.3.3.3.5.5.6.6.5.2.,.+.| } } N U ;.e.t.a.M.M.C.C.C.M.C.M.C.M.M.M.M.V.D.H.`.'.+X+X%X=X=X&X=X%X%X+X'.T.J.D.V.M.M.M.M.V.N.V.M.M.M.C.M.M.a.t.e.;.L N m } | =.-.2.5.5.6.5.5.5.5.1.5.,.",
"2.5.4.2.5.5.5.6.6.5.2.=.| f p , 8 J ( a.V.G.U.J.G.A.M.u.) ( Q Q R R Q e.i.C.J.T.].+X&X&X=X=X*X&X+X].`.J.V.i.e.Q R E Q Q ( ) u.M.A.F.U.U.G.A.a.~ J p 4 p f | =.2.6.6.6.5.5.5.5.5.5.5.",
"5.4.5.5.5.5.6.6.6.6.2.&.} p < < 1 F r.V.J.`.'.].T.D.a.e.F i 3 @ @ > q S Q a.D.T.].+X&X=X-X-X*X&X+X].T.A.i.( S q @ @ > $ j P ( a.D.T.'.'.`.J.C.r.K 1 > > p } $.2.5.5.6.5.5.5.5.5.3.5.",
"2.5.5.4.5.5.5.5.5.2.2.$.N 8 < > q E p.G.'.].%X].`.G.a.Q i @ X       O q Y t.A.T.].+X&X=X-X-X*X&X+X'.U.A.t.Y q O       X O i Q M.F.'.+XOXXX`.G.u.E w > > p } $.2.5.5.6.5.5.5.5.3.5.5.",
"4.4.4.5.4.5.4.4.2.2.=.$.V t 0 i Y / C.U.].%X=X&X].T.M.) S # O X X O @ k Q u.A.J.].+X&X=X-X-X-X&X+X].T.A.u.R k @ O O X O 1 S ) M.U.XX+X&X%XXXT.C._ P i w g L %.-.3.3.3.3.3.3.3.5.5.5.",
"5.5.5.4.4.-.,.-.-.-.>.U U J G H / b.D.'.+X&X=X&XXX`.D.a.~ P S x k S P Q r.M.G.R.].%X&X=X=X=X=X=X+X].`.G.M.t.W P S S S F E e.a.D.T.oX&X-X&XOXR.F.M._ Q E R %.%.*.*.=.-.-.,.3.3.3.5.5.",
"5.5.5.4.2.-.=.@.L A U R W ~ / ` v.Z.I.E.$X=X-X=X+X].U.A.M.y.t.t.t.t.u.a.V.G.U.'.].%X&X=X=X=X=X%X+XXX'.U.D.V.a.i.u.u.u.i.a.M.G.T.XXOX%X*X&XoXXXT.F.C.i.u.r.<.;.;.@.o.o.&.>.<.3.3.5.5.",
"5.5.5.3.2.=.@.C N B J R ~ ` v.m.Z.I.Y.[.%X&X=X=X=XOX'.`.J.G.D.D.G.D.G.H.J.`.'.].XX%X%X&X&X&X=X%X+X+X].'.T.U.H.F.G.G.J.J.U.T.R.].XX+X&X&X+X+XXX'.T.U.G.C.a.r.:.U V d N o.*.,.3.5.5.5.",
"5.5.4.3.-.@. .d p 0 V ~ ` m.B.L.Y.E.[.$X&X&X=X=X=X+XXX].'.'.'.`.`.`.'.'.].].XXXX+X%X%X%X&X%X%X%X+X+X+X].].{.'.'.'.{.'.].].XXXX+X+X&X+X+X&X+X+X+X+X].`.J.C.i.( P 0 8 s m U >.3.5.5.5.",
"6.5.5.3.,.o.d p > 3 S ( i.D.T.XXoX$X&X%X=X%X=X=X%X%X%X+X+X+X+X+X+X+X+X+X+X+X+X%X+X%X%X%X%X%X%X+X%X+X+X+X+X+X+X+X+X+X+X%X+X%X%X%X%X%X%X%X%X%X%X&X&X+XXXT.F.C./ l & > 4 d o.-.4.5.5.5.",
"5.6.5.3.=. .a > O O F r.S._.OX:X:X>X:X-X+X+X].XXXX+X%X%X&X&X&X&X=X=X&X&X&X&X&X%X%X%X%X%X%X+X+X=X+X=X%X%X=X=X%X=X=X%X+X+X+X+X+X+X+X+X%X%X%X&X=X-X;X=X+XXXK.a._ l @ @ < d  .-.2.5.6.5.",
"5.6.3.3.=.N 8 O   O I p.~.#XeXrXuXrXeX:X#X'.`.R.].].oX&X*X-X-X-X-X-X-X-X=X*X&X%X%X%X+X%X+X%X%X+X+X+X=X=X=X=X=X=X=X+X+X].].].].[.].[.[.%X%X*X=X-X;X*XOXXXU.C./ l O O > a  .-.5.5.5.5.",
"6.3.3.3.=.M 2       I h. X4XyXiXhXhXuX0X#X_.H.D.P.R.].%X*X;X;X;X;X-X-X-X=X=X&X&X%X%X+X%X%X%X+X%X%X=X%X=X=X=X=X%X+X].'._._.U.U.U.'.].].}.}.$X*X-X*X;X+XE.U.C.( l @ @ < s  .-.2.5.6.5.",
"5.6.5.,.=.n $     X 7.Q.1XyXdXxXbXxXiXeX@XQ.a.] m.H.'.[.=X;X;X;X;X-X-X-X=X=X&X&X=X%X%X+X%X%X%X%X%X%X&X&X=X=X&X%X].`.J.D.V.M.N.D.P.Y.E.W.}.$X*X*X*X*XOXXXU.C.( F @ @ < s  .*.2.5.5.6.",
"5.5.5.2.=.n +       8.^.5XdXmXNXBXvXjX8X@Xh.( ! ~ B.U.[.&X-X;X;X-X-X-X-X=X&X&X&X%X%X+X%X%X+X%X%X%X%X%X&X&X*X&XXX'.J.A.u.) ( ' b.B.L.E.[.}.$X$X*X*X&X+XXXK.p._ l # @ , f  .-.4.5.6.5.",
"6.5.5.3.=.n o     X w.(.6XgXmXVXCXmXkX8X|.f.x = v v.H.].%X=X-X-X=X=X%X=X&X&X%X%X%X%X%X%X%X%X%X+X%X%X&X&X=X=X%XXX`.A.a.Q S k E ' V.P.].[.$X*X*X*X*X&X+XE.J.p._ l , > , s  .-.4.5.3.5.",
"3.6.3.5.&.M -     1 w./.6XgXnXBXBXnXkX7X^.7.@   c ! B.R.].$X&X&X+X+X+X+X[.+X%X+X+X%X%X%X%X%X%X%X%X%X&X*X=X=X%X].T.A.) S @ @ x t.A._.{.:X;X;X;X;X=X&XOXR.F.C.( F # @ 4 s o.-.4.5.3.6.",
"3.6.3.3.>.M e o   9 9.!.3XaXgXnXnXnX9X<Xz.{ X   = ! b.H.T.].].'.'.'.`.`.].].].+X+X%X%X%X%X%X%X%X%X&X&X&X*X=X%XXXT.N.~ w   @ x d.~.1X0XwXrXrXwX>X;X*X[.'.H.n./ l @ > , s  .-.5.5.6.3.",
"5.5.5.3.,.Z n e e B q.Q.,X6XaXfXfX9X7X,Xk.[ X   o v ' n.D.J.J.H.G.D.G.G.J.U.].].+X%X-X&X-X=X%X%X%X%X&X&X=X=X%X].T.m.! ;   > 7.z.,X0XyXiXhXhXuXrXwX*X[.E.F.n./ l @ @ < s  .>.3.5.6.5.",
"5.5.5.4.,.>.Z M M L 1.k./.,X3X5X5X2X Xz.w.6 O   o b T _ t.a.a.i.t.t.t.i.V.F.T.].+X*X-X-X-X%X%X%X%X%X&X&X=X&X%X].U.m.! *   5 0.x.6XaXgXbXbXhXhXuXwX;X[.`.Z.b./ l @ @ > s  .-.4.5.3.6.",
"5.3.5.4.,.>.>.+.+.>.1.s.j.l.!.^.x.z.k.w.7.6 @ O . ; l F Y E E P S S F E r.M.J.`.XX=X-X-X-X-X=X%X%X%X%X&X=X-X%XXXU.m.! =   6 w.,X6XdXmXNXNXNXhXpXrX>X[.E.Z.] / l @ O > s  .-.4.5.6.3.",
"5.5.5.,.5.,.5.,.5.,.1.1.:.8.8.8.7.7.I z j q 1 # 1 $ 7 q w w q > O O @ i Q a.D.T.XX%X-X-X-X=X%X%X%X%X%X-X-X&X%XXXU.m.! = . x k.,XaXgXBXZXVXNXbXpXrX;X[.I.B.c.! l @ O > s  .-.2.5.6.5.",
"4.3.5.5.3.4.6.5.5.3.,.&.A n 7 X       X O % 3 3 3 3 & 2 3 3 1 O O O O q P r.V.J.'.+X%X=X-X%X+X%X%X%X%X&X-X&X%XXXU.m.! =   z k.,X9XlXMXBXBXmXxXiXeX=X].L.B.` ~ D 2 > 4 d o.=.,.4.3.3.",
"4.5.5.5.5.5.6.6.6.6.,.O.n e               @ 3 w w k i S D D k i w ; q S E t.M.G.T.'.XXXX+X+X+X%X%X%X=X=X=X=X%XXXT.m.! c o z f.,X9XfXlXMXmXxXhXyX0X{.`.Z.m.` ~ K 0 p s | o.,.3.5.5.5.",
"5.4.5.5.5.5.6.6.6.5.,.O.M e $           X @ 1 w l D Y H ! ~ ~ ! ! ! ! ~ ` y.b.V.D.H.`.'.].XX+X%X=X-X-X-X-X-X&XXXY.B.` c * 6 0.x.<X9XfXfXgXaXtX4X{._.D.m.c.~ W L V f g  .=.3.3.3.3.6.",
"3.3.3.3.5.5.5.6.6.5.,.>.X.M n n ; $ O @ @ @ 2 i D E / ` c.v.v.v.v.c.c.v.v.b.b.i.b.N.A.H.T.].XX%X*X-X;X;X;X-X=X+X`.Z.` G ; 6 { k.^.<X5X7X8X6X@X@X~.A.b.` ) ~ W %.@. .$.$.>.,.4.4.5.5.",
"3.3.5.3.5.5.5.5.5.3.3.,.>.+.A ..Z d s 8 > > 3 l H / c.m.Z.L.L.L.L.L.L.Z.Z.m.b.' ) _ u.M.H.`.XX%X*X;X;X;X>X-X=X+X`.F.b.E w < 6 { k.z.(.|.|.^.z.h.d.r.( ~ ~ W ;.-.*.=.=.2.,.3.4.4.5.5.",
"3.3.3.3.5.<.5.5.3.3.5.3.3.3.>.>.=.$.C s , > 3 S / ] m.J.Y.E.}.W.W.W.E.E.I.Z.b.) Y F R r.M.J.].%X-X;X;X;X;X;X=X+X`.H.a.Q l O > 5 z 7.0.w.9.9.8.^ F F S J L *.*.-.-.2.2.2.3.4.4.5.4.5.",
"3.5.5.5.5.5.5.5.3.3.5.5.5.5.6.3.,.-.C s > > 3 F _ N.U.].%X*X-X;X;X;X*X*X].T.V.e.k 1 q P t.D.T.XX%X*X-X-X=X*X%X].`.G.a.( l O X   X O O O O X O O O @ 2 u B o.*.,.5.6.5.3.5.3.5.4.5.4.",
"5.5.5.5.,.5.5.5.3.3.5.5.5.6.6.6.3.>. .a > O $ T p.K..X#XqXwXrXrXrXrXrX>X:X.XK.d.x @ X q ~ n.G.'.[.XX+X+X+XXX].`.J.A.t.Q k O                     X @ < a N @.-.2.5.6.6.3.3.5.4.5.3.5.",
"5.3.5.,.5.5.5.,.5.5.5.5.6.5.6.3.5.>...9 O   + ^ h. X#XeXuXhXhXhXhXhXhXpXtX#X Xh.#.@     D ' C.G.U.`.`.'.`.`._.H.A.a.r.Y j O                   X @ > p g C $.-.4.3.6.6.6.6.5.4.3.3.4.",
"3.3.5.5.,.5.,.5.5.5.5.5.5.6.5.6.5.=.M $     @ 8.h.@X4XdXzXbXbXbXbXbXbXzXdXtX@X!.9.@     ; H ] N.D.D.G.G.D.D.A.M.i._ Q F & @ O X X + $ - 7 7 9 9 s s g  .U &.,.3.5.5.6.5.3.5.3.5.3.5.",
"5.3.3.<.5.5.5.3.5.3.5.5.5.5.6.6.1.=.n O     @ 9.^.3XaXzXbXNXVXCXCXVXVXvXxXyX6X Xd.6       b E _ t.t.a.t.u.u.u._ ( E l j & O @ 2 9 y n M M M Z |  .o.$.$.*.>.3.1.5.6.3.3.3.5.5.4.5.3.",
"5.3.5.5.1.3.5.3.,.5.5.5.5.5.5.5.,.+.n       @ 0.|.6XsXcXNXCXAXAXSXSXZXBXcXkX8X Xg.x       . i P Y Y E R Y Y Y P l l j & O @ 4 g B L *.>.>.,.,.>.>.,.,.,.,.,.,.5.5.5.5.5.5.4.5.4.5.3.",
"5.5.5.,.5.3.5.5.5.5.5.5.5.5.6.5.,.$.n .     1 0.(.5XsXcXBXZXSXSXSXSXZXBXcXkX8X Xg.x         X 3 3 3 3 3 3 3 3 3 3 # O O # 7 u h L -.1.5.5.5.5.3.5.5.3.3.,.,.5.5.5.,.5.4.4.5.4.4.5.5.",
"5.3.3.5.3.3.,.5.,.5.,.5.6.5.5.5.3.&.M ;     w f.(.3XaXlXMXCXZXZXZXZXZXMXcXsX7X|.g.x           O O O X X X X O O O @ @ # 3 u h @.$.*.3.5.6.6.6.5.5.5.6.5.5.5.5.5.4.5.4.5.5.4.4.4.3.3.",
"3.3.3.3.5.1.5.5.5.5.5.5.5.5.5.5.4.=.M y - $ h s.!.,X8XaXkXlXnXnXMXcXcXlXkX8X2X|.f.j                           O @ @ 1 8 u V @.%.-.,.3.5.3.6.5.6.6.5.5.5.5.5.5.5.5.,.5.4.5.4.4.4.5.1.",
",.5.5.5.5.5.,.5.5.5.5.3.5.5.5.5.4.>.A M y d C s.l.(.2X6X9X9XsXsXkX9XaX9X7X2X|.l.8.6             X           X O @ 4 9 g V L *.>.,.1.5.5.6.6.6.3.5.5.6.5.5.5.5.3.5.5.5.3.3.5.3.4.5.5.",
"5.5.3.3.3.5.5.5.,.5.4.5.5.5.5.3.,.,.>.O...X.*.<.j.l./. X,X<X2X2X2X2X<X<X|.|.k.f.I &           O X X X       X @ 1 0 h L L *.-.,.,.4.5.5.3.3.6.3.5.5.5.5.5.3.5.3.5.,.3.3.3.1.5.5.3.3.",
"5.5.1.3.5.3.1.3.5.4.5.,.5.5.5.5.3.3.>.>.>.>.,.:.4.s.f.k.k.k.k.k.h.l.g.g.g.0.7.z j , X     O O @ @ O O X X X O % 0 B L $.>.1.3.3.4.4.3.3.5.5.3.3.3.5.5.5.5.5.5.1.3.3.5.1.5.5.3.3.5.5.",
"3.<.5.3.5.5.5.3.4.5.5.5.4.5.3.5.5.5.5.5.4.4.2.1.-.%.P x x j j j j z x j j j j q & 3 # # # % % % % % @ @ O O 1 q u L L -.,.3.5.5.5.4.3.3.3.3.3.3.3.1.5.,.5.5.3.5.5.3.5.5.3.5.5.1.5.3.",
"3.3.5.5.3.3.5.5.5.,.5.1.3.3.5.5.,.5.6.6.6.5.5.3.A M e .                     X + 2 7 w w 0 0 0 w 0 q 7 3 3 3 0 u h @.*.-.5.3.6.5.5.5.5.,.3.3.5.5.5.5.3.5.5.5.,.5.5.5.5.5.3.3.5.1.5.5.",
"3.5.5.3.1.5.3.5.5.5.3.5.3.5.<.5.5.5.5.6.6.6.5.>.A M e                       X 7 9 g J h x h h h g u u g 0 u u h @.$.*.4.3.6.5.6.6.5.5.5.3.5.5.,.5.1.3.1.3.5.5.5.,.5.,.5.1.5.5.5.3.3.",
",.5.5.3.5.3.3.3.5.3.5.5.5.3.3.3.5.5.5.6.6.6.5.3.O.M y e o               $ - e y B V L L L L L L L L V V V L V L $.*.-.4.5.6.5.6.5.5.5.4.1.5.,.5.3.3.5.5.5.3.1.3.5.5.5.,.5.3.3.,.5.5.",
"5.5.5.,.5.5.3.5.1.3.3.5.5.5.3.3.5.5.5.5.5.6.5.,.>.+.Z M n y y y y y y n n M m A A $.%.%.%.%.$.$.$.$.$.U $.$.%.=.*.-.1.4.5.5.5.5.5.5.,.5.5.5.5.3.3.5.5.3.5.5.5.3.,.5.5.5.5.3.5.5.3.3.",
"5.5.5.,.5.5.5.1.5.5.3.5.3.,.5.5.5.3.5.5.5.5.5.3.,.>.>.=.&.+.+.+.+.+.+.+.&.=.=.>.-.-.-.,.*.-.-.-.,.-.,.-.*.>.,.>.,.,.3.3.4.4.5.5.5.5.5.,.5.5.3.3.5.3.3.3.3.3.3.5.5.5.3.5.3.5.3.1.5.1.",
"5.,.3.5.1.5.5.5.3.3.3.5.5.5.,.5.5.3.3.3.5.5.5.3.4.1.4.4.5.1.,.5.1.,.3.3.5.,.3.3.1.4.4.4.4.4.4.4.4.4.,.1.3.,.1.5.1.2.4.4.4.4.4.5.5.5.4.5.5.4.5.5.,.3.3.3.5.1.3.5.3.5.,.5.5.5.3.5.3.3.",
"5.5.5.5.5.3.3.,.5.1.5.1.5.3.5.5.5.5.3.5.,.5.1.3.4.5.5.5.3.3.5.3.4.5.5.5.3.5.5.5.5.5.5.5.5.5.5.5.5.5.5.5.5.5.3.3.4.5.5.4.5.5.4.4.5.4.5.5.4.,.5.,.5.5.5.5.3.3.5.5.3.5.3.<.5.,.5.3.5.5.",
"5.,.5.,.5.5.3.5.3.3.5.5.,.3.3.3.3.3.3.<.5.5.5.3.5.5.5.5.5.6.5.6.5.5.6.5.5.5.6.5.6.5.6.5.6.5.5.5.5.5.6.6.5.5.6.5.5.4.5.5.3.4.5.3.5.5.,.5.5.3.5.5.1.5.5.3.5.3.3.<.5.3.3.5.5.5.5.3.5.3.",
"5.3.5.5.3.3.1.5.5.5.3.5.5.,.5.5.5.5.3.5.5.3.5.5.5.5.5.5.6.5.5.5.3.6.5.3.6.5.5.5.5.5.5.6.5.5.5.6.5.6.5.6.3.6.3.5.5.5.5.5.3.5.5.3.5.3.5.5.3.3.1.5.5.5.3.3.3.5.5.3.5.5.5.1.3.3.5.5.,.5."
};
