/* XPM */
static char *result[] = {
/* columns rows colors chars-per-pixel */
"90 105 245 2 ",
"   c #000000",
".  c #000C07",
"X  c #00000D",
"o  c #001309",
"O  c #000015",
"+  c #030B15",
"@  c #00001C",
"#  c #010D1D",
"$  c #02151A",
"%  c #121B1D",
"&  c #002B02",
"*  c #003402",
"=  c #00241B",
"-  c #052819",
";  c #153316",
":  c #000024",
">  c #010B27",
",  c #000229",
"<  c #021422",
"1  c #041A22",
"2  c #0B1C22",
"3  c #01162B",
"4  c #11132D",
"5  c #2A1E37",
"6  c #052624",
"7  c #01242C",
"8  c #002C2B",
"9  c #0D2C2B",
"0  c #142524",
"q  c #172A27",
"w  c #003326",
"e  c #00362A",
"r  c #003B2D",
"t  c #18342A",
"y  c #1D342A",
"u  c #002331",
"i  c #002E33",
"p  c #003335",
"a  c #053A36",
"s  c #023C3A",
"d  c #133B33",
"f  c #193B34",
"g  c #262C2D",
"h  c #233A2B",
"j  c #263A28",
"k  c #292A34",
"l  c #2A3633",
"z  c #343739",
"x  c #0D430D",
"c  c #275C1A",
"v  c #114B2A",
"b  c #004434",
"n  c #07453B",
"m  c #014C3A",
"M  c #14453D",
"N  c #184539",
"B  c #1D4539",
"V  c #1A4A3E",
"C  c #08523E",
"Z  c #1B503E",
"A  c #2B432D",
"S  c #2A4828",
"D  c #31492E",
"F  c #2A5228",
"G  c #32572C",
"H  c #294935",
"J  c #224C3D",
"K  c #324D32",
"L  c #3A4539",
"P  c #2A543C",
"I  c #365233",
"U  c #395433",
"Y  c #345837",
"T  c #3B5A36",
"R  c #345B3C",
"E  c #3C5B39",
"W  c #37642A",
"Q  c #3B6334",
"!  c #3E6838",
"~  c #41503C",
"^  c #446836",
"/  c #43633B",
"(  c #466B3D",
")  c #4A6C3E",
"_  c #48773A",
"`  c #4B733D",
"'  c #507F3C",
"]  c #382E41",
"[  c #423C48",
"{  c #054440",
"}  c #144D43",
"|  c #1B4D41",
" . c #075341",
".. c #135542",
"X. c #1D5244",
"o. c #185A45",
"O. c #1C5A45",
"+. c #214F41",
"@. c #394947",
"#. c #245444",
"$. c #2A5642",
"%. c #235B46",
"&. c #2A5A45",
"*. c #255C49",
"=. c #295D49",
"-. c #325A40",
";. c #385A4B",
":. c #25614A",
">. c #2D654E",
",. c #3C6244",
"<. c #32634D",
"1. c #2F6750",
"2. c #2F6850",
"3. c #306750",
"4. c #316951",
"5. c #377056",
"6. c #454A48",
"7. c #48584B",
"8. c #4D5A4D",
"9. c #52574E",
"0. c #515A4E",
"q. c #4D5D50",
"w. c #545B53",
"e. c #436843",
"r. c #4A6C41",
"t. c #4D7244",
"y. c #4F7943",
"u. c #507544",
"i. c #537A45",
"p. c #58774A",
"a. c #557D49",
"s. c #486554",
"d. c #586D50",
"f. c #58695A",
"g. c #616D5E",
"h. c #63785B",
"j. c #5C7461",
"k. c #646A62",
"l. c #687666",
"z. c #717A6D",
"x. c #777C73",
"c. c #4F823D",
"v. c #52853E",
"b. c #548244",
"n. c #568446",
"m. c #598B45",
"M. c #5B854C",
"N. c #5E894D",
"B. c #5E9349",
"V. c #5F8A51",
"C. c #608C4F",
"Z. c #62984B",
"A. c #628E51",
"S. c #688959",
"D. c #659353",
"F. c #689756",
"G. c #699657",
"H. c #699956",
"J. c #6C9C59",
"K. c #709A5E",
"L. c #67A24D",
"P. c #6CA355",
"I. c #6FAB54",
"U. c #6FA15A",
"Y. c #72AD56",
"T. c #72A45D",
"R. c #75AA5E",
"E. c #77B35C",
"W. c #7ABA5D",
"Q. c #6E8468",
"!. c #73836C",
"~. c #759965",
"^. c #798573",
"/. c #798875",
"(. c #7D8A74",
"). c #7E9673",
"_. c #76A363",
"`. c #76AB61",
"'. c #79AD62",
"]. c #7DB465",
"[. c #7EBC62",
"{. c #7DB068",
"}. c #7FC061",
"|. c #828D7A",
" X c #83967A",
".X c #81AC6E",
"XX c #80B767",
"oX c #81BD65",
"OX c #82B66B",
"+X c #84BD6A",
"@X c #86A875",
"#X c #8AB975",
"$X c #83C266",
"%X c #86C06C",
"&X c #89C46E",
"*X c #8BC96E",
"=X c #8BC671",
"-X c #8DCA71",
";X c #91CD75",
":X c #93C77B",
">X c #95D17A",
",X c #8C9A85",
"<X c #909A87",
"1X c #8EA982",
"2X c #94A38B",
"3X c #97A98B",
"4X c #99B989",
"5X c #9CAC92",
"6X c #9EB391",
"7X c #A1AE97",
"8X c #A5B69A",
"9X c #ACBBA1",
"0X c #98C783",
"qX c #99CB82",
"wX c #9FD486",
"eX c #A1CD8C",
"rX c #A3D78B",
"tX c #A7C896",
"yX c #B0CF9E",
"uX c #ACD797",
"iX c #B1D99E",
"pX c #B4E39D",
"aX c #B4C7A7",
"sX c #B9CBAC",
"dX c #BAD7A9",
"fX c #BCCCB0",
"gX c #BED2B1",
"hX c #B9E4A4",
"jX c #C3D5B5",
"kX c #C7DCB9",
"lX c #C1E7AE",
"zX c #C8EAB5",
"xX c #CBE3BC",
"cX c #D0EFBE",
"vX c #CDF4B8",
"bX c #CFE3C0",
"nX c #D5EAC5",
"mX c #D5EAC6",
"MX c #D7F6C4",
"NX c #DCF3CB",
"BX c #DEFCCC",
"VX c #E0FDCD",
"CX c #E5FDD3",
"ZX c #E9FFD7",
"AX c #EBFFD9",
/* pixels */
"3.3.3.3.2.2.4.4.4.4.4.4.<.4.>.4.3.4.3.4.2.3.3.4.4.4.4.4.4.4.5.5.2.5.4.5.4.4.4.4.4.4.4.4.5.4.4.4.4.4.5.4.4.4.4.4.5.4.4.5.2.4.4.4.4.4.3.3.4.3.4.4.4.>.4.4.>.2.4.4.4.4.4.>.4.4.>.4.4.>.",
"3.3.4.3.4.<.4.4.<.4.4.>.>.4.4.4.3.3.4.3.3.4.4.3.4.4.2.5.5.4.4.4.5.2.4.4.4.5.2.5.5.4.5.4.5.4.5.4.5.4.5.4.5.4.5.4.2.5.5.4.5.2.2.5.4.3.3.4.4.3.4.4.4.4.>.4.4.<.4.4.4.>.4.4.4.4.4.4.4.4.",
"4.4.3.4.2.4.<.4.4.4.4.4.>.4.4.>.3.3.3.4.4.3.4.2.4.4.4.4.3.4.4.2.2.2.2.2.2.2.4.5.3.4.4.3.2.3.4.3.4.3.2.2.3.4.4.3.2.4.4.3.4.4.2.4.3.3.1.1.3.4.2.3.2.2.4.4.4.4.2.2.4.>.4.4.<.4.4.4.4.>.",
"4.4.4.4.4.2.2.4.4.>.4.4.4.4.4.4.3.3.3.4.2.3.3.4.>.4.4.4.3.>.1.1.4.>.4.4.4.4.>.2.>.1.3.>.2.2.2.2.4.4.2.2.3.>.1.1.2.2.2.>.2.2.2.2.1.3.1.1.4.3.3.4.2.2.>.4.4.4.4.<.4.<.4.>.>.4.4.>.4.4.",
">.4.2.4.4.2.4.2.4.4.>.4.4.>.4.4.4.4.2.4.4.4.1.1.>.>.:.=.=.&.=.&.*.&.&.*.*.*.&.*.*.&.&.&.&.&.=.&.*.=.*.&.*.&.*.&.&.*.=.*.=.=.=.>.>.1.1.1.4.4.4.2.2.2.4.2.4.<.4.4.4.4.4.4.4.4.4.4.4.>.",
"4.4.2.2.<.4.2.2.>.4.4.4.4.4.4.4.2.4.4.4.4.4.4.1.>.*.#.#.| } M M | V } | V V V V V | } | } | V V V V | | } | V | } V M M M | X.#.*.1.1.1.5.4.4.2.4.4.4.4.2.2.4.4.<.4.>.4.4.>.>.4.4.4.",
">.4.>.2.2.4.2.<.4.4.4.4.4.>.4.>.4.4.2.5.5.5.4.1.=.#.| a p i u 7 u i i i i i p i i i i i i i i i i i i i i i i i i u 7 7 u p n | #.>.2.2.5.4.4.5.4.2.4.2.4.4.<.4.>.4.4.4.4.4.4.4.4.>.",
"4.4.2.2.2.4.4.4.4.4.>.4.4.<.4.4.2.4.2.4.5.5.4.>.*.X.M i > : : : : : : , , : , : , : , , : , , , : , , : : , , : : : : : , 3 i d X.*.2.2.5.5.5.4.4.4.<.2.4.2.2.2.>.4.>.4.4.>.4.4.4.4.",
"4.4.4.4.4.4.4.4.>.4.4.>.4.4.>.4.1.4.4.5.5.4.4.1.&.| d 7 : @ O X @ @ @ @ @ @ @ @ : @ @ : @ @ @ @ @ @ @ @ @ @ @ @ @ @ O O O @ 7 d | &.>.4.4.5.5.2.4.2.2.2.4.3.2.4.4.4.>.4.4.4.>.4.>.>.",
">.4.>.4.>.4.>.4.4.4.4.4.4.4.4.4.1.1.4.4.4.4.1.>.&.J J f g % % % % 0 0 0 0 0 0 0 0 0 q 0 0 0 0 0 0 0 0 0 q 0 0 0 0 % % % 0 q y J $.=.=.3.4.4.2.1.4.4.2.2.2.4.3.3.4.4.4.4.4.>.4.4.4.4.",
"4.4.4.>.4.4.4.>.4.4.>.4.4.4.4.4.1.1.>.>.1.>.*.=.&.-.Y I U U U U I U U I U I U U I U U U I U U U U U I I U U U U U U I U I U Y R -.-.=.:.1.1.1.1.2.4.2.4.4.4.3.4.>.4.4.>.4.4.4.4.4.4.",
"4.>.4.4.>.4.4.4.<.>.4.4.4.4.4.4.1.1.*.*.X.} X.+.-.-.e.) u.` ` ' u.u.u.u.u.u.` u.u.u.u.` u.u.u.` u.u.u.u.t.u.u.u.u.u.` u.u.r.r.e.-.-.$.| } X.X.=.<.4.5.4.4.4.4.2.4.4.4.4.4.>.4.>.4.<.",
"4.4.4.4.4.>.4.>.4.4.4.4.4.4.5.4.4.1.O.} s p p B R e.u.M.C.D.D.A.A.A.A.A.A.A.A.A.A.A.A.A.A.A.A.A.A.C.A.A.A.A.A.A.D.D.D.D.D.A.M.u.e.R N p p s } %.>.3.4.5.5.4.4.4.4.4.4.4.4.>.4.4.4.4.",
"4.>.4.>.4.>.4.4.2.4.4.4.5.5.5.5.2.=.X.s u , , f U t.M.G.U.T.R..XR.R.T.R.T.R.T.T.T.T.T.T.R.R.R.T.T.R.T.R.T.T.T.T.R.R.`.`.R.K.G.M.t.U t , , u s X.:.2.5.5.4.5.4.4.4.4.4.>.4.4.4.4.4.4.",
">.4.4.4.4.4.4.4.4.4.4.4.4.5.5.4.3.=.} i , : @ y E a.D._.XXXX+X+XXXXXXXXXXXXXXXXXXXXXXXXXXXXXXXXX].XXXX].].XXXXXXXXOXOX+X[.].T.D.a.E y : , , p } *.4.4.5.5.4.3.3.>.<.>.4.4.4.4.>.>.>.",
"4.4.4.>.4.>.4.>.4.2.4.4.4.4.4.4.3.=.| p > : 2 D e.V.J.'.+X&X&X=X&X%X%X%X+X+X%X%X+X&X+X+X+X+X+X+X+X&X+X+X%X%X%X%X%X&X=X=X=XOX].J.M.) K 2 : > p V *.4.4.4.4.4.3.1.4.4.4.4.4.>.4.4.4.4.",
"4.4.4.>.4.>.4.4.3.3.3.4.4.>.1.=.=.=.P J y h D / p.F.R.XX&X*X;X-X-X&X&X&X-X&X-X&X=X&X&X&X*X&X*X&X&X&X&X-X&X&X&X*X-X-X;X-X-X&X].R.F.p.^ D j j J J &.>.>.>.1.1.1.1.4.4.4.4.4.4.>.4.4.4.",
"4.<.4.4.4.4.4.4.4.3.3.>.:.*.*.#.=.-.-.R R / r.p.A.U.E.OX&X-X-X;X-X-X-X&X&X&X=X*X-X*X&X;X=X=X=X*X-X=X-X&X-X&X-X&X=X-X;X-X-X&X+X`.U.A.p.` / E Y &.-.&.#.#.=.=.>.1.>.4.4.4.>.4.4.4.4.>.",
"4.>.4.>.4.4.4.4.4.3.>.>.*.X.| | $.-.;.e.u.p.A.F.T.R.XX+X&X*X-X*X-X&X&X&X&X=X&X&X&X&X&X&X&X&X&X&X&X&X&X&X&X&X&X&X&X-X-X-X&X&X+X].R.K.D.C.p.t.r.,.-.P V | X.*.=.<.4.4.4.4.4.4.4.4.4.4.",
"4.4.4.4.4.4.4.4.3.<.>.=.#.M a d H Y / a.N.F.T.R.'.XX+X+X+X&X=X=X&X&X&X&X&X&X%X&X&X%X&X%X&X&X&X&X&X&X&X&X&X&X&X&X&X&X&X&X&X&X+XXXXXXXR.U.F.V.a.e.I J d a M X.=.>.4.4.4.4.4.4.>.4.4.>.",
"4.4.4.4.4.4.4.4.5.2.>.%.| p 7 7 h T t.N.J.`.].[.+X+X+X%X%X%X%X%X&X+X%X%X&X%X%X%X&X+X%X%X%X%X%X%X+X%X%X%X%X%X%X%X+X&X+X&X&X&X+X+X+X+XXXXXR.G.C.r.R h 7 7 p | %.>.4.4.4.4.4.4.4.4.4.>.",
"4.>.4.>.4.4.4.5.4.4.>.#.M 7 : @ y U u.A.T.].+X=X&X%X&X%X%X%X%X%X+X&X%X%X+X%X%X%X+X&X%X%X%X+X%X%X%X%X+X&X%X%X%X%X+X+X&X&X+X+X&X&X=X=X&X+XXX_.C.p.U y @ : u M #.>.4.4.4.5.4.4.<.>.4.4.",
">.4.4.4.4.4.4.5.4.4.:.#.s 3 @ O 0 U i.F.R.OX=X-X-X-X-X%X%X%X+X%X%X%X%X%X&X+X%X%X%X%X%X%X%X%X%X%X%X%X%X+X%X%X%X%X&X+X+X+X&X+X&X&X*X;X-X=XXXR.D.' U 0 X @ 3 a #.>.4.2.5.4.4.4.4.4.4.4.",
"4.4.4.>.4.4.4.5.4.2.>.X.p :       S ` D.R.+X=X-X;X-X-X&X%X%X+X&X+X%X%X%X+X&X+X%X%X%X%X%X%X%X%X%X%X%X%X%X%X%X%X%X+X&X&X+X+X&X%X%X*X;X-X=X+XR.Z._ S       : p X.:.4.5.5.4.4.4.4.>.4.4.",
">.4.>.4.4.5.4.5.5.4.:.C 8 X       ; _ B.T.XX&X;X;X;X&X%X+X%X%X+X&X+X&X+X&X&X+X&X%X%X%X%X+X%X%X%X+X&X+X+X%X%X&X+X+X&X+X+X%X%X=X=X-X;X-X&XOXR.C.^ x       X i } >.4.5.5.4.4.4.4.4.4.4.",
"4.4.4.4.4.4.5.5.5.4.>.C 8         & ^ v.P.XX&X-X-X&X&X%X%X%X%X%X+X&X+X+X+X+X+X+X%X%X%X%X%X%X%X+X&X%X%X&X&X+X+X&X&X+X&X+X%X%X%X%X-X-X-X&X].P.m.W &         i { >.5.5.5.5.5.>.4.>.4.4.",
"4.4.>.4.4.5.5.5.5.4.>.C 8         * W v.P.].+X;X;X*X&X&X%X%X%X%X%X&X+X&X+X&X&X+X%X%X%X%X%X%X%X%X+X+X&X+X+X&X%X%X+X+X&X+X&X%X%X=X&X-X-X%X].P.m.W &         8  .=.2.5.5.5.5.4.4.4.4.>.",
"4.4.<.4.4.4.4.5.5.2.>...s , X X . S ^ Z.T.XX%X&X&X&X&X%X%X%X%X%X%X+X&X+X&X+X+X&X%X%X%X%X%X%X%X%X%X%X%X%X+X+X+X%X&X+X+X&X+X%X+X=X&X-X&X%X].T.A.` F .   X : s } >.4.5.5.4.4.4.4.>.4.2.",
"4.>.4.4.>.4.4.>.>.>.>.-.;.@.@.@.0.p.S.K.R.XX%X&X&X&X&X%X%X%X%X%X&X+X+X&X+X+X&X+X%X%X%X%X%X%X&X%X&X+X+X%X%X%X%X%X%X+X%X%X+X%X%X&X=X&X&X%XOX'.U.S.d.8.~ @.@.=.;.<.>.4.>.4.>.>.4.4.4.4.",
"4.4.4.>.>.:.:.O.O.&.<.s.f.j.l.!.(. X X@XOX+X%X&X&X&X%X%X%X%X+X%X+X+X&X+X&X+X+X&X%X%X%X%X%X+X+X%X+X&X&X%X%X%X%X%X%X%X%X%X%X%X%X%X$X%X&X%X+X.X.X X X(.z.l.j.f.s.<.:.O.o.:.>.>.>.4.2.4.",
"4.4.4.4.>.:.C m m V ;.j.z.|.,X2X5X6X4X#X#X#X&X$X$X$X%X%X%X%X%X%X&X+X&X+X&X+X+X&X%X%X%X%X%X%X+X%X&X%X+X&X%X%X%X%X%X%X%X%X%X%X%X%X$X$X%X%X#X#X#X4X6X5X3X<X(.!.j.,.Z b m C Z >.4.4.2.2.",
"4.4.4.4.:.Z m w w N 7.l.(.3X9XaXaXyXyXeXeX#X$XoXoX$XoX%X%X%X%X%X&X+X+X&X+X+X&X+X%X%X#X%X%X%X+X&X+X%X+X+X+X%X%X%X%X%X%X%X%X%X%X%X$XoX$X#X=XqXeXyXaXsXaX8X2X).l.7.N w r m Z >.4.2.2.5.",
"4.5.3.>.=.m r o X 8 q.z.<X9XfXkXxXzXdXiXeX:X%X[.[.[.+X+X+X+X%X%X+X&X+X+X&X+X+X&X%X+X&X+X%X+X+X+X&X+X%X+X&X+X%X%X%X+X=X+X+X%X+X+X[.[.[.%X:XwXiXdXxXbXkXfX8X2Xz.8.8 X o r  .*.>.3.2.2.",
"4.4.4.4.*.m =     # 0.^.5XsXkXmXNXnXcXhXuX:X%X[.[.[.}.%X%X=X+X%X+X+X&X+X+X&X&X+X+X&X+X&X+X&X&X+X+X&X+X&X+X+X%X%X+X&X+X%X&X+X+X$X[.W.[.%X:XtXhXzXMXMXNXkXaX5X^.8.$     = m %.3.4.5.4.",
"5.2.4.2.*.b .     X 9./.5XgXmXCXCXBXMXlXuX:X%X[.W.W.[.%X%X%X%X%X&X+X&X&X&X+X+X+X&X+X+X&X&X+X=X&X+X&X&X+X+X=X+X&X&X+X&X+X%X%X%X[.W.W.[.%XqXuXlXMXBXZXVXmXjX7X|.9.X     o b %.3.4.5.2.",
"2.5.2.4.%.b         w.(.8XkXmXZXZXCXMXlXuXqX%XW.W.W.+X+X%X%X%X%X+X&X+X+X+X&X+X&X+X+X&X+X+X%X+X+X&X+X%X%X%X+X&X+X+X%X+X&X%X%X+XoXW.W.W.%XqXuXlXMXCXAXZXmXjX8X|.9.        b *.3.4.2.5.",
"5.2.2.2.%.b         0.|.7XjXNXZXAXCXMXzXiXqX$XW.W.W.[.$X+X%X%X%X&X+X+X&X+X&X+X+X+X+X&X+X&X+X+X&X+X%X%X+X=X+X%X%X%X%X%X+X%X%X+XoXW.E.W.%XqXuXvXMXCXAXZXNXjX9X|.9.        b %.>.3.5.2.",
"2.5.4.2.%.b         0.|.9XjXNXAXAXZXMXzXuXqX&XW.E.W.[.$X%X%X%X%X+X&X+X+X&X+X+X&X&X+X+X&X+X&X+X+X&X+X+X&X&X+X+X&X%X%X%X%X%X%X%X[.W.W.W.$XqXuXzXMXZXAXAXNXjX8X|.9.        b %.4.4.4.4.",
"5.2.4.2.%.b         9.|.9XjXmXCXAXCXMXlXuXqX%XW.W.W.oX+X%X%X%X%X+X&X+X&X+X&X&X+X+X&X+X&X%X%X+X&X+X%X%X+X+X%X%X+X%X%X%X%X%X%X+X[.W.W.W.%XqXpXlXMXCXZXZXmXjX8X|.9.        b %.>.4.4.5.",
"2.5.4.2.%.b .     X 9.|.7XjXmXCXCXCXvXlXuXqX%XW.W.W.oX+X%X%X%X%X&X+X&X+X%X+X&X+X&X+X%X+X&X+X+X&X&X+X+X&X%X%X+X&X%X%X%X%X%X%X%XoXW.W.[.+X>XuXlXMXBXZXVXmXjX7X/.9.X     o b %.2.4.5.4.",
"4.5.4.4.%.m =     # 8.^.5XsXbXNXNXMXcXdXuX:X+XW.[.[.[.+X%X%X+X%X+X+X&X+X%X+X&X+X%X+X&X+X+X&X+X+X%X%X%X%X+X%X%X%X%X+X%X%X%X&X+XoX[.W.[.%X:XuXhXzXMXNXNXbXsX5X/.9.#     = m %.>.4.4.4.",
"2.2.2.4.:.m w .   8 7.!.2X8XfXkXxXxXlXiXeX:X&X$X[.}.$X%X%X%X%X%X+X&X&X+X%X+X+X&X+X&X+X%X&X+X+X&X%X%X+X%X%X%X%X%X%X%X%X%X%X+X%XoX[.[.}.%X:XeXdXhXbXbXkXfX9X2Xz.q.8   . w C :.>.4.4.5.",
"4.2.4.4.:.Z m w 8 d 7.l. X2X9XaXdXdXyXeX0X:X&XoX$X$X$X$X%X%X%X%X&X+X+X&X+X&X+X&X+X+X&X+X&X+X&X+X%X%X%X%X%X%X%X%X%X%X%X%X%X%X%X%X$X$X%X&X:XqXtXaXaXaXaX9X3X|.l.7.d w e b Z :.2.4.4.4.",
"5.2.4.4.>.O.C m m X.,.f.z.,X,X3X7X6X4X4X:X=X&X&X$X&X&X%X%X%X+X%X+X%X%X+X&X+X%X+X&X&X+X&X+X&X+X%X%X%X%X%X%X%X%X%X%X%X+X%X%X%X%X$X*X$X*X&X=X#X0X6X6X6X3X<X|.!.j.;.V m m C %.>.4.4.4.4.",
"2.4.4.4.4.:.O.o.o.%.<.s.f.k.z.^.(. X@X.X#X#X-X*X*X*X&X%X%X%X%X+X&X+X+X&X+X+X+X&X+X&X+X&X+X&X&X+X%X+X=X+X%X%X%X%X%X%X+X%X%X%X&X&X*X*X*X=X+X#X@X@X)././.l.k.f.s.;.&.O.o.O.:.4.2.4.4.4.",
"4.4.2.2.4.>.2.2.2.>.<.;.;.@.6.6.q.h.S._.'.+X&X-X=X=X&X&X%X%X%X%X+X%X&X+X+X&X%X+X+X+X%X+X%X+X+X&X%X%X&X+X%X%X%X+X%X%X%X%X%X%X%X&X*X-X-X&X+XXXT.S.V.w.7.@.@.;.<.3.:.>.2.4.>.4.4.4.4.4.",
"4.4.2.2.2.4.2.5.4.4.>.#.s 3 @ X = G ` A.U.].+X&X=X=X=X%X%X%X%X%X&X%X+X+X&X+X+X&X&X+X+X&X+X&X+X+X+X%X+X%X%X%X%X%X%X%X%X%X%X%X%X&X&X*X&X+XXXK.A.` K = O @ 3 b O.:.3.4.5.4.2.4.2.2.4.2.",
"4.2.2.2.4.2.5.5.5.2.>. .a O       * G ' A.T.].+X+X+X+X+X%X%X&X%X&X+X&X&X+X&X&X+X+X&X&X+X&X+X%X%X=X%X%X%X%X%X%X%X&X%X%X%X%X%X%X%X+X+XXX].T.D.' G *       O p ..>.4.5.5.5.4.4.2.2.2.2.",
"4.2.4.2.4.4.5.5.5.4.>.C m =       * F ! n.D.J.`.'.].OX+X%X&X*X*X&X&X&X&X%X%X%X%X+X%X%X%X%X%X%X%X+X+X=X+X&X%X&X&X&X&X*X*X&X%X+X[.XX`._.J.A.a.! c *       6 s o.>.4.5.5.5.4.4.>.4.4.4.",
"<.2.<.4.4.4.4.5.5.4.4.O.C m e 8 - b v G ! y.M.S.J.`.].+X&X=X=X-X-X=X&X&X=X&X=X%X=X%X%X%X%X%X+X%X+X&X%X&X&X&X&X&X=X=X-X-X*X&X+X{._.J.D.M.t.! Y v r w 8 e m  .o.1.4.5.4.5.4.4.4.4.>.4.",
"<.4.2.2.4.4.4.4.4.5.>.>.O.o. .C C Z V B V K ! t.V.H.'.[.&X-X;X-X-X-X=X=X=X&X&X%X+X%X%X+X+X%X+X%X+X&X&X&X&X&X=X=X-X-X;X;X=X&X[.'.J.C.u./ I H B Z Z C C  .o.O.1.1.4.4.4.4.4.<.>.4.4.4.",
"4.2.4.4.4.4.4.4.4.<.4.>.2.2.2.2.:.%.Z a 7 6 h U u.A._.].&X-X;X-X-X=X=X=X&X&X&X&X=X%X%X%X%X+X%X%X+X%X%X&X&X=X&X=X=X-X;X-X-X%X{._.A.u.U h 6 7 a V %.:.>.4.1.1.1.4.4.4.4.4.4.4.4.4.>.4.",
"2.2.4.>.4.4.>.4.1.1.1.1.2.5.4.2.>.&.| p , : < D ) M.J.].OX&X*X&X&X%X%X%X+X%X%X%X+X%X%X%X%X%X%X%X&X+X%X%X%X%X%X%X%X%X*X&X=X+X'.J.M.) D $ @ , i | %.>.3.4.4.4.4.2.4.4.4.4.4.4.4.4.4.>.",
"2.4.4.4.<.4.4.4.4.1.1.1.2.2.2.2.>.=.| f 9 0 h I ) M.F._.].XX+XXX[.].].{.].[.OX+X+X+X+X=X%X%X%X%X&X+X+XOX[.].].].].OX[.+X].].T.F.M.r.I h 9 p f J %.>.3.3.4.4.2.2.<.4.4.4.4.4.4.>.4.4.",
"4.4.4.4.>.4.4.4.4.4.1.1.>.*.*.%.#.$.$.$.R Y E r.u.M.A.H.J.T.T.T.U.J.U.T.T.'.].].+X+X%X=X&X&X&X%X+X+X].].'._.U.J.T.U._.T.U.U.H.D.M.u.r.E U R $.$.$.%.%.*.:.1.1.2.4.4.4.4.4.4.>.4.4.4.",
"<.4.4.4.4.4.4.5.4.5.1.>.O.} { n M P R ,.t.a.M.V.N.N.N.M.N.N.M.M.M.M.M.V.D.J.T.].OX+X%X=X&X&X&X&X+XOX].T.J.D.V.M.M.M.M.M.V.M.V.M.V.M.V.M.p.t.e.-.J M s { } *.*.1.4.5.5.4.4.4.<.4.>.4.",
"4.3.3.3.4.4.4.5.5.4.1.*.} s u 3 8 H e.a.V.G.J.J.G.A.M.u.) / E E R U E ( i.V.H.`.].+X=X=X-X=X&X&X+X{.`.H.V.a.( E U R T E / e.u.M.A.F.J.J.G.A.a.! H u 3 u s } %.2.4.5.5.4.4.4.4.4.4.>.",
"2.4.3.3.4.4.5.4.5.5.1.*.{ u , , < D r.M.J.`.].'.T.G.a.e.D y 2 @ @ : 0 A E a.A.T.].$X%X=X-X-X-X&X+X].T.D.a.E A 0 : @ @ % y K / a.D.R.`.].`.J.N.) H < : , u n O.2.5.4.5.4.4.4.4.4.4.4.",
"3.3.4.2.2.4.4.5.2.1.1.#.M 3 : : q T p.D.'.OX%X[.`.F.p.Q y O X     X X 0 I r.A.U.].OX=X=X-X*X-X&X+X].J.A.t.I 0 O       X @ y E p.F.`.+X+XOX`.F.a.T q @ : u d O.>.4.4.5.4.4.4.4.2.4.4.",
"3.4.4.4.4.2.1.2.1.1.*.#.V d 9 h D ) C.U.].%X&X%X].U.V./ A < O O X O @ h R i.A.U.].+X&X-X-X-X=X&X+X].T.A.t.T h : O X X O # A ( N.U.XX+X&X%X].T.C.) D t 9 d | P >.>.>.2.2.2.4.2.4.4.4.",
"4.4.4.2.3.>.=.*.=.&.&.-.P Y I E ) M.F.R.OX&X=X%XOXR.F.p.e.U H A A A K E r.M.F.R.{.+X=X=X=X=X=X=X+X].`.G.M.r.E K A h h A K / a.D._.+X&X=X%X+XR.H.b.^ T G H P P :.=.=.=.1.>.>.<.4.4.4.",
"4.4.4.3.>.=.#.#.X.J $.R e.e.t.a.C.F.T.].+X%X*X&X+X`.T.F.V.a.a.u.u.t.a.a.A.G.T.`.[.+X%X=X&X=X&X&X+X].'.U.F.V.a.y.t.r.t.t.i.M.D.J.XX+X&X;X*XoXW.P.Z.v._ ^ Q R P P +.| #.#.:.>.4.4.4.4.",
"4.4.4.4.>.*.| M d N H ;.t.a.A.F.T.`.'.[.+X%X&X&X%X].].R.U.U.J.H.H.H.F.H.U.R.`.{.OX$X&X%X&X&X=X%X%XOX].'.`.J.H.F.F.D.D.D.F.J.T.'.+X%X*X-X-X+XoXY.L.Z.v.v._ ! R H f M M #.P >.4.4.4.4.",
"5.4.4.2.=.X.M p i 9 H e.y.V.J.`.].OX+X$X%X%X%X%X%X%XOXXX[.].{.].{.'.'.`.].].].OX+X%X%X&X%X&X%X%X%X+XOX[.].'.'.'.'.`.`.'.'.].].OX+X%X*X-X&X&X$XW.W.Y.L.Z.m.` T H 9 u a N %.>.>.4.4.4.",
"4.5.2.2.:.X.a 3 : 2 D / p.J.R.XX+X%X*X%X%X+X%X&X+X%X+X&X+X%X+X+X+X+X+X+X+X+X+X%X%X%X%X%X+X%X%X+X+X=X+X+X+XOX+X+X+X+X+X+X+X+X+X%X%X%X&X%X&X%X&X&X%XoXE.T.F.i.^ j 2 : 3 d X.=.2.4.5.4.",
"5.2.2.>.>.V p : @ @ j ) C.J.XX+X&X*X;X-X&X&X%X+X%X+X+X+X+X+X+X&X%X%X=X=X=X%X&X%X%X%X%X+X+X=X+X=X+X+X%X%X=X=X&X&X*X*X&X&X&X&X%X+X+X+X[.[.OX&X-X:X>X>X:XOXR.S.) j @ O : p } *.<.4.5.4.",
"2.2.4.2.&.| p : @ O j ) C.U.XX+X*X;X-X*X&X$X+XXXXXXXXXXX].].XX+X+X=X=X=X=X=X&X&X%X%X%X%X%X+X+X+X&X+X=X&X&X*X-X-X*X-X-X;X=X=X&X+X].E.R.'.{.#X0XwXrXuXrX0X@X~.p.L O   @ 8 V *.3.4.2.5.",
"2.5.5.2.=.| p : O O j / p.U.XX+X-X-X-X&X$X$XoXW.W.R.T.P.U.K.R.`.].+X%X=X=X=X=X%X%X%X%X+X+X%X+X=X+X=X%X=X-X=X-X-X;X;X;X;X-X=X&X[.R.P.D.F._.@X0XuXpXlXdXyX4X@Xh.6.X     1 n *.2.4.5.2.",
"5.4.4.1.=.| p , @ @ A ) M.J.].+X&X-X*X$X$X$XW.E.Y.P.D.N.M.C.A.J.`.].%X=X=X=X&X&X%X%X%X+X%X+X%X+X%X&X&X&X=X-X-X-X-X;X;X;X-X=X+XE.L.v.i.n.Q.#XtXdXzXzXzXlXyX@Xz.6.      $ m %.1.4.5.4.",
"4.4.4.1.=.| p > @ @ A ^ M.K.'.+X&X*X*X&X$X$XoXE.P.B.n.r.^ e.i.A.J.'.[.%X=X&X&X&X%X%X%X%X%X%X+X%X%X%X%X=X&X=X-X=X-X-X;X;X-X&X].I.m._ W / h.).6XdXcXVXNXxXjX6X!.7.X     + b %.1.4.2.2.",
"4.5.4.1.=.X.p 3 @ > j / M.J.`.+X&X&X*X&X$X$X$XE.P.N.t.I j A E i.F.`.[.%X*X&X&X&X=X+X%X%X%X%X%X%X%X%X%X%X&X%X&X&X=X=X-X-X=X&X'.H.c.c * h w.,X9XgXmXVXVXmXjX6X|.9.X     o m %.1.4.5.2.",
"4.4.4.1.=.| s > : # D ^ M.H.R.+X&X-X;X;X;X;X*XOX_.A.r.A : @ j e.V._.].%X=X=X&X&X%X%X%X%X%X%X+X%X%X%X+X+X+X+XoX+X+X$X&X&X%X].R.B.W x X : 6./.6XgXbXNXNXxXdX7X(.w.$     = m #.1.3.4.4.",
"4.5.4.1.=.| p > : @ A ^ n.H.R.oX*X>X>XwXrXwXwX0X#X~.d.z @ X ; ! N.U.].&X=X=X*X%X%X%X%X%X%X%X&X%X%X+X+X[.].'.'.`.'.'.].].].R.F.b.W &   X [ z.2X9XjXbXbXjXaX3X/.s.w   . r m :.4.2.5.4.",
"5.4.2.1.=.| p , @ @ j ^ n.H.R.$X;X>XrXuXpXdXdXyX4X,Xl.@.:   - Q N.U.].&X=X=X&X&X%X%X%X&X&X=X&X=X%X+XOX'.T.J.H.D.D.G.H.H.F.F.M.( c o   X ] k.,X5X9XjXjX9X6X,Xl.<.N w w b Z :.>.4.4.4.",
"4.4.4.1.=.| p : @ @ j ^ b.Z.R.[.;XwXuXhXhXvXzXlXaX5X/.9.4   & W m.U.].%X*X=X=X&X%X%X%X&X=X=X-X-X=X$X].T.F.N.a.t.r.u.a.a.i.t.) G x .   O 5 w.z. X2X5X7X2X,X/.j.,.V m m C O.4.4.4.4.4.",
"5.5.4.1.=.| i , O O j ^ b.Z.Y.$X;XrXpXvXvXMXMXbXgXtX,Xf.k   * W m.U.].&X&X=X&X%X%X%X%X&X=X=X-X-X&XOX'.H.N.r.T A A H K U T Y K y 0 + O @ k 6.w.k.z.^.x.x.z.j.s.,.#.O.o.:.:.2.>.4.4.4.",
"2.5.2.2.=.| p , @ @ j ^ ' Z.Y.[.;XrXhXzXMXBXVXNXkX9X<Xk.k   * W m.U.].&X&X=X=X%X%X%X%X&X=X-X-X-X%X].R.D.t.E y @ @ @ # 0 0 q 0 0 1 $ # 1 0 k z L 6.6.7.7.7.,.<.<.>.>.>.>.4.4.4.4.2.2.",
"5.2.2.1.=.X.a 3 : 1 A Q ' v.L.'.-XwXpXzXMXNXNXmXjX9X<Xk.z   * W m.U.].&X*X=X=X&X%X%X%X%X&X%X&X%XOX].J.V.t.I 0 O X O @ # 1 2 6 % 2 2 2 $ # @ X       X 6 a } %.>.4.5.5.4.4.3.4.4.2.2.",
"2.5.2.1.:.#.} i 7 9 H / _ v.Z.Y.].0XuXdXkXmXmXkXfX7X,Xw.g . x W N.U.].&X=X=X=X=X%X%X%X+X+X+XOX].'.U.F.M.t.T S q - ; y S A S y h y y 0 < @ X             w b o.>.2.5.5.5.5.2.4.2.2.4.",
"2.4.2.1.3.#.| { d N H R ^ c.m.Z._.@X4XtXsXfXjXfX9X2Xx.9.g & c ! B.`.[.&X-X-X-X=X=X&X%X+X[.].'.T.J.D.V.n.t._ Q W Q Q Q Q Q Q G G D h q % O X           $ e m o.>.2.5.5.5.4.4.4.4.4.2.",
"4.4.4.3.>.=.*.X.X.J $.R ,.! ' p.A.~.@X1X4X7X8X5X<X^.k.[ 5 - F _ B.'.OX=X-X;X;X;X;X*X$X+X'._.F.D.N.b.a.b.v.v.v.v.v.v.v.v.v.c._ ^ T F g 1 @ @ O @ = - w b m ..:.>.5.5.5.4.4.4.4.>.4.4.",
"4.4.4.4.1.>.=.:.=.&.&.-.Q R Q ^ r.d.h.z.(.|.|.^.z.k.6.5 : y T ' F.'.$X=X;X>X;X;X;X*X%X[.`.H.N.t.) ) ` a.m.Z.Z.Z.L.L.L.L.L.Z.B.' ^ G j $ : : 7 e b C C ..O.:.:.2.2.2.4.4.4.4.4.<.>.4.",
"4.3.3.3.3.1.2.2.>.>.=.&.%.P H A D K L 7.8.0.w.8.6.z 4 : @ h E b.F.'.+X=X-X;X;X;X-X=X+X{.J.M.r.I D I ^ b.Z.I.Y.W.W.W.W.W.E.Y.P.C.c./ A 2 : > p M J >.>.2.4.4.2.4.4.4.4.4.4.4.4.4.4.4.",
"2.4.3.3.3.3.4.4.4.3.>.&.+.N t 7 @ O O O O @ O O O X   X @ j / p.F.`.].+X*X=X-X-X=X%X].`.D.t.I 0 < A e.C.U.XX&X*X;X;X;X;X*X+XXXK.M.) K $ : : p X.:.>.4.5.4.4.4.4.4.>.4.4.>.4.4.>.4.4.",
"3.3.4.2.4.5.4.5.5.4.2.:.+.M u , O X                     O h E u.A.J.`.].OX+X+XOX+X].`.H.n.Q q X O l d.G.@X:XeXrXrXrXrXrXrX>X#X@XG.u.U $ O : p V :.2.4.5.5.4.4.2.4.4.4.4.4.4.4.4.4.4.",
"3.4.2.2.4.4.5.5.5.4.3.:.#.| a u , @ X                   O g I ) a.A.H._.R.'.`.`.`._.J.N.t.S     @ L h.).#XeXiXhXhXhXhXhXpXuXeX#X Xh.~ #   O 8 n :.2.5.5.4.5.4.4.>.4.>.4.4.>.4.4.4.>.",
"4.2.2.2.4.4.4.5.4.4.3.>.*.#.V n p p 8 8 6 = = $ + X X X O 0 A E r.i.M.A.D.F.D.G.D.V.N.y.Y &     : 7.!.1XtXdXlXvXvXvXvXvXzXlXiX6X@XQ.8.@     $ m %.4.4.5.4.4.4.4.4.4.>.4.4.>.4.4.4.>.",
"4.4.4.2.4.4.4.4.4.3.3.>.=.=.&.J J Z V C m m m m r 8 1 @ O + g D T / r.t.y.t.i.u.y.t.r.T v       q f.).6XyXzXvXBXVXVXVXVXVXcXlXyX3X!.0.O     + b %.>.5.4.4.5.4.4.4.4.4.4.4.<.4.>.4.4.",
"2.4.2.2.4.4.4.4.4.4.4.>.>.>.>.>.>.:.:.>.:.>.:.*.J N 9 7 @ @ % 0 j D K K U U T T I I K y .       k k.,X8XdXcXMXCXAXAXAXCXCXmXkXaX6X|.0.@     X b O.>.5.5.2.4.4.>.4.4.4.4.4.4.4.4.4.4.",
"4.4.<.4.4.4.2.<.4.4.4.4.<.4.>.4.2.4.4.4.4.4.2.>.&.J N t 0 # O O # $ 2 2 2 2 2 2 2 0 $ X         l k. X8XjXnXNXZXAXAXAXAXCXNXkXjX3X|.w.%     . b O.2.4.4.5.4.4.4.4.4.>.4.<.>.4.>.4.>.",
"<.2.4.2.<.4.2.2.4.4.2.2.2.4.4.4.4.4.5.4.5.5.4.2.>.#.J f d 2 > @ @ O O X O X X X X O X           l g. X7XsXkXmXCXCXCXNXCXNXmXkX9X3X(.w.q     = b P 2.4.5.4.5.4.4.>.4.>.4.4.>.4.4.4.<.",
"2.2.4.4.4.4.4.4.<.4.2.4.4.4.4.5.4.5.4.5.5.4.4.2.>.&.$.J l t 6 < @ @ X               X           g f.(.2X9XfXjXxXxXmXmXkXkXjXjX7X<X!.s.f $ = b m :.>.4.4.2.2.4.>.4.4.4.4.4.4.4.4.4.4.",
"4.>.4.4.4.>.4.4.4.<.4.2.4.4.4.4.4.5.4.5.5.5.2.4.<.=.=.$.X.N d 9 3 @ O X         X X             g 9.l.|.2X8X9XaXjXaXaXjXaX9X6X2X).l.s.V b b b Z :.4.4.4.4.4.4.4.>.4.>.4.>.4.4.>.>.4.",
"4.4.4.>.4.4.<.4.4.4.4.>.4.4.4.4.4.4.4.4.4.4.4.2.<.>.>.=.&.#.V d 9 3 @ X       X X X X X         % L w.g.^.|.,X<X2X2X2X<X<X,X)./.l.f.,.P C C Z :.>.>.4.<.4.4.4.<.4.4.>.4.4.4.4.4.4.>.",
"4.<.4.4.>.4.>.4.4.4.2.4.4.4.4.2.2.4.4.4.4.4.4.3.2.2.3.3.=.&.$.J f 0 1 O O X X O O @ O O X   X X # k [ 6.w.f.g.l.l.g.k.k.k.j.f.f.s.5.4.>.:.:.:.2.>.4.4.4.4.4.4.>.4.4.4.4.4.4.4.4.4.4.",
"4.>.4.4.4.4.4.2.4.4.2.<.4.4.4.2.2.2.2.2.3.4.3.3.4.3.4.4.3.>.*.$.J f 0 # O O @ @ # < $ $ # # # # % % 0 0 g g l g l g g k g l z H $.=.>.2.4.4.4.4.4.>.4.>.4.4.4.4.>.4.>.4.>.4.4.>.4.4.",
"4.4.4.4.4.>.4.4.>.4.4.>.4.>.4.4.4.4.4.4.4.4.4.4.4.4.4.5.4.4.>.%.J B t 6 1 1 2 6 0 9 0 9 q 9 t 9 9 $ # X                     X w n X.>.2.4.5.5.4.4.<.2.2.<.4.4.4.4.4.4.4.4.4.4.4.>.4.",
">.4.4.>.4.4.4.4.4.4.4.4.4.4.>.4.4.<.4.>.4.>.4.4.4.5.5.4.4.4.>.R #.J B f t t d t f f t f f l f l t w 6 X                       w b o.2.4.5.5.5.4.4.4.2.4.4.4.4.4.>.4.>.<.4.4.4.>.4.4.",
"4.4.4.4.>.4.<.4.4.4.4.4.4.4.4.4.>.4.>.4.4.4.4.4.4.4.4.5.5.4.<.>.%.$.J B J B B J J J J J +.+.+.+.B n r w = o X             o w b m o.:.4.5.5.5.4.4.4.2.4.4.4.4.4.4.4.4.>.4.4.4.4.4.<.",
"4.4.>.4.4.4.>.4.>.4.4.>.>.4.>.4.4.4.4.4.4.>.4.>.4.4.4.4.4.>.>.>.=.&.%.P #.#.J $.+.#.+.$.$.$.$.$.#.#.Z n m b b r r r r r r b b C O.:.4.4.5.4.4.4.4.4.4.<.4.4.>.4.>.4.4.4.>.4.>.4.4.>.",
"4.>.>.4.4.4.4.4.>.4.>.4.4.>.4.4.4.>.4.>.4.4.4.4.4.4.4.4.4.4.4.>.>.>.>.&.=.=.:.=.=.=.=.>.;.=.=.=.&.:.&.*.%.%.O.O.O.O.O.O.O.%.*.:.>.2.4.4.2.4.4.4.4.4.4.4.>.4.<.>.4.4.4.4.4.4.>.4.4.4.",
"4.4.4.4.>.4.>.4.4.4.4.4.4.4.4.<.4.4.4.4.>.4.>.4.4.4.>.4.4.4.4.>.>.<.2.2.2.<.>.4.<.3.3.3.1.>.3.3.4.4.4.>.>.2.2.2.<.>.2.2.>.>.3.3.2.4.2.2.<.2.>.4.4.>.4.4.4.4.4.4.>.4.>.4.>.4.4.4.4.4.",
"4.4.4.>.4.4.>.4.4.4.4.>.4.4.4.4.4.>.4.4.4.4.4.>.4.2.2.4.>.>.4.4.3.4.4.4.4.3.4.4.4.4.4.4.5.4.4.4.2.2.4.4.4.4.2.2.3.4.4.4.3.4.4.3.4.2.2.2.4.4.4.4.<.>.4.>.>.4.>.4.4.4.4.>.4.4.>.4.>.4.",
"4.>.4.<.4.4.4.4.<.>.4.4.>.4.>.4.4.4.4.<.>.4.4.4.4.2.4.2.4.4.4.4.3.4.4.5.4.5.4.5.5.4.4.5.4.4.4.4.5.4.5.4.5.4.2.5.4.4.5.4.4.4.5.4.2.2.4.2.4.4.4.4.4.4.4.4.4.4.4.4.>.4.4.4.4.4.<.4.4.4.",
"4.>.4.4.4.>.4.4.4.4.4.4.4.4.>.4.4.4.4.>.4.4.4.>.>.4.4.4.4.4.4.<.2.2.5.4.4.5.4.4.4.4.4.5.4.4.4.5.5.2.4.5.2.4.5.2.2.2.5.2.5.2.5.4.4.4.4.4.>.4.4.4.>.4.4.4.4.>.4.4.4.>.4.4.4.4.>.4.4.4."
};
