/* XPM */
static char *result[] = {
/* columns rows colors chars-per-pixel */
"90 105 233 2 ",
"   c #000001",
".  c #00000C",
"X  c #000C09",
"o  c #001506",
"O  c #000014",
"+  c #00001C",
"@  c #000D1D",
"#  c #02121B",
"$  c #131C1D",
"%  c #002B00",
"&  c #003103",
"*  c #00231A",
"=  c #142F17",
"-  c #000024",
";  c #000C27",
":  c #000229",
">  c #000B2B",
",  c #1A0E2D",
"<  c #031522",
"1  c #071821",
"2  c #091921",
"3  c #00132B",
"4  c #001A2B",
"5  c #001B32",
"6  c #062826",
"7  c #00232D",
"8  c #012C2C",
"9  c #152523",
"0  c #172C27",
"q  c #003628",
"w  c #1D342A",
"e  c #1D352B",
"r  c #002331",
"t  c #002E33",
"y  c #002F38",
"u  c #003335",
"i  c #073936",
"p  c #033B3A",
"a  c #113C35",
"s  c #143C36",
"d  c #1B3C32",
"f  c #223629",
"g  c #233A2B",
"h  c #2F2B39",
"j  c #124C09",
"k  c #1B4D17",
"l  c #004434",
"z  c #0F4F32",
"x  c #09433C",
"c  c #014C3A",
"v  c #1C4537",
"b  c #14443C",
"n  c #164A3F",
"m  c #1A4A3E",
"M  c #19503D",
"N  c #2C442D",
"B  c #294829",
"V  c #30462D",
"C  c #31492F",
"Z  c #2B5922",
"A  c #32572C",
"S  c #284935",
"D  c #234C3C",
"F  c #324C32",
"G  c #3B4937",
"H  c #28533C",
"J  c #2D523C",
"K  c #365333",
"L  c #395433",
"P  c #3A5837",
"I  c #32553B",
"U  c #345A3D",
"Y  c #3C5B39",
"T  c #39642B",
"R  c #3C663A",
"E  c #415A3B",
"W  c #446D33",
"Q  c #42633C",
"!  c #456A3D",
"~  c #4A6B3E",
"^  c #477639",
"/  c #4C743D",
"(  c #3D3C43",
")  c #084640",
"_  c #144D42",
"`  c #1B4D41",
"'  c #075341",
"]  c #1D5244",
"[  c #175844",
"{  c #1C5B4C",
"}  c #204F40",
"|  c #394947",
" . c #235444",
".. c #2A5641",
"X. c #245A47",
"o. c #2B5A45",
"O. c #215748",
"+. c #255C49",
"@. c #295D49",
"#. c #315B41",
"$. c #385A4B",
"%. c #25614E",
"&. c #2D644E",
"*. c #32644D",
"=. c #3A6748",
"-. c #2D6650",
";. c #2E6851",
":. c #306750",
">. c #316951",
",. c #396F52",
"<. c #367055",
"1. c #3E7150",
"2. c #444949",
"3. c #48584B",
"4. c #4C5A4C",
"5. c #52574E",
"6. c #50594E",
"7. c #4F5451",
"8. c #545953",
"9. c #416641",
"0. c #446943",
"q. c #4A6D41",
"w. c #4D664F",
"e. c #4D7243",
"r. c #4C7747",
"t. c #507544",
"y. c #537946",
"u. c #557D49",
"i. c #597F4B",
"p. c #576C5C",
"a. c #477B54",
"s. c #5D7553",
"d. c #687767",
"f. c #71786E",
"g. c #4D803F",
"h. c #538244",
"j. c #598A46",
"k. c #5B854C",
"l. c #5E894E",
"z. c #5B9047",
"x. c #4D8257",
"c. c #558756",
"v. c #5E8B52",
"b. c #5E935D",
"n. c #608C4E",
"m. c #62954D",
"M. c #628E51",
"N. c #69895B",
"B. c #659353",
"V. c #689756",
"C. c #669956",
"Z. c #6A9A56",
"A. c #61965D",
"S. c #6D9D59",
"D. c #709B5F",
"F. c #66A04D",
"G. c #6BA353",
"H. c #6FA15B",
"J. c #70AB56",
"K. c #72A45C",
"L. c #75AA5D",
"P. c #78B45D",
"I. c #7ABA5D",
"U. c #73826D",
"Y. c #76946B",
"T. c #7A8574",
"R. c #7D8B75",
"E. c #6DA462",
"W. c #76AB61",
"Q. c #77A867",
"!. c #79AE62",
"~. c #7DB465",
"^. c #7EBC62",
"/. c #7DB569",
"(. c #7EB86A",
"). c #828D79",
"_. c #819778",
"`. c #80B767",
"'. c #81BD65",
"]. c #82B56B",
"[. c #84BD6A",
"{. c #85A774",
"}. c #8BBB75",
"|. c #92BB7F",
" X c #83C166",
".X c #86C06C",
"XX c #89C46E",
"oX c #8BC96F",
"OX c #8BC770",
"+X c #8DCA71",
"@X c #91CE74",
"#X c #92C47A",
"$X c #94CA7B",
"%X c #95D279",
"&X c #8B9884",
"*X c #95A58C",
"=X c #98B888",
"-X c #99A490",
";X c #9BAB91",
":X c #9FB392",
">X c #A1AE97",
",X c #A4B399",
"<X c #A7B79C",
"1X c #ABBBA0",
"2X c #99CA82",
"3X c #9AC984",
"4X c #A3D88A",
"5X c #A6C795",
"6X c #A6CE92",
"7X c #ACD996",
"8X c #B2D79F",
"9X c #B3E49B",
"0X c #AFCAA0",
"qX c #B6C9A8",
"wX c #BBD6AA",
"eX c #BDCEB1",
"rX c #BED0B1",
"tX c #BBE5A6",
"yX c #C3D5B5",
"uX c #C8DBBA",
"iX c #C1E4AD",
"pX c #C5EBB1",
"aX c #C9E9B6",
"sX c #CCE4BC",
"dX c #CDF3B8",
"fX c #D4EAC5",
"gX c #D6EAC7",
"hX c #D4F4C1",
"jX c #DAF8C7",
"kX c #DCF3CB",
"lX c #E0FDCE",
"zX c #E5FED3",
"xX c #EAFFD8",
/* pixels */
":.:.:.:.>.>.&.>.>.&.>.*.&.>.&.>.>.>.>.>.>.&.>.&.:.>.>.>.>.>.<.>.>.>.>.>.>.>.>.<.>.>.>.>.<.>.<.>.>.>.>.<.>.>.>.>.<.>.>.>.<.>.;.>.>.>.:.>.:.:.>.>.&.>.&.:.>.>.>.>.>.>.>.>.&.>.>.&.>.&.",
":.:.>.:.>.>.>.>.>.>.>.>.>.>.>.>.>.>.&.>.>.>.>.>.>.>.>.<.<.>.>.<.>.<.<.>.<.>.<.>.<.>.<.>.<.>.>.>.<.>.<.>.<.>.<.>.<.>.<.>.>.<.<.>.>.>.>.:.:.>.&.>.>.>.:.:.>.&.&.>.>.&.>.>.>.>.>.>.>.>.",
">.>.:.>.>.&.&.>.>.>.>.&.&.>.>.&.>.>.;.>.&.:.:.>.>.>.>.>.:.>.:.:.>.;.>.>.>.:.;.>.:.>.:.:.;.:.>.:.>.:.;.>.:.>.>.:.;.:.>.>.>.:.;.>.>.>.:.:.>.>.>.>.&.>.:.:.>.>.>.>.>.&.>.&.*.>.>.>.*.&.",
"&.>.>.>.>.>.>.:.>.&.>.>.>.>.>.>.:.>.:.>.:.:.:.>.>.>.&.>.;.*.:.&.;.>.>.&.>.&.>.;.;.*.:.&.;.;.:.>.;.&.>.;.;.*.-.*.;.;.:.&.:.&.;.;.:.:.:.:.:.>.>.>.:.>.>.>.>.&.*.>.>.>.>.*.&.>.>.&.>.>.",
">.>.>.>.>.>.:.>.&.*.&.>.>.&.>.>.>.:.>.>.>.>.:.-.&.&.&.@.@.X.X.X.o.X.@.@.@.@.X.@.@.o.@.o.X.@.@.@.@.@.@.X.@.X.@.X.@.@.@.@.@.@.@.&.&.&.-.:.>.>.>.>.>.>.>.>.&.>.>.&.>.>.&.>.>.&.>.>.&.>.",
"&.>.>.:.>.&.&.>.>.>.>.>.>.*.&.>.:.>.>.>.,.>.>.;.&.@.O.] m n m m b _ m ` m m m m m ` m _ n ` m ` m m ` ` m m ` m m b b m m ` ` O.@.-.-.:.<.>.>.>.>.&.>.>.>.>.>.>.&.>.>.>.>.>.>.>.>.>.",
">.&.:.:.>.:.:.>.>.>.>.>.>.>.>.>.;.>.>.;.>.<.,.-.@. .m a u t 7 7 r t t t t t t t t t t t t t t t t t t t t t t t t r r 7 t u x m O.@.;.>.<.>.>.>.>.:.:.&.>.>.>.>.>.>.&.>.>.&.&.>.>.>.",
">.>.:.:.>.&.:.>.&.>.&.>.>.&.>.>.>.>.>.<.<.<.>.&.X.] x t > - - - - - - : - : : - : - : : - : - : - : : - : - : : - - + - - ; t x ] @.;.;.<.<.<.<.>.>.>.>.&.>.>.&.>.>.*.>.>.>.>.>.&.>.",
">.>.>.>.>.>.>.>.>.>.*.&.>.>.&.>.:.:.:.<.<.,.:.-. .} s 7 - O O . + + + + + + + - + + - + + + + + + - + + + + + + + + . O + - 7 b ` @.&.:.,.>.>.>.:.&.>.>.>.:.>.:.&.>.>.&.>.>.>.>.>.&.",
"&.&.*.>.>.&.*.>.>.>.>.>.>.>.>.>.:.:.:.>.>.;.*.&.o.} D d 0 $ $ $ 9 9 9 9 9 9 9 9 9 9 9 9 9 9 9 9 9 9 9 9 9 9 9 9 9 $ $ $ $ 0 e S D o.&.*.>.>.>.-.>.>.>.>.:.:.;.>.>.>.>.>.&.>.>.&.>.*.",
">.>.>.>.&.>.>.&.&.>.>.>.>.:.>.>.:.:.-.-.-.%.@.o.o.#.P K E L E C L L K K L L L L L L K K L L L L K K L F L L K L K L L L L K I I I o.@.@.-.-.-.-.>.>.>.>.>.>.;.:.&.>.*.&.>.>.>.>.>.>.",
">.>.&.>.>.>.>.>.>.>.&.>.>.>.>.>.:.-.+.{ ] _ `  .U $.9.q.e./ y./ / t.t.t.t./ y./ / t.t.y.e.t.e.y.t.y.t.t.t.t.t.t.t.t./ y.t.e.0.Q =.I  .` _ ] X.@.&.>.>.<.>.>.>.>.>.>.>.>.>.&.>.&.&.>.",
"&.>.>.&.>.>.>.>.>.>.>.>.,.>.<.>.>.-.O._ p u u v I 9.r.k.M.B.V.V.M.M.M.M.M.M.M.M.M.M.M.M.M.M.M.M.n.M.M.M.n.M.M.M.M.B.B.V.B.n.k.r.0.J v u u p _ { %.&.>.<.>.>.>.>.>.>.>.>.>.&.>.*.>.>.",
">.>.>.>.&.>.>.&.>.&.;.>.>.<.<.<.>.@.] p 5 : : d K e.k.V.D.K.L.L.L.L.K.L.K.L.K.K.K.K.K.K.K.L.K.K.K.L.K.K.K.K.L.K.L.W.L.L.L.K.V.k.e.P e > : 5 p ] &.>.>.<.<.>.>.>.&.>.&.*.>.>.>.>.>.>.",
"*.>.>.>.>.>.>.;.&.>.>.>.>.<.<.>.:.@._ u : - + g E y.B.E.`.`.[.[.].`.`.`.`.`.`.`.`.`.`.`.`.`.`.`.`.`.`.`.`.`.`.`.`.].[.[.].~.K.B.u.Y f - - : u _ @.>.<.<.<.,.>.:.>.>.&.>.>.>.>.&.&.>.",
"&.>.>.&.>.&.>.;.;.>.>.>.>.<.>.>.&.@.` u > - 2 C ~ n.D.!.[..XOXoXoXXX[.[.[.}.[..X[.[.[.XX[.XX[.[.[.[.XX[.XX[.[.[.XXoXOXOXXX[.!.S.k.~ C 2 - > u m @.>.>.;.>.>.>.:.>.>.>.>.>.&.>.>.>.>.",
">.>.>.>.>.&.>.>.:.:.:.>.&.>.&.&.@.o.H D e g C Q i.m.L.`.[.+X+X+X+XOXXXXXXXXXXXXXoXXXoXOXXXoXXXoXoXoXXXoXoXXXOXoXOXOX@X+XOXXX`.L.V.i.W G f g S D o.@.&.&.&.-.:.:.>.>.>.>.>.&.*.>.;.;.",
"&.>.&.>.>.*.&.>.>.>.:.&.%.@.X.o.o.#.#.U U Q ~ i.B.D.`.`.XX+X@X@X+X+X+X+X+XOX+XOXOXOXOXOXOXOXOXXXOXOXOXOXoXOXOXOXOX@X@X@X+XXX].W.S.B.y.~ Q P U I o.o.X.@.@.@.&.&.>.>.>.>.>.>.;.>.;.;.",
">.>.&.>.>.>.>.>.>.:.&.&.X.] m m D #.$.0.t.i.n.Z.K.L.`.[..XoX+XoX+XXXXXXXXXXXXXXXXXOXXXXXOXXXXXXXXXXXXXOXXXXXXXXXXXOXOXOXoXXX[.`.L.S.Z.n.i.t.0.=.#.D m ` ] X.&.&.&.>.>.>.>.>.&.>.>.>.",
">.>.>.>.>.>.>.>.:.&.&.@.] b i a S U ~ y.v.V.K.L.!.`.`.[..XOXOXXXXXXX.XXXXXXXXXXXXX[.XXXX[.XXXXXXXXXXXX[..XXXXXXXXXXXoXXXXXXX[.`.`.`.L.D.V.n.u.0.I S a i b ] o.&.>.>.>.>.>.&.>.>.>.;.",
"&.>.&.>.>.>.>.>.>.>.&.X.` u 7 7 g P ~ n.Z.L.~.].[.[.[.[..X.X.XXX.XXX.X.XXX[..X.X[.XX[.XX[.XX[.XX[.XX[.XX[.XX[.XXXX[.[.XX[.[.[.XX[.[.`.`.L.D.n./ P g 7 7 u `  .&.>.>.>.>.>.>.>.>.>.>.",
">.>.>.>.>.>.>.>.>.>.&. .b 7 - - w L y.B.K.~..XXXXXXXXXXX.X.X.X.X[..X.X.X[.XX.X.XXX[.XX[.XX[.XX[.[.[.XX[.XX[.XX[.[.XX[.XX[.XX[.XXOXOX.X[.`.D.M.y.P 0 + - r b  .&.>.>.,.>.>.>.&.>.>.&.",
">.>.>.&.>.>.,.<.>.>.&. .p 3 + . 9 L y.B.L.].XX+X+X+XoX.X.X.X.X.X.X.X[..XXX[.[.XXXX[.[.[.[.XXXX[.XX[.XXXX[.[.XXXXXX[.XX[.XX[.XXoXoX@X+XOX`.L.V./ L 9 . + 3 p O.&.>.>.>.>.>.>.;.;.;.=.",
">.&.>.>.>.>.>.<.,.>.%.] u -       B / B.L.[.oX@X@X+XoXXX.X.X[..X.X.X.X.X[.[.XX[.[.XX[.XXXX[.[.XX[.XX[.[.[.XX[.[.[.XX[.[.[.[.XXXX+X+X@XoX[.L.m./ V       + u ] &.>.<.<.<.>.>.;.;.;.>.",
">.:.>.>.>.>.,.<.<.>.&.M 8 .       = W m.J.`.oX@XoX+XXXXXXX[.}..X.X.X[.XX[..X[.XXXX[.XXXX[.XX[.[.[.[.XX[.XX[.[.XX[.XX.X.X.X.X.XoX+X@X+XOX`.K.n.W =       . 8 _ &.>.<.<.<.>.>.:.>.;.;.",
"&.>.>.&.>.>.<.<.<.>.-.c 8         & W g.S.`..X@X+X+XXX}.[..X X.X.X.X.X.XXX[.XX[.[.[.[.[.[.[.XX[.XXXX[.[.[.[.XX[.XX[..X.X.X.X[.oX+X+X+XXX`.H.j.T &         7 ' %.<.<.<.<.>.>.>.:.=.;.",
">.>.>.:.>.<.<.<.<.<.%.c 8         % T g.G.`.}.oXoXoXXX.XXX[..X.X[..X.X.XXX[.[..X[.XXXX[.XX[.XXXX[.XX[.XXXX[.XX[.[.[.XX.X[.XXXXXXoX+XoX.X`.G.j.T &         8 ' %.>.<.<.<.,.>.:.:.;.;.",
">.>.&.>.>.>.>.,.<.>.>.[ p ; . . X Z / m.K.`. XoXoXoXXX.X[.XX[..XXX[..X.X[.XX[..XXX[.[.XX[.XX[.[.XX[.XX[.[.XX[.XX[.XX[.}.XX[.[.XXXXoXoX.X~.H.n./ B X   . ; p ] &.>.<.<.>.>.>.:.>.;.;.",
"&.>.:.:.>.&.>.&.&.&.&.$...| | | 5.s.n.D.L.`..XoXXXXXoX[..X.X.X.X[.[.XX[..X[.XX[.[.XX[.[.XX[.[.XX[.[.XX[.[.XX[.[..X.X[.XX[.[.XXXXoXXXXX.X`.Q.D.N.s.w.2.| $.o.$.@.&.;.-.;.>.&.>.>.>.>.",
">.>.>.>.&.&.%.M [ X.*.w.p.d.d.f.R._._.{.].[..X.XXX.X.X.X.X.X.X.XXXXX[.[.[.XX.X.XXX[.[.XX[.XX[.[.[.XXXX[.XX[.XX[.[.[.XX[.XX[..X.X.XXXXX.X[.].]._.Y.R.f.d.p.p.w.&.%.{ [ %.%.&.&.>.;.>.",
">.>.>.>.&.X.c c c m =.p.d.).&X*X;X:X=X|.|.}. X X X X.X X.X[..X.X[.XX[.XX[..X[.XXXX[.[.XX[.XX[.XXXX[.[.XX[..X[..XXX[..X.X.X.X[..X.X X XXX}.}.|.=X=X:X*X&XR.U.p.3.M l c z %.&.>.>.>.>.",
">.>.>.&.%.M c l q v 3.d.).-X1XqX0X0X8X6X#X|..X X'. X.X.X.X.X.X.X[.[.XX[.XX[.XX[.[.XX[.[.XX[.[.XX[.XX[.[.XX[.XX.X[.XX.X.X.X.X.X X X'.'.[.}.3X5X6XqXqXqX<X;XR.d.3.z q q l M &.&.>.>.>.",
">.<.:.&.@.c q o . 8 3.U.&X1XeXuXsXsXtX0X6X#X.X^.'.^.[. X.X.X.X.XXX[.XX[.XXXX[.XXXX[.XX[.OX[.XX[.XX.X[.OX.X[.OXXX[.XX.X.X[.[..X[.^.^.^. X#X6X8XwXsXsXuXeX<X*Xf.4.8   o i c %.&.>.<.;.",
">.>.>.>.X.c 6     # 4.T.;XeXuXgXkXhXsXtX4X$X.X^.I.^.^..X[..X.X.X[.XX[.[.[.[.[.[.[..X[..XXX[.[..X[..X[.[.[.XX[.[.[.[.[.XXOX[..X'.^.I.^..X2X4XtXaXhXkXgXsXqX;XT.4.#     * c %.&.>.>.;.",
"<.>.>.>.X.c X     . 7.).,XrXgXkXzXjXhXiX7X2X.X^.I.^.^.[..X.X.X.X.XXX[.XX[.[.XX[.XX[.[.XX[.[.XX[.[.XXXX[.XX[.XX[.XX[..X[..X[..X^.I.I.I..X2X7XtXhXjXzXlXfXyX>X).5..     X c H >.>.;.<.",
"<.>.:.&.X.l         7.R.1XyXgXzXxXzXhXpX7X2X.XI.I.I.[. X.X.X.X.X.X[.XX[.XXXX[.XX[.XX[.[.XX[.[.XXXX[.[.XX[..X[.XX[.XX[.XX.X.X X'.I.I.^..X2X7XaXhXzXxXxXgXyX,X).5.        l %.&.>.<.>.",
";.<.>.>.X.l         5.).<XyXkXxXxXxXjXpX8X2X.XI.I.I.^. X.X.X.X[.[.XXOX[.[.[.XX[..X[.OXXXXX[.[..X[..X[..X[.XX[.[..X.X.X[..X.X[.'.I.I.I..X2X7XpXjXzXxXxXkXyX<X).5.        l [ :.>.<.>.",
"<.;.>.&.X.l         5.).<XuXkXxXxXxXjXpX7X2X.XI.I.I.^.'..X.X.X.XXX[.[.[.XX[.[.XX.X[.[.[.[.[.OX[.OX[.XX[.XX[.XX[..X.X.X.X.X.X[.'.I.I.I. X2X7XpXjXxXxXxXkXyX<X).5.        l H &.<.>.,.",
";.<.;.>.X.l         5.).<XyXgXzXxXzXhXpX7X2X.XI.I.I.^..X.X.X.X.X[.[.[.XXXX[.[.OX[.XX[.XXXX[.[.XX[.[.XXXX[.[.OXXX.X.X.X.X.X.X.X^.I.I.^..X2X7XpXjXzXxXzXgXyX,X).8.        l [ >.>.<.>.",
"<.;.>.>.X.l X     . 5.).,XrXgXlXxXzXdXiX7X2X.XI.I.^.^..X.X.X[..X[.XXXX[.[.XX[.[.XX[..X[.XX[.XX[.[.XX[.[..X.X[.[..X.X.X.X.X.X.X'.^.I.I..X2X7XiXdXzXzXzXfXyX,XT.8..     o l X.>.>.>.>.",
">.>.>.>.X.c *     @ 4.R.;XqXfXgXjXjXaXtX6X$X.XI.I.^. X X.X.X.X.XXX[.XX[.XX[..XXX[..X[.XX[.[.XX[..X.X.X.X.X.X.X.X.X[..X.X.XXX[.'.^.I.^..X$X4XwXdXhXgXfXfXqX;XT.7.@     * c %.&.;.>.>.",
"<.>.>.>.%.c q X   8 4.f.*X1XeXuXsXsXiX8X6X#X.X X^. X X X.X.X.X.X[..X[.XX[.XX.X[.XX[.XX[.OX[.[.XX.X.X.X.X.X.X.X.X.X.X.X.X.X[..X'.^.^. X.X$X6XwXtXfXfXuXrX1X*XU.3.6   X q c %.>.=.<.;.",
">.>.>.&.%.M l q 8 a 3.d.).;X1XqXqXwX8X6X3X#XXX X X X.X.X.X.X.X.XXX[..X.X.X[.XX[.XX[.[.XX.X.XXX[.[..X.X.X.X.X.X[..X.X.X.X.X.X.X.X X X XXX+X3X6X8X0XqXqX1X;X&Xd.w.s q q l M &.>.>.>.>.",
">.>.>.>.&.%.c c c ` =.p.U.).&X;X>X:X=X=X#XOXXXoX XXXXX.X.X.X.X.X[.[.OX[.[.XX[..X[.XX[.[.[.XX[..X.X.X.X.X[..X.X.X.X.X[..X.X.X.X.XXX.XoXXXOX=X=X=X:X:X;X&XR.f.p.$.D c c c M &.>.>.<.>.",
"&.>.>.>.&.%.X.[ [ @.=.w.p.d.f.U.)._.{.].}.OXOXoXoXoX.X.X.X.X.X.XXX[.XX[.XX[.XX[.[.OXXX[.XX[.XX[..X.X.X.X.X.X.X.X.X.X.X.X.X.X.XoXoXoXoX+X[.}.{.{.Y.R.T.d.d.p.w.$.X.[ [ { &.&.>.&.;.;.",
">.>.>.&.;.>.&.&.&.&.@.$.| | 2.7.w.s.N.D.Q.[.XXOXOXOXoX.X.X.X.X.XXX[.[.[.[..X[.XX[.[.[.[.[..X[.XX.X.X.X.X.X.X.X.X.X.X.X.X.X.X.X.XoX+X+XXX[.`.E.N.s.p.7.| | $.$.@.&.&.-.-.;.&.>.>.;.;.",
">.>.>.>.>.>.>.<.;.>.&.[ p 4 + . # A / l.K.~.[.XXOXOXXX.X.X.X.X.X[..X.XXXXXXX[.[.XX[.[.XXOXXX[.[..X.X[..X.X.X.X.X.X[..X.X.X.X.XoXXXXXXX[.`.D.m./ C * . + 4 l ] &.:.>.<.>.>.>.>.;.;.>.",
"&.>.>.>.>.>.<.<.<.<.%.M i O       & T t.m.K.~.].[.[.[..X.X.X.X.XOX[.XX[..X[.XX[.[.XXXX[.[.[.XX[..X.X.X.X.X.X.XXX.X.X.X.X.X.X.X.X[.[.`.~.K.B./ T &       + q [ %.,.<.<.,.>.>.;.>.;.>.",
">.>.>.&.>.=.<.<.<.>.%.M c *       & k R h.M.S.W.W.`.].]..XXXoXXXXXXXXXXXXX.X.X.X[.OXOX[.[.OXXX[..X[.XX[..X.XXX.XOXOXoXoX.X.X.X[.`.W.Q.D.M.h.R Z &       6 l [ &.>.>.<.<.,.>.*.>.>.>.",
">.>.>.>.>.>.>.>.<.<.;.X.c c q q q l z U R t.k.M.S.W.~.[.XXOX+X+X+XOXXXXXXXXXXX.X[.[.[.[.[.[.[.[..XXXXXXXoX.XOXXXOXOX+X+X+X.X[.~.L.S.M.i.e.! T z q q q q c c [ >.>.,.,.<.:.>.&.>.&.>.",
">.&.>.>.>.>.>.>.>.>.;.&.{ [ ' ' c M v D S F R t.n.S.L.].oXOX@X+X+X+X+XOXXXXXXXXXOX[.OX[.[..X.XXX[.XX.XXXXXOXOXOX+X+X@X@X+XXX(.W.S.n.e.Q K S v v M c c [ [ %.&.>.>.,.>.>.:.>.&.>.>.>.",
">.>.>.&.>.>.>.>.>.;.;.;.;.;.&.>.&.X.m i 8 6 f P t.M.K.`..X+X@X@X+X+XXXoXXXXXXX.XOX[.[.[.OX[.[..X[..X.XXXXXXXXXOXOX+X@X+X+X.X~.K.M.t.P f 4 7 l m @.%.%.;.-.-.>.:.;.:.&.>.>.>.>.>.&.>.",
">.&.;.;.;.;.>.>.>.:.:.:.>.<.>.>.-.@.` u - - 2 C ~ k.S.!.].oXXXXXXXXX.X.X.X.X.X.X[.[.[.OX[.[.XX[.XX[..X.X.X.X.X.XXXXXOXOXXX[.!.S.k.~ V 1 - - u ` %.&.;.>.>.>.:.:.:.;.:.>.>.>.>.>.>.&.",
">.>.=.&.>.>.>.>.>.>.:.:.;.;.>.>.@.o.` s i 6 g K ~ k.V.L.~.`.[.`.~.~.~.~.(.(.].[.[.XXXX[.XX.X[.XXXX[.[.].`.~.~.~.~.~.(.[.].~.K.V.k.~ K g 6 i s D X.*.&.;.;.>.:.:.>.>.>.:.>.&.&.>.>.>.",
">.>.&.>.>.>.>.>.>.>.:.&.%.+.{ X.o.....J I K Y ~ y.k.n.V.D.K.K.K.H.S.H.H.K.W.~.~.[.[..XXXXXXXXX[.[.[.(.~.W.K.K.H.H.K.K.K.K.H.Z.B.k.y.q.E P U I ..H O.X.+.%.&.-.;.>.>.>.>.>.>.>.>.>.>.",
"&.>.>.>.>.>.>.>.<.>.:.%.{ _ x x n D #.0.e.i.k.k.n.k.n.k.l.k.l.k.k.k.k.v.B.S.K.~.].[..XOXXXOXXXXX[.].~.K.S.B.l.k.k.k.k.k.l.l.k.k.l.l.k.i.u.e.9.U H b p ) _ +.%.-.>.<.<.>.>.>.>.&.>.>.",
":.:.:.:.>.,.<.>.<.>.&.@._ p 5 3 t S E y.v.Z.S.S.V.M.k.y.~ Q Y Y P P Y ! y.M.Z.W.~..XXXXXoX+XXXXX[.~.W.Z.v.y.0.Y P P P E Q ~ r.k.M.V.S.S.V.M.y.=.S 8 3 r p _ O.:.>.<.>.<.>.>.:.>.>.&.",
":.:.:.:.>.>.>.<.<.<.&.X.x r : - < C q.v.S.W.~.!.K.B.u.Q F w 2 + + + 9 N R t.M.K.~..XXXoX+X+XoXXX[.~.K.B.y.Q N 9 + + + 2 w C Q u.B.L.!.~.W.S.l.q.F 3 - - 5 ) O.-.;.<.<.<.;.>.>.>.>.&.",
":.:.>.:.-.>.>.<.>.>.&.X.b 5 - + 9 L y.V.!.]..X[.!.V.h.E w O .     . O 9 L e.M.S.~.].XXOX+X+X+XXX[.~.D.n.e.K 9 O       . + w Y k.Z.L.].[.].!.V.y.K 9 - - r x O.-.>.;.<.;.>.>.>.>.>.>.",
">.>.>.-.>.>.-.-.&.&.@. .m a 0 w L ~ n.K.(.[.XX.X/.H.l.Q N ; O . . O + f P r.M.K.~.[.XX+X+X+XoXXX[.~.K.M.r.P f + O . . O @ N Q k.D.~.XXOX.X~.K.n.~ L 0 0 a D ..o.>.&.>.-.>.&.>.>.>.>.",
">.>.>.>.-.-.@.+.O.X. ...H J K E ~ k.Z.L.[.oX+XXX].L.B.y.Q F N g g N F Y q.k.V.W.~.[.XXoXoXoXXXXX[.~.L.V.k.q.Y F N g g N K Q y.B.L.`.oXOXoX].L.Z.k./ E L J J .. .O.{ O.+.&.&.>.>.>.>.",
"<.>.<.>.-.+.] ) p i D J U 9.e.u.n.Z.L.`..XOX+XOX[.~.K.B.k.y.e.q.e.e.y.u.M.B.K.Q.`.[.XXXXoXoXXXXX[.(.!.H.V.v.u.y.e.q.e.e.y.k.B.H.~.[.oX+X+X[.`.L.V.n.i.q.9.#.J v p p _ ] X.&.;.>.<.>.",
"<.<.<.;.-.] ) y 5 5 a S 9.y.k.V.K.L.~..XXXoX+XOX.X].!.K.Z.V.B.B.B.B.V.Z.S.L.W.~.[..X.XXXXXXXXX.X.X]./.!.K.S.Z.V.V.B.B.B.V.Z.K.!.`.XXOXoX+XXX[.`.W.K.B.k.y.0.F a 5 5 y ) ] &.>.<.<.<.",
"<.<.<.;.@._ p > - - 0 I e.k.Z.L.~.[..X.XXXOX+XoX.X[.].~.~.!.Q.W.W.W.!.!.~.~.`.].].[.XXXX[.XXXX.X.X[.].`./.~.!.!.!.W.W.W.W.~.~.].'.}.oXoXoXoXXX[.].~.W.S.k.q.K 0 - - > p ] %.>.<.>.,.",
">.<.>.:.%.] u : + + g E i.V.L.`.[.XXoXXXXX.XXX.X.X.X[.[.[.[.[.[.[.].[. X[.[.[..X[..X.X.X[..X[.[.OX[.[.[.OX[.[.[.[.].[.[.[.[.[..X.X.X.XXX.XXXXXXXXX.X~.L.B.u.E g + + : u ` @.:.>.,.>.",
">.;.*.&.*.D s 8 6 f L / n.K.`.[.oXoXXX}..X].`.[.[..X.X.XXXXXXXXXXXXXXXXXXXXXXX.X.X.X.X.X[.OXOX[.OX[.[.[.OX.X.XOXXXXXXXoXXXXXXX.X[.[.[.].[.[.XXoXoXoX.X^.D.n./ L f 9 t s  .o.*.-.;.;.",
"X.@.@.o.o.#.I J K E / k.Z.L.`. XXXXX X`.~.W.W.!.~.(.[.XXXXoX+X+XOX+XOXOXXXXXXXXX.X.X.X[.[..X[.[.[.[.OXOXOXXXOXOXoX+X+X+XOXXX.X[.~.~.W.W.~.~.`..XoXoX X`.L.Z.k./ E I K I #.o.@.@.@.@.",
"` ` `  .#.#.9.q.e.i.n.Z.J.P.`. X X X`.P.K.Z.V.Z.H.W.`.[.XX+X+X+X+X+XOXOXOXXX.X.X.X.X.X.X.X[..XXX[.OX[.OX.XOXOXOXOX+X+X+X+XXX[.].!.K.Z.V.C.H.L.^. X X X'.P.K.Z.n.i.e.0.9.#.#...} ` ` ",
"a u s S #.0.r.s.M.V.S.K.P.I.I. X'.I.J.Z.m.k.i.k.B.D.!.`.XXoXOXoXOXXXXXXXXXXX[.XX.X.X.X.X.X[.[.[..X.X[.OX.X.XOXXXXXOX+X+XXXXX`.W.D.M.k.k.h.l.G.J.I.I. XI.I.L.L.H.V.M.k.e.=.#.D s i i ",
"3 3 7 d P q.c.V.K.W.~.^.I. X XI.I.J.F.l.y.Q E ~ u.M.L.~.[.XXOXOXXX.XXX[.XX[.XX[..X.X.X[.[.OXOX[..X.X.X.X.XXX.X.XXXXXOXXXXX[.~.K.B.i.0.E ! y.j.G.L.P.I. X'.^.^.^.!.D.B.k.q.P d 7 > 3 ",
"+ O + w P r.v.S.~.`..XXXXX.XXX XI.L.Z.k.Q C g F 0.k.S.!.].XXOXXXXXXX[.XX[.[.[.XX.X.X.X.X[.[.XX.X.X[..X.X.X.X.X.X.XXXXXoXXX].~.S.k.~ V g F Q k.C.W.^. XXXXXXXoX.X`.!.H.M.e.P e + + + ",
".   O 9 K t.M.L.~.XX+X@X@X@X@X@XXX].S.i.Y 9 O 6 K y.Z.!.[.XXOXOXXX.XXX[.[.XXXX[..X.X.X.XOX[.[..X.X.X.X.X.X.X.X[.XXXXoXoXXX[.W.V.y.L 6 + 9 E i.S.].[.@X@X@X@X@X@X.X`.K.B.r.P 9 O     ",
"      $ L / Z.L.'.oX@X%X%X4X4X4X3X|.{.N.w., . . B y.m.W.[.XXOXOXXXXX[..X.X.X[.XX[.[.XX[.[.XXXX[..X.X.X.X[..X.X[.OXOXOXOXXX'.W.V.e.S . . , 4.N.{.|.3X4X4X4X%X%X%XoX`.J.m.y.L $       ",
"      $ L y.m.J.'.@X%X4X4X9XtXtX8X6X;X_.p.h O   B / B.!.[.XXOXOXXX[..X.X.X.X.X.XOXXX[.[.XX[.[.XX.X.X.X.XXX[..X.X.XOXOXOXoX].L.V./ k   O h p.R.=X5X8XtXtX9X4X4X%XoX`.J.m./ L $       ",
"      $ L ^ z.J.I.+X%X7X9XpXpXaXaXyX5X_.d.( O   k ^ v.W.[.oXOXOXXXXXXX[..X[.XX[.[.[.[.XX[.[.[.[..X.X.X[.OX[.[.XX.XXXOXOXXX[.W.m./ k   O ( d.&X<XwXaXpXpXiX9X4X%XoX`.J.m./ P $       ",
"      $ L ^ z.J.I.+X%X7XiXdXdXjXdXiXqX;XT.2.+   j W m.!.[..XOXOXXXXX[..X.X.X[.XX[.XXXX[.[.OXXX[..X[.[.OX[..X.X[..X.XOXOXXX[.W.m.^ j   + 2.T.;XqXsXjXjXdXdXtX9X4XXXI.G.m./ L $       ",
"    . 9 A / g.F.P.XX%X7XpXdXjXlXlXfXyX>X).7.; o j ^ m.!.[.XXOXoXXXXX[.[..X.X.X.XXXXX[.XXXX[.[.XX.X.X.X.X[.XX[.XX.XOXoXOXXX[.~.m.W j o # 6.R.>XeXfXkXlXjXdXiX7X%X XI.Z.g.^ L 9 .     ",
"O O + 0 L ! g.F.J.'.$X6XiXdXjXlXkXfXqX>X).7.# o j ^ m.W.[..XOXXXXXXX[.XX.X.X.X.X[.[.XX[.[.[.XX[..X.X.X.X.X[..X.X.XXXoXOXXX[.L.m.^ j o 2 7.T.>XyXsXkXzXjXdXtX7X#X`.J.F.g.! A 0 + O O ",
"; - < d K R h.z.F.L.}.6X8XiXsXfXgXyX1X-Xf.2.# % k ^ m.P.[.XXOXXXoX[..X.X.X.X.X.X.X.X[.OX[.XXXX[.OX[..X[..X[..X.X.X.XOXOXXX[.L.m.^ k % 1 7.f.-X1XuXfXfXsXuX8X3X}.I.G.z.g.! I d < - ; ",
"u u a S U R ^ h.z.S.Q.|.:X0XwXyXeXqX>X&Xd.2.2 & Z g.C.W.[.XXOXOXoX.X[..X.X.XXX.XXX.XXX}.XXXXXXXX.XXXOX.XOX[..X.XXXOXOXOXXX].~.C.g.Z & 2 ( d.&X>XqXeXeXqX5X5X=XQ.Z.m.g.^ R I D a t u ",
"m b m H H R R / y.i.V.Y.{.=X:X<X>X-X&Xf.8.h 2 = T h.C.P.].XXoXXXXX.X.X.X.X.X.XOXOXXXOXXXoXoXoXXXXXXXXX[.XX[..X.X[.OXXXOX}.[.P.V.h.A = 2 ( 8.f.).;X,X,X,X;X{.Y.N.k./ ^ R #.#. .m n n ",
"X.@.o.@.o.&.U Y R ~ t.s.d.U.R.R.T.T.f.8.( , 2 g R j.S.!.[.XXoXXXXXXX.X.XXX.X.XOXXXOXOXOXoXoXOXOXOXXXoXXXXXXX.X.XXX.XOXOX.X[.!.Z.k.R B 2 , ( 8.d.U.R.R.R.U.N.s.t.W Q R R #.$.o.o.X.o.",
"&.&.&.&.*.....S N N V G E 7.5.8.5.5.( h , + 1 C ~ k.H.W.[.XXoXXXXX.X.X.X.X.XXXOXXXOXXXOXXXoXXXXXoXXXXXXX[.XXXX[.[.oXOXoXXX[.P.S.j.! V 2 - , h | 7.5.8.5.5.E G V N F D H o.@.&.&.&.:.",
">.>.>.*.@.X.} d 0 # O O O O O O O O . . . O 1 F 0.v.S.~.[.XX+XXXXX.X.X.X.X.X[..X[.[. X.X[..X[.[.[.[.XX[..X[.[.[.[.OXoXoXXX'.`.D.v.0.F 2 O   . . O O O O O O O + < 6 d v o.@.:.>.:.>.",
"<.<.>.>.@.O.` s 5 - O                     . 2 F q.v.S.!.].XXoXoXOXXX.X.X.X[.].`.(.~.^.!.~.!.~.~.`.~.].].[.[..XXXXXXXoXOX.X[.`.S.l.e.F 1                       O - 7 s ` O.&.>.<.<.<.",
"<.<.<.>.-.@.] s u 4 - O                     2 F e.l.S.~.[.XXOXOXXXXX.X.X[.~.~.!.L.K.D.K.S.S.K.D.K.L.!.~.`.].[.XXOXOXoXOX.X[.L.S.M.q.F 1 .                   O - 3 t s ] +.&.:.<.<.,.",
">.<.>.>.&.@.O.` b i u 8 8 6 * * * # . . . O 2 F q.n.S.W.[.XXOXOXOXXXXX.X].~.L.K.V.M.v.k.k.k.k.M.M.V.S.L.`.`..X.XOXOXoXOXoX[.`.S.n.q.F 2 . . . . X * * 6 8 8 8 u p b } O.@.&.>.<.>.<.",
">.<.>.>.:.&.@.o.O. .] _ [ ' c c l l 8 + O O 2 C q.k.S.~.[.XX+XOXOXoXXX.X`.L.D.M.k.e.0.Q Q Q Q 0.e.k.B.K.P.`..X}.OXOX+XoX.X[.L.S.k.0.F 2 O + - 8 l c c c c n M M O.X.o.@.&.&.:.>.>.;.",
">.>.;.:.;.;.&.&.&.%.&.&.&.&.%.%.@.] b r - + 2 V ~ k.S.P.].XXoX+X+X+XXX.X`.L.S.k.~ P N f 0 0 f N K q.k.V.L./.[.XXoXoX@X+XXX[.L.D.n.~ V 2 + - 8 x M %.&.&.&.%.%.&.%.&.&.&.&.>.>.>.>.>.",
">.>.>.:.:.>.:.:.;.>.*.:.>.>.<.;.&.@.` u : - 2 C ~ n.D.!.[.oXoX+X+X+XXX[.`.K.M.t.P 0 O .     . O 0 Y t.M.K.~.[.OXoXoXoXoXXX[.`.S.k.~ V 2 - : t ` o.&.>.>.>.>.>.>.>.:.&.>.>.>.&.>.>.>.",
";.:.:.>.>.>.>.>.>.>.<.>.;.<.>.;.>.@.] u > + # C ~ k.S.!.[.XX+X+X+X+XoX[.!.H.n./ F +             + C q.M.K.~.[.OXoX@X@XoX.X[.`.S.k.~ g 2 - > u ` %.>.<.>.,.>.<.>.>.:.>.>.>.>.>.>.-.:.",
">.:.:.:.>.>.>.>.;.<.;.>.<.<.<.<.:.@.` u : + 2 V ~ k.S.!.[.XXoX@X@X+X+X.X`.D.n.~ N O             O N q.n.K.~.[.+X@XoX@XoXoX[.L.S.n.~ C # + : u ] %.>.>.<.>.<.<.>.>.,.>.>.>.>.>.>.>.>.",
"&.>.>.>.:.>.>.>.>.>.<.<.<.<.<.<.:.%.m u - + + V ~ n.Z.`.[.oX@X@X@X@XoX X`.K.n.~ N O             O V e.M.K.~.XXOX@X@X@X@X+X[.P.H.n.~ V + + - u ` o.>.>.<.<.<.<.>.>.>.>.>.>.>.;.:.:.:.",
":.>.&.>.:.>.>.>.>.>.>.>.;.;.<.>.>.@.m t - O O V ~ n.G.`.XXoX@X@X@X@X@XXX`.L.B.t.F O             O C t.M.L.`..X@X@X@X@X@X+X[.`.H.n.W V + O - t ` %.>.,.<.<.>.>.>.>.>.>.>.>.:.:.>.:.:.",
":.:.>.&.>.>.>.:.:.>.;.<.>.<.,.>.*.X.m t - O . V ~ i.S.`.[.oX@X@X@X@X@X.X`.K.B.t.K $             $ L t.B.L.`..X+X@X@X@X@X+X[.~.D.n.Q V + + - t n X.&.>.<.>.>.>.>.:.:.>.:.:.>.:.>.:.:.",
":.:.>.>.>.>.:.>.:.;.;.>.;.;.>.:.&.@.m u - + $ g ~ n.D.`.[.oX+X+X@X+XoX[.`.K.B.t.L 0 O         O 0 K t.M.K.`..XoX+X@X+X+XoX[.!.S.n.~ V # + - t ` %.;.>.>.>.>.>.>.>.>.:.>.:.;.>.:.:.:.",
">.&.>.:.>.>.*.>.>.>.>.>.>.>.>.>.:.@.M i 4 > 9 F 0.k.C.W.(.[..XXX.X.X.X(.!.S.v.e.U e - O O O O - e I r.M.S.!.(..X.XXXXX.X[.(.W.V.i.0.F 9 ; 7 p ` @.*.>.<.>.>.>.>.&.>.>.&.>.>.>.>.>.>.",
">.>.>.>.&.>.&.>.>.&.>.&.>.>.>.>.&.@.X.b u u s I 0.u.b.E.Q.!.(.(.(.(.(.Q.H.A.v.r.#.d 7 : - - ; 7 S U e.c.V.E.W./.(.(.(././.W.E.A.i.Q J d t u b O.%.*.>.>.>.>.>.>.>.>.>.*.&.>.&.>.*.&.",
":.>.&.>.>.>.>.>.>.&.>.>.>.>.>.>.*.&.X.D b b v U 0.a.c.A.E.E.E.Q.E.E.E.E.V.b.x.0.#.D s u u t u s D #.0.r.c.A.D.E.E.Q.E.E.E.A.V.c.a.=.I D b b ` X.&.&.:.>.>.>.>.;.>.>.>.>.>.>.&.>.&.>.",
">.&.>.>.>.&.>.>.>.>.>.>.>.>.>.>.&.&.&.X. .] ..o.=.r.a.c.b.b.b.A.b.b.b.b.v.x.a.1.=.o. .` b m m  . .$.a.a.x.b.b.b.A.b.A.A.b.b.c.a.a.=.#. .`  .X.&.&.*.>.>.>.>.:.:.&.>.>.&.>.>.>.>.>.>.",
">.>.>.>.>.&.>.&.*.>.>.&.>.>.>.>.>.&.&.%.%.o.%.&.=.,.a.a.a.x.x.x.x.x.x.x.a.1.1.,.*.&.@.@.@.@.O.@.&.*.,.a.a.a.x.x.x.x.x.x.x.x.a.a.0.>.*.%.@.@.%.*.&.>.>.>.>.>.>.>.>.&.>.>.>.&.>.&.>.>.",
">.&.>.&.>.>.>.>.&.>.>.>.>.>.>.&.>.>.>.&.&.*.>.>.>.>.:.,.,.,.,.,.<.<.<.<.<.>.>.:.*.-.-.;.&.&.&.&.-.-.:.>.>.,.>.<.<.<.<.<.<.,.>.,.>.:.:.:.&.:.:.;.>.>.>.:.:.>.>.>.>.>.>.>.>.>.>.>.&.>.",
">.&.>.>.>.>.>.>.>.>.>.>.>.>.>.>.>.>.>.>.>.,.>.;.:.-.-.%.%.%.%.{ %.%.%.%.&.-.;.;.:.:.>.>.>.>.:.,.<.;.;.-.-.%.-.%.%.%.%.{ %.%.-.-.:.;.:.>.,.>.>.:.&.:.:.:.>.&.>.&.&.>.>.&.&.>.>.>.>.>.",
">.>.>.>.*.&.>.&.>.&.>.&.>.>.&.>.>.>.>.>.>.>.>.>.;.-.%.%.{ { { { { { { { { %.%.;.>.>.>.<.<.>.,.>.;.;.-.-.%.{ { { { { { { { { { %.-.-.>.>.>.>.,.;.>.:.:.&.>.>.>.>.>.>.>.>.:.>.&.>.>.>.",
">.&.*.>.>.>.>.&.>.>.>.&.>.>.>.>.>.>.>.>.>.>.<.>.-.&.%.%.%.{ { { { { { { %.%.;.;.;.>.<.<.>.<.>.>.;.;.;.-.%.{ { { { { { { { %.%.%.-.;.>.<.>.,.>.>.>.:.>.:.>.:.>.&.>.>.&.>.>.>.&.>.>.-."
};
