/* XPM */
static char *result[] = {
/* columns rows colors chars-per-pixel */
"90 105 240 2 ",
"   c #010001",
".  c #00000D",
"X  c #1A0000",
"o  c #000013",
"O  c #00001C",
"+  c #160E1E",
"@  c #230C10",
"#  c #000022",
"$  c #00012C",
"%  c #080C25",
"&  c #171222",
"*  c #1A1425",
"=  c #1A182B",
"-  c #000034",
";  c #00003A",
":  c #000B39",
">  c #03183A",
",  c #14152D",
"<  c #241B25",
"1  c #201F33",
"2  c #1E223A",
"3  c #39292C",
"4  c #25253B",
"5  c #26263C",
"6  c #372E39",
"7  c #342A34",
"8  c #560900",
"9  c #741300",
"0  c #723612",
"q  c #442A2A",
"w  c #44302D",
"e  c #4B362F",
"r  c #473637",
"t  c #543D35",
"y  c #5B382E",
"u  c #4E2926",
"i  c #5D4339",
"p  c #664A3B",
"a  c #73533E",
"s  c #79563E",
"d  c #704B38",
"f  c #011E42",
"g  c #001747",
"h  c #062042",
"j  c #0A254A",
"k  c #172645",
"l  c #0F3158",
"z  c #262B44",
"x  c #292D46",
"c  c #242D4B",
"v  c #2A2F49",
"b  c #2B304B",
"n  c #24324F",
"m  c #253959",
"M  c #373144",
"N  c #003D6A",
"B  c #0F3D6E",
"V  c #413745",
"C  c #184A78",
"Z  c #004A7E",
"A  c #234268",
"S  c #224D7A",
"D  c #5A464A",
"F  c #785844",
"G  c #6B514B",
"H  c #8B3200",
"J  c #9A4C0B",
"K  c #A64A03",
"L  c #B35508",
"P  c #915931",
"I  c #B05B25",
"U  c #AE692B",
"Y  c #B9662C",
"T  c #B9743D",
"R  c #B56532",
"E  c #A7622D",
"W  c #CA7005",
"Q  c #C57436",
"!  c #C7722E",
"~  c #815E47",
"^  c #8C654A",
"/  c #86624A",
"(  c #966C4D",
")  c #986C4B",
"_  c #996E52",
"`  c #9D7351",
"'  c #8F6953",
"]  c #B56A4B",
"[  c #B77548",
"{  c #B76E50",
"}  c #A27553",
"|  c #AC7D59",
" . c #A77A56",
".. c #B97858",
"X. c #AA744B",
"o. c #B37C63",
"O. c #947364",
"+. c #C67D47",
"@. c #C27B54",
"#. c #CF8634",
"$. c #B4835B",
"%. c #BA865D",
"&. c #B18056",
"*. c #BE8B61",
"=. c #B28361",
"-. c #BE8A78",
";. c #B38B72",
":. c #CB8549",
">. c #C78757",
",. c #D89459",
"<. c #D58E52",
"1. c #E2924D",
"2. c #C38D62",
"3. c #C88A67",
"4. c #CB9366",
"5. c #CA9468",
"6. c #D59B6B",
"7. c #DA9D6C",
"8. c #D79765",
"9. c #C28B7B",
"0. c #C88F7C",
"q. c #D59B77",
"w. c #CE9271",
"e. c #DCA06E",
"r. c #DDA272",
"t. c #E4A36D",
"y. c #EBA46B",
"u. c #E3A572",
"i. c #E7A974",
"p. c #EBAB75",
"a. c #EDAE7A",
"s. c #E7A573",
"d. c #F1AE77",
"f. c #F2B17A",
"g. c #FAB47B",
"h. c #F2AA6E",
"j. c #E29F6C",
"k. c #004885",
"l. c #005A9C",
"z. c #0E5790",
"x. c #215484",
"c. c #345A84",
"v. c #1A639B",
"b. c #005DA2",
"n. c #0057A5",
"m. c #005DBB",
"M. c #0166AB",
"N. c #1B6AA8",
"B. c #0067B9",
"V. c #0574BE",
"C. c #1675B8",
"Z. c #3D76AD",
"A. c #3E6286",
"S. c #4D6C86",
"D. c #4C77A7",
"F. c #737C88",
"G. c #006BC7",
"H. c #0176C7",
"J. c #157CC4",
"K. c #006BD3",
"L. c #0078D6",
"P. c #007CE1",
"I. c #5786B8",
"U. c #6E8CAF",
"Y. c #0A81CB",
"T. c #0587D9",
"R. c #1E8AD6",
"E. c #008CE4",
"W. c #008CEA",
"Q. c #0084E5",
"!. c #0196EC",
"~. c #0192E8",
"^. c #0098F6",
"/. c #008EF1",
"(. c #369DED",
"). c #00A1FE",
"_. c #248CD7",
"`. c #4990D3",
"'. c #6696CC",
"]. c #469EEA",
"[. c #499DE6",
"{. c #52A4EF",
"}. c #77A9E2",
"|. c #7FB2EE",
" X c #77B2F3",
".X c #6CAFF3",
"XX c #7CA6D7",
"oX c #B2B0B0",
"OX c #96969C",
"+X c #C69788",
"@X c #D19C84",
"#X c #CCA79D",
"$X c #D9AC96",
"%X c #D4A58B",
"&X c #E9B997",
"*X c #F1B688",
"=X c #D3ACA3",
"-X c #D8B5A8",
";X c #D1B6AE",
":X c #E8BBA1",
">X c #DBC3BD",
",X c #E6C7B7",
"<X c #F1CAB1",
"1X c #F1C09D",
"2X c #8CB9EF",
"3X c #9AB1D0",
"4X c #9CC4F6",
"5X c #8CC2FF",
"6X c #A7C9F5",
"7X c #B5D4FC",
"8X c #ADCAF0",
"9X c #BBC4CF",
"0X c #DDC6C3",
"qX c #D5D1D2",
"wX c #E2CBC5",
"eX c #E9D4CA",
"rX c #F6DBCA",
"tX c #EADDDA",
"yX c #EAD8D2",
"uX c #F3DFD5",
"iX c #F7E6DB",
"pX c #F2E1D9",
"aX c #C9DBF6",
"sX c #C5DCFC",
"dX c #C8DBF8",
"fX c #D3D9EA",
"gX c #D6E8FE",
"hX c #CFE3FB",
"jX c #ECE4E3",
"kX c #F6ECE7",
"lX c #FBF2EC",
"zX c #E2ECFB",
"xX c #E4EAF5",
"cX c #E8F4FF",
"vX c #FFFCF6",
"bX c #F6FAFE",
"nX c #FFFFFF",
"mX c #F8F4F4",
"MX c #E1DFEC",
"NX c None",
/* pixels */
"NXNXNXNXNXNXNXNXNXNXNXNXNXNXNXNXNXNXNXNXNXNXNXNXNXNXNXNXNXNXNXNXNXNXNXNXNXNXNXNXNXNXNXNXNXNXNXNXNXNXNXNXNXNXNXNXNXNXNXNXNXNXNXNXNXNXNXNXNXNXNXNXNXNXNXNXNXNXNXNXNXNXNXNXNXNXNXNXNXNX",
"NXNXNXNXNXNXNXNXNXNXNXNXNXNXNXNXNXNXNXNXNXNXNXNXNXNXNXNXNXNXNXNXNXNXNXNXNXNXNXNXNXNXNXNXNXNXNXNXNXNXNXNXNXNXNXNXNXNXNXNXNXNXNXNXNXNXNXNXNXNXNXNXNXNXNXNXNXNXNXNXNXNXNXNXNXNXNXNXNXNX",
"NXNXNXNXNXNXNXNXNXNXNXNXNXNXNXNXNXNXNXNXNXNXNXNXNXNXNXNXNXNXNXNXNXNXNXNXNXNXNXNXNXNXNXNXNXNXNXNXNXNXNXNXNXNXNXNXNXNXNXNXNXNXNXNXNXNXNXNXNXNXNXNXNXNXNXNXNXNXNXNXNXNXNXNXNXNXNXNXNXNX",
"NXNXNXNXNXNXNXNXNXNXNXNXNXNXNXNXNXNXNXNXNXNXNXNXNXNXNXNXNXNXNXNXNXNXNXNXNXNXNXNXNXNXNXNXNXNXNXNXNXNXNXNXNXNXNXNXNXNXNXNXNXNXNXNXNXNXNXNXNXNXNXNXNXNXNXNXNXNXNXNXNXNXNXNXNXNXNXNXNXNX",
"NXNXNXNXNXNXNXNXNXNXNXNXNXNXNXNXNXNXNXNXNXNXNXNXNXNXNXNXNXNXNXNXNXNXNXNXNXNXNXNXNXNXNXNXNXNXNXNXNXNXNXNXNXNXNXNXNXNXNXNXNXNXNXNXNXNXNXNXNXNXNXNXNXNXNXNXNXNXNXNXNXNXNXNXNXNXNXNXNXNX",
"NXNXNXNXNXNXNXNXNXNXNXNXNXNXNXNXNXNXNXNXNXNXNXNXNXNXNXNXNXNXNXNXNXNXNXNXNXNXNXNXNXNXNXNXNXNXNXNXNXNXNXNXNXNXNXNXNXNXNXNXNXNXNXNXNXNXNXNXNXNXNXNXNXNXNXNXNXNXNXNXNXNXNXNXNXNXNXNXNXNX",
"NXNXNXNXNXNXNXNXNXNXNXNXNXNXNXNXNXNXNXNXNXNXNXNXNXNXNXNXNXNXNXNXNXNXNXNXNXNXNXNXNXNXNXNXNXNXNXNXNXNXNXNXNXNXNXNXNXNXNXNXNXNXNXNXNXNXNXNXNXNXNXNXNXNXNXNXNXNXNXNXNXNXNXNXNXNXNXNXNXNX",
"NXNXNXNXNXNXNXNXNXNXNXNXNXNXNXNXNXNXNXNXNXNXNXNXNXNXNXNXNXNXNXNXNXNXNXNXNXNXNXNXNXNXNXNXNXNXNXNXNXNXNXNXNXNXNXNXNXNXNXNXNXNXNXNXNXNXNXNXNXNXNXNXNXNXNXNXNXNXNXNXNXNXNXNXNXNXNXNXNXNX",
"NXNXNXNXNXNXNXNXNXNXNXNXNXNXNXNXNXNXNXNXNXNXNXNXNXNXNXNXNXNXNXNXNXNXNXNXNXNXNXNXNXNXNXNXNXNXNXNXNXNXNXNXNXNXNXNXNXNXNXNXNXNXNXNXNXNXNXNXNXNXNXNXNXNXNXNXNXNXNXNXNXNXNXNXNXNXNXNXNXNX",
"NXNXNXNXNXNXNXNXNXNXNXNXNXNXNXNXNXNXNXNXNXNXNXNXNXNXNXNXNXNXNXNXNXNXNXNXNXNXNXNXNXNXNXNXNXNXNXNXNXNXNXNXNXNXNXNXNXNXNXNXNXNXNXNXNXNXNXNXNXNXNXNXNXNXNXNXNXNXNXNXNXNXNXNXNXNXNXNXNXNX",
"NXNXNXNXNXNXNXNXNXNXNXNXNXNXNXNXNXNXNXNXNXNXNXNXNXNXNXNXNXNXNXNXNXNXNXNXNXNXNXNXNXNXNXNXNXNXNXNXNXNXNXNXNXNXNXNXNXNXNXNXNXNXNXNXNXNXNXNXNXNXNXNXNXNXNXNXNXNXNXNXNXNXNXNXNXNXNXNXNXNX",
"NXNXNXNXNXNXNXNXNXNXNXNXNXNXNXNXNXNXNXNXNXNXNXNXNXNXNXNXNXNXNXNXNXNXNXNXNXNXNXNXNXNXNXNXNXNXNXNXNXNXNXNXNXNXNXNXNXNXNXNXNXNXNXNXNXNXNXNXNXNXNXNXNXNXNXNXNXNXNXNXNXNXNXNXNXNXNXNXNXNX",
"NXNXNXNXNXNXNXNXNXNXNXNXNXNXNXNXNXNXNXNXNXNXNXNXNXNXNXNXNXNXNXNXNXNXNXNXNXNXNXNXNXNXNXNXNXNXNXNXNXNXNXNXNXNXNXNXNXNXNXNXNXNXNXNXNXNXNXNXNXNXNXNXNXNXNXNXNXNXNXNXNXNXNXNXNXNXNXNXNXNX",
"NXNXNXNXNXNXNXNXNXNXNXNXNXNXNXNXNXNXNXNXNXNXNXNXNXNXNXNXNXNXNXNXNXNXNXNXNXNXNXNXNXNXNXNXNXNXNXNXNXNXNXNXNXNXNXNXNXNXNXNXNXNXNXNXNXNXNXNXNXNXNXNXNXNXNXNXNXNXNXNXNXNXNXNXNXNXNXNXNXNX",
"NXNXNXNXNXNXNXNXNXNXNXNXNXNXNXNXNXNXNXNXNXNXNXNXNXNXNXNXNXNXNXNXNXNXNXNXNXNXNXNXNXNXNXNXNXNXNXNXNXNXNXNXNXNXNXNXNXNXNXNXNXNXNXNXNXNXNXNXNXNXNXNXNXNXNXNXNXNXNXNXNXNXNXNXNXNXNXNXNXNX",
"NXNXNXNXNXNXNXNXNXNXNXNXNXNXNXNXNXNXNXNXNXNXNXNXNXNXNXNXNXNXNXNXNXNXNXNXNXNXNXNXNXNXNXNXNXNXNXNXNXNXNXNXNXNXNXNXNXNXNXNXNXNXNXNXNXNXNXNXNXNXNXNXNXNXNXNXNXNXNXNXNXNXNXNXNXNXNXNXNXNX",
"NXNXNXNXNXNXNXNXNXNXNXNXNXNXNXNXNXNXNXNXNXNXNXNXNXNXNXNXNXNXNXNXNXNXNXNXNXNXNXNXNXNXNXNXNXNXNXNXNXNXNXNXNXNXNXNXNXNXNXNXNXNXNXNXNXNXNXNXNXNXNXNXNXNXNXNXNXNXNXNXNXNXNXNXNXNXNXNXNXNX",
"NXNXNXNXNXNXNXNXNXNXNXNXNXNXNXNXNXNXNXNXNXNXNXNXNXNXNXNXNXNXNXNXNXNXNXNXNXNXNXNXNXNXNXNXNXNXNXNXNXNXNXNXNXNXNXNXNXNXNXNXNXNXNXNXNXNXNXNXNXNXNXNXNXNXNXNXNXNXNXNXNXNXNXNXNXNXNXNXNXNX",
"NXNXNXNXNXNXNXNXNXNXNXNXNXNXNXNXNXNXNXNXNXNXNXNXNXNXNXNXNXNXNXNXNXNXNXNXNXNXNXNXNXNXNXNXNXNXNXNXNXNXNXNXNXNXNXNXNXNXNXNXNXNXNXNXNXNXNXNXNXNXNXNXNXNXNXNXNXNXNXNXNXNXNXNXNXNXNXNXNXNX",
"NXNXNXNXNXNXNXNXNXNXNXNXNXNXNXNXNXNXNXNXNXNXNXNXNXNXNXNXNXNXNXNXNXNXNXNXNXNXNXNXNXNXNXNXNXNXNXNXNXNXNXNXNXNXNXNXNXNXNXNXNXNXNXNXNXNXNXNXNXNXNXNXNXNXNXNXNXNXNXNXNXNXNXNXNXNXNXNXNXNX",
"NXNXNXNXNXNXNXNXNXNXNXNXNXNXNXNXNXNXNXNXNXNXNXNXNXNXNXNXNXNXNXNXNXNXNXNXNXNXNXNXNXNXNXNXNXNXNXNXNXNXNXNXNXNXNXNXNXNXNXNXNXNXNXNXNXNXNXNXNXNXNXNXNXNXNXNXNXNXNXNXNXNXNXNXNXNXNXNXNXNX",
"NXNXNXNXNXNXNXNXNXNXNXNXNXNXNXNXNXNXNXNXNXNXNXNXNXNXNXNXNXNXNXNXNXNXNXNXNXNXNXNXNXNXNXNXNXNXNXNXNXNXNXNXNXNXNXNXNXNXNXNXNXNXNXNXNXNXNXNXNXNXNXNXNXNXNXNXNXNXNXNXNXNXNXNXNXNXNXNXNXNX",
"NXNXNXNXNXNXNXNXNXNXNXNXNXNXNXNXNXNXNXNXNXNXNXNXNXNXNXNXNXNXNXNXNXNXNXNXNXNXNXNXNXNXNXNXNXNXNXNXNXNXNXNXNXNXNXNXNXNXNXNXNXNXNXNXNXNXNXNXNXNXNXNXNXNXNXNXNXNXNXNXNXNXNXNXNXNXNXNXNXNX",
"NXNXNXNXNXNXNXNXNXNXNXNXNXNXNXNXNXNXNXNXNXNXNXNXNXNXNXNXNXNXNXNXNXNXNXNXNXNXNXNXNXNXNXNXNXNXNXNXNXNXNXNXNXNXNXNXNXNXNXNXNXNXNXNXNXNXNXNXNXNXNXNXNXNXNXNXNXNXNXNXNXNXNXNXNXNXNXNXNXNX",
"NXNXNXNXNXNXNXNXNXNXNXNXNXNXNXNXNXNXNXNXNXNXNXNXNXNXNXNXNXNXz z NXNXNXNXNXNXNXNXNXNXNXNXNXNXNXNXNXNXNXNXNXNXNXNXNXNXz x NXNXNXNXNXNXNXNXNXNXNXNXNXNXNXNXNXNXNXNXNXNXNXNXNXNXNXNXNXNX",
"NXNXNXNXNXNXNXNXNXNXNXNXNXNXNXNXNXNXNXNXNXNXNXNXNXNXNXz z z z z x x x x v x x v z x v x z v x x v x x b x v v z z x z z z z z NXNXNXNXNXNXNXNXNXNXNXNXNXNXNXNXNXNXNXNXNXNXNXNXNXNXNX",
"NXNXNXNXNXNXNXNXNXNXNXNXNXNXNXNXNXNXNXNXNXNXNXNXNXNXNXz z z z c x z z z x z x x z v z v x z x x z z x z z z x x x z z c z z z z NXNXNXNXNXNXNXNXNXNXNXNXNXNXNXNXNXNXNXNXNXNXNXNXNXNX",
"NXNXNXNXNXNXNXNXNXNXNXNXNXNXNXNXNXNXNXNXNXNXNXNXNXNXz z z z v v x c z z c z z z z z z z z z z z z z z z z z z z z x x x z z z z NXNXNXNXNXNXNXNXNXNXNXNXNXNXNXNXNXNXNXNXNXNXNXNXNXNX",
"NXNXNXNXNXNXNXNXNXNXNXNXNXNXNXNXNXNXNXNXNXNXNXNXNXz z z z v b b v x z z z c c z z z z z z z z z z z c z z z z z v b b b v z x z x NXNXNXNXNXNXNXNXNXNXNXNXNXNXNXNXNXNXNXNXNXNXNXNXNX",
"NXNXNXNXNXNXNXNXNXNXNXNXNXNXNXNXNXNXNXNXNXNXNXNXNX5 5 x v b b c k k j f f > h > h h f h f h h h h h h f f f h h k k c c b v z x x NXNXNXNXNXNXNXNXNXNXNXNXNXNXNXNXNXNXNXNXNXNXNXNXNX",
"NXNXNXNXNXNXNXNXNXNXNXNXNXNXNXNXNXNXNXNXNXNXNX1 4 5 x x v v c j f g : ; - - - : ; - ; ; ; ; ; ; - ; - - - - ; : g f j c x v v v v x z NXNXNXNXNXNXNXNXNXNXNXNXNXNXNXNXNXNXNXNXNXNXNX",
"NXNXNXNXNXNXNXNXNXNXNXNXNXNXNXNXNXNXNXNXNX+ * = 1 5 z x v x k f : - $ $ $ $ $ $ $ $ $ $ $ $ $ $ $ $ $ $ $ $ $ - ; : f k c x M v x x x z x NXNXNXNXNXNXNXNXNXNXNXNXNXNXNXNXNXNXNXNXNX",
"NXNXNXNXNXNXNXNXNXNXNXNXNXNXNXNXNXNXNXNX+ & * = 1 5 5 x v z k f : - $ O O O O O # # # # # # # # O # O O O O O $ $ - > k c v b v v x x z z z NXNXNXNXNXNXNXNXNXNXNXNXNXNXNXNXNXNXNXNX",
"NXNXNXNXNXNXNXNXNXNXNXNXNXNXNXNXNXNXNX+ + & * = 1 4 5 z x z k > > $ $ O O O O O O O O # # O # O # O # O O O O # $ > > 2 z z x x v c x z z z z NXNXNXNXNXNXNXNXNXNXNXNXNXNXNXNXNXNXNX",
"NXNXNXNXNXNXNXNXNXNXNXNXNXNXNXNXNXNXNX& & & = = 1 2 k k z 5 x 6 6 3 w w w w w w w w e 3 w w w w w w w w w w w 3 6 6 6 x z c z c v b b v z z z NXNXNXNXNXNXNXNXNXNXNXNXNXNXNXNXNXNXNX",
"NXNXNXNXNXNXNXNXNXNXNXNXNXNXNXNXNXNXNX& & & = , , > > > > 5 6 D i G F a s s s s a a a a a a a a a a s s s s F F p i t M 2 > > h j c n v x x x NXNXNXNXNXNXNXNXNXNXNXNXNXNXNXNXNXNXNX",
"NXNXNXNXNXNXNXNXNXNXNXNXNXNXNXNXNXNXNX< * * * , $ $ $ - - > r D F / ( } } } } ` ` ) ) ) ( ) ) ) ( ) ` ` } } ` _ ^ F p 6 > - ; ; g j c v b x x NXNXNXNXNXNXNXNXNXNXNXNXNXNXNXNXNXNXNX",
"NXNXNXNXNXNXNXNXNXNXNXNXNXNXNXNXNXNXNX< < < * % $ $ # # # $ r F '  .%.%.2.>.%.%.$.$.$.$.$.$.$.&.$.$.%.2.2.>.>.$.} ^ F r % $ $ - ; f k v x b M NXNXNXNXNXNXNXNXNXNXNXNXNXNXNXNXNXNXNX",
"NXNXNXNXNXNXNXNXNXNXNXNXNXNXNXNXNXNXNX< < * = # $ O o . O $ i ~ ` %.5.6.e.e.e.6.4.4.2.4.4.4.4.4.4.5.6.6.e.e.6.5.=.} ~ i $ O # $ ; g k x b M x NXNXNXNXNXNXNXNXNXNXNXNXNXNXNXNXNXNXNX",
"NXNXNXNXNXNXNXNXNXNXNXNXNXNXNXNXNXNXNX* * = & % O o . . o 1 p ^ &.2.6.t.i.i.i.e.e.e.e.e.e.e.e.e.e.t.u.u.i.i.u.6.2.| ^ p < O O $ - g k x x b b NXNXNXNXNXNXNXNXNXNXNXNXNXNXNXNXNXNXNX",
"NXNXNXNXNXNXNXNXNXNXNXNXNXNXNXNXNXNXNX& % & * * # O O O * t s ) $.5.7.u.p.p.p.i.i.i.i.i.i.i.i.i.i.i.i.p.p.i.i.e.4.$.) s t * # $ : k z z z z z NXNXNXNXNXNXNXNXNXNXNXNXNXNXNXNXNXNXNX",
"NXNXNXNXNXNXNXNXNXNXNXNXNXNXNXNXNXNXNXO # # = < 3 3 w e p F ( } $.*.5.e.u.u.i.i.p.p.a.d.a.d.d.a.a.p.i.u.i.t.e.5.2.$.} ^ s p t r 6 M M 5 2 h f NXNXNXNXNXNXNXNXNXNXNXNXNXNXNXNXNXNXNX",
"NXNXNXNXNXNXNXNXNXNXNXNXNXNXNXNXNXNXNXo O O * 3 t G a ~ ^ ) }  .&.$.*.2.5.6.e.r.i.p.a.f.f.f.d.a.p.i.r.e.6.5.2.%.$.|  .} ( ^ F F G i M 5 > : : NXNXNXNXNXNXNXNXNXNXNXNXNXNXNXNXNXNXNX",
"NXNXNXNXNXNXNXNXNXNXNXNXNXNXNXNXNXNXNX  . O = e d ~ ) }  .&.&.&. .` `  .&.*.5.7.u.p.d.d.f.f.f.f.p.u.e.5.*.&. .` `  .&.&.$.| } _ / G V 2 - $ - NXNXNXNXNXNXNXNXNXNXNXNXNXNXNXNXNXNXNX",
"NXNXNXNXNXNXNXNXNXNXNXNXNXNXNXNXNXNXNXNX  o * t F ` | %.2.2.2.$.` / F F ^ ` %.5.e.i.f.f.f.f.f.d.i.e.5.$.} ^ F F ^ ` $.2.2.2.*.| _ F i = $ # # NXNXNXNXNXNXNXNXNXNXNXNXNXNXNXNXNXNXNX",
"NXNXNXNXNXNXNXNXNXNXNXNXNXNXNXNXNXNXNX    o * i /  .2.6.e.7.4.%._ F t w i / } 2.e.u.p.f.f.f.d.p.u.e.*. .~ p r t F _ $.4.7.7.5.2. ./ i = O o o NXNXNXNXNXNXNXNXNXNXNXNXNXNXNXNXNXNXNX",
"NXNXNXNXNXNXNXNXNXNXNXNXNXNXNXNXNXNXNX.   o * p ^ $.5.e.i.u.6.%.` d 3 + w a ) %.5.t.i.p.p.d.p.i.t.4.%.` a q + 3 d ` 2.7.u.u.e.5.$.' i * o     NXNXNXNXNXNXNXNXNXNXNXNXNXNXNXNXNXNXNX",
"NXNXNXNXNXNXNXNXNXNXNXNXNXNXNXNXNXNXNX< O O & i ( $.5.u.p.i.t.2.` s q @ q d ) ..4.7.t.t.i.y.s.t.7.4.&.) y u @ q s ` 2.e.p.i.u.6.%.^ p O       NXNXNXNXNXNXNXNXNXNXNXNXNXNXNXNXNXNXNX",
"NXNXNXNXNXNXNXNXNXNXNXNXNXNXNXNXNXNX^ i < O * i ^ &.4.u.p.p.e.4.{ P 0 8 9 0 P ] @.,.,.j.j.y.8.8.<.>.[ P 0 8 8 u P { 2.t.p.p.u.6.$.' i O       NXNXNXNXNXNXNXNXNXNXNXNXNXNXNXNXNXNXNX",
"NXNXNXNXNXNXNXNXNXNXNXNXNXNXNXNX7.2.} F w + + t /  .4.e.i.i.t.>.{ P 0 9 9 H J R +.+.+.+.+.+.+.+.+.T R J H 9 9 H P [ ,.t.p.a.r.5.=.^ w .       NXNXNXNXNXNXNXNXNXNXNXNXNXNXNXNXNXNXNX",
"NXNXNXNXNXNXNXNXNXNXNXNXNXNXf.i.e.5.| ^ i < * e F ` 5.e.u.i.7.,.[ R H H H H K I I ! Q Q ! Q Q Q Y Y L J H H H J R +.8.t.p.i.r.4.| F w .       NXNXNXNXNXNXNXNXNXNXNXNXNXNXNXNXNXNXNX",
"NXNXNXNXNXNXNXNXNXNXNXNXNXf.d.p.t.5.$.( d 3 * w F ` *.6.u.t.t.8.+.[ R J K K K I I Y Y Y Y ! R R Y R I L K K K I [ >.8.y.i.r.e.5.| ~ r o       NXNXNXNXNXNXNXNXNXNXNXNXNXNXNXNXNXNXNX",
"NXNXNXNXNXNXNXNXNXNXNXNXNXp.a.i.p.i.5. .F w * 3 F ` *.6.e.i.i.e.8.@.@.{ ] ] ] ] @.{ { { { { { { { { ] ] ] ] ] @.@.8.7.u.i.u.6.4.| ^ i & o     NXNXNXNXNXNXNXNXNXNXNXNXNXNXNXNXNXNXNX",
"NXNXNXNXNXNXNXNXNXNXNXNXNXd.p.p.g.f.6.&.F r , 3 a ( %.5.e.i.r.r.q.q.0.+X0.9.9.9.o.0.9.9.o.+X+Xo.-.-.9.9.9.+X9.0.@Xq.q.s.r.e.5.>.$._ F p e < 7 NXNXNXNXNXNXNXNXNXNXNXNXNXNXNXNXNXNXNX",
"NXNXNXNXNXNXNXNXNXNXNXNXNXp.d.f.g.g.r.=.F r $ 7 p ^ &.,.e.y.a.a.%X$X$X=X=X=X=X=X#X#X#X#X#X#X#X#X#X#X=X=X=X=X=X$X$X%X%Xr.7.8.4.>.%. .) / F F F NXNXNXNXNXNXNXNXNXNXNXNXNXNXNXNXNXNXNX",
"NXNXNXNXNXNXNXNXNXNXNXNXNXd.p.g.*X*Xr.=.F x - , i P T #.,.y.a.&X1X,X,XwXwX0X0X0X0X0X>X>X>X>X>X0X0X>X0XwXwXwXwX,X-X:X$Xr.w.<.>.>.>.>.$. .} } ` NXNXNXNXNXNXNXNXNXNXNXNXNXNXNXNXNXNXNX",
"NXNXNXNXNXNXNXNXNXNXNXNXNXd.p.f.g.g.r.=.G c ; - i J U #.1.y.f.1X<XwXyXtXjXjXtXtXtXtXtXtXtXtXtXtXtXtXtXtXjXjXtXyXwX,X=X@Xw.@.+.+.<.8.3.2.*.2.*.NXNXNXNXNXNXNXNXNXNXNXNXNXNXNXNXNXNXNX",
"NXNXNXNXNXNXNXNXNXNXNXNXNXd.p.d.*Xf.r.=.G c ; f i s U #.,.y.*X<XrXuXkXkXmXmXmXmXmXkXkXkXlXxXkXkXkXmXmXmXmXmXmXjXyX0X=X#Xo.@.Q +.<.8.j.6.6.6.7.NXNXNXNXNXNXNXNXNXNXNXNXNXNXNXNXNXNXNX",
"NXNXNXNXNXNXNXNXNXNXNXNXNXp.d.i.a.r.w.| F M j M i P T :.8.f.1X<XrXkXlXnXnXnXnXnXnXnXnXnXnXnXnXnXnXnXnXnXnXnXnXkXpXwX;X+X@.] ! +.,.y.p.t.u.i.i.NXNXNXNXNXNXNXNXNXNXNXNXNXNXNXNXNXNXNX",
"NXNXNXNXNXNXNXNXNXNXNXNXNXd.d.i.r.w.*. .' G D G F &.*.6.a.&X<XrXiXlXnXnXnXnXnXnXnXnXnXnXnXnXnXnXnXnXnXnXnXnXnXnXkXwX;X+Xo.Y Y ! 1.h.d.p.a.d.f.NXNXNXNXNXNXNXNXNXNXNXNXNXNXNXNXNXNXNX",
"NXNXNXNXNXNXNXNXNXNXNXNXNXNXp.p.e.e.*.&.O.F G =.;.;.%X$X1X,XrXiXlXvXnXnXnXnXnXnXnXnXnXnXnXnXnXnXnXnXnXnXnXnXnXnXMXyX;X0.{ I L ! 1.h.h.h.f.f.f.NXNXNXNXNXNXNXNXNXNXNXNXNXNXNXNXNXNXNX",
"NXNXNXNXNXNXNXNXNXNXNXNXNXNXNXNXe.e.2.&.&.&.;.;.+X#X-X,X<XrXiXlXlXvXnXnXnXnXnXnXnXnXnXnXnXnXnXnXnXnXnXnXnXnXnXvXkXyX;X0.{ L L W 1.h.g.g.f.f.g.NXNXNXNXNXNXNXNXNXNXNXNXNXNXNXNXNXNXNX",
"NXNXNXNXNXNXNXNXNXNXNXNXNXNXNXNXNXe.,.%.%.%.5.r.&X1X,XrXuXiXlXvXvXnXnXnXnXnXnXnXnXnXnXnXnXnXnXnXnXnXnXnXnXnXmXmXjXwX=X0.R K L W #.h.g.f.f.*Xf.NXNXNXNXNXNXNXNXNXNXNXNXNXNXNXNXNXNXNX",
"NXNXNXNXNXNXNXNXNXNXNXNXNXNXNXNXNXNX,.<.<.,.e.&X<XrXrXiXlXmXvXvXnXnXnXnXnXnXnXnXnXnXnXnXnXnXnXnXnXnXnXnXnXnXnXmXjXyX=X0.] K L W 1.h.g.f.p.a.a.NXNXNXNXNXNXNXNXNXNXNXNXNXNXNXNXNXNXNX",
"NXNXNXNXNXNXNXNXNXNXNXNXNXNXNXNXNXNXNX1.1.1.i.1X<XrXiXlXvXnXnXnXnXnXnXnXnXnXnXnXnXnXnXnXnXnXnXnXnXnXnXnXnXnXnXvXjXwX-X+X{ I W ! 1.y.d.p.p.p.p.NXNXNXNXNXNXNXNXNXNXNXNXNXNXNXNXNXNXNX",
"NXNXNXNXNXNXNXNXNXNXNXNXNXNXNXNXNXNXNXNX1.y.i.&X<XrXlXlXvXvXnXnXnXnXbXbXbXbXbXmXbXbXbXbXbXbXbXbXbXbXbXnXnXbXbXmXjXqX>X#X+Xo.@.@.8.j.u.j.u.u.u.NXNXNXNXNXNXNXNXNXNXNXNXNXNXNXNXNXNXNX",
"NXNXNXNXNXNXNXNXNXNXNXNXNXNXNXNXNXNXNXNX#.,.e.&X<XrXkXvXnXnXnXnXnXcXcXzXzXgXxXgXzXzXzXzXzXzXzXxXzXzXzXcXzXcXgXxXMXqXqX;X=X#X@Xq.w.q.q.7.6.6.NXNXNXNXNXNXNXNXNXNXNXNXNXNXNXNXNXNXNXNX",
"NXNXNXNXNXNXNXNXNXNXNXNXNXNXNXNXNXNXNXNXW #.6.$X<XrXlXlXnXnXnXbXcXgXgXsXsXsXaXaXaXaXaXaXaXaXaXaXaXaXdXsXsXsXdXaXfXMXqXwX0X:X=X$X$X@Xw.3.>.>.NXNXNXNXNXNXNXNXNXNXNXNXNXNXNXNXNXNXNXNX",
"NXNXNXNXNXNXNXNXNXNXNXNXNXNXNXNXNXNXNXNXNXU %.+X,XyXkXvXnXnXnXbXgXhX7X6X6X2X4X6X6X6X6X6X6X6X6X6X6X6X6X6X6X6X6X7XsXfXMXjXuXrXeX,X-X+X-.| X.NXNXNXNXNXNXNXNXNXNXNXNXNXNXNXNXNXNXNXNXNX",
"NXNXNXNXNXNXNXNXNXNXNXNXNXNXNXNXNXNXNXNXNX0 ) OX>XeXkXvXnXnXnXbXgX7X4X X.X.X.X.X}.2X|.2X2X}.|.|.|. X X.X.X.X X5X8XhXgXmXlXlXiXrX>XoX+X^ 0 NXNXNXNXNXNXNXNXNXNXNXNXNXNXNXNXNXNXNXNXNX",
"NXNXNXNXNXNXNXNXNXNXNXNXNXNXNXNXNXNXNXNXNXNXD ;.oX>XjXvXnXnXbXcXsX4X X(.!.~.!.(.(.].].].[.[.[.].].].(.!.!.!.(. X4X7XzXbXbXvXlXjXwXoXOXD NXNXNXNXNXNXNXNXNXNXNXNXNXNXNXNXNXNXNXNXNXNX",
"NXNXNXNXNXNXNXNXNXNXNXNXNXNXNXNXNXNXNXNXNXNX; U.oXqXjXmXnXnXcXgX7X2X].Q.P.P.Q.Q.W.W.W.E.W.W.W.~.W.E.Q.P.P.P.E.].2X7XgXbXnXnXbXjXqXoXF.: NXNXNXNXNXNXNXNXNXNXNXNXNXNXNXNXNXNXNXNXNXNX",
"NXNXNXNXNXNXNXNXNXNXNXNXNXNXNXNXNXNXNXNXNXNX; S.OX9XfXjXcXcXzXsX4XXXR.L.K.K.L.P.Q.Q.W./.W./.W.W.W.Q.P.L.K.K.K._.}.8XhXcXcXcXcXMX9X3XS.: NXNXNXNXNXNXNXNXNXNXNXNXNXNXNXNXNXNXNXNXNXNX",
"NXNXNXNXNXNXNXNXNXNXNXNXNXNXNXNXNXNXNXNXNXNX; S.U.3X8XhXhXhXhX8X2X'.V.B.m.G.L.L.Q././.^./././.~.W.Q.P.K.m.m.G.H.'.2X7XhXgXgXhXaX9XU.S : NXNXNXNXNXNXNXNXNXNXNXNXNXNXNXNXNXNXNXNXNXNX",
"NXNXNXNXNXNXNXNXNXNXNXNXNXNXNXNXNXNXNXNXNXNX; c.U.3X3X8X7X7X6X4XXXI.M.b.n.m.G.L.W./.^.^.^.^.^.^.!.E.L.G.B.n.M.N.I.}.4X7X7X7X8X8X3XU.S.> NXNXNXNXNXNXNXNXNXNXNXNXNXNXNXNXNXNXNXNXNXNX",
"NXNXNXNXNXNXNXNXNXNXNXNXNXNXNXNXNXNXNXNXNXNXf c.I.'.}.|. X5X X}.'.D.x.Z k.n.G.T.~.^.^.).).).).).^.E.T.G.b.k.Z x.D.'.}.2X5X5X2X}.XXD.A.f NXNXNXNXNXNXNXNXNXNXNXNXNXNXNXNXNXNXNXNXNXNX",
"NXNXNXNXNXNXNXNXNXNXNXNXNXNXNXNXNXNXNXNXNXNXz c.Z.`.`.{.{.{.{.`.Z.c.A l N z.M.Y.E.!.).).).).).).^.T.Y.M.z.Z l A x.Z.`.[.{.{.{.`.`.Z.c.z NXNXNXNXNXNXNXNXNXNXNXNXNXNXNXNXNXNXNXNXNXNX",
"NXNXNXNXNXNXNXNXNXNXNXNXNXNXNXNXNXNXNXNXNXNXz C M.H.T.E.!.~.T.V.l.Z , X 2 C v.J.T.~.!.!.^.^.^.!.~.T.C.v.C 2 X 1 N M.V.T.E.!.~.T.V.l.C z NXNXNXNXNXNXNXNXNXNXNXNXNXNXNXNXNXNXNXNXNXNX",
"NXNXNXNXNXNXNXNXNXNXNXNXNXNXNXNXNXNXNXNXNXNXNXZ l.V.L.T.Q.L.H.M.k.l   X < m v.N.Y.T.~.~.!.!.~.~.T.Y.C.v.m @ X   l k.B.G.L.L.Q.L.B.b.Z NXNXNXNXNXNXNXNXNXNXNXNXNXNXNXNXNXNXNXNXNXNXNX",
"NXNXNXNXNXNXNXNXNXNXNXNXNXNXNXNXNXNXNXNXNXNXNXNXl.B.G.K.H.G.B.b.k.j   X @ m x.N.J.Y.R.T.R.E.R.Y.Y.J.N.S m @ @   g k.n.B.H.L.K.G.B.l.NXNXNXNXNXNXNXNXNXNXNXNXNXNXNXNXNXNXNXNXNXNXNXNX",
"NXNXNXNXNXNXNXNXNXNXNXNXNXNXNXNXNXNXNXNXNXNXNXNXNXM.B.B.B.B.b.l.N g X X < m x.v.N.C.J.J.J.J.J.J.C.N.v.S n < X X g N l.n.B.B.B.B.M.NXNXNXNXNXNXNXNXNXNXNXNXNXNXNXNXNXNXNXNXNXNXNXNXNX",
"NXNXNXNXNXNXNXNXNXNXNXNXNXNXNXNXNXNXNXNXNXNXNXNXNXNXb.b.b.l.k.Z N l 1 * 4 n A x.v.v.v.N.N.N.N.N.N.x.x.S n 4 * = l N k.z.l.b.b.b.NXNXNXNXNXNXNXNXNXNXNXNXNXNXNXNXNXNXNXNXNXNXNXNXNXNX",
"NXNXNXNXNXNXNXNXNXNXNXNXNXNXNXNXNXNXNXNXNXNXNXNXNXNXNXC C C C m m k z 5 z b m A A S S x.x.x.S S S S A m n x 5 z c m B A C C C NXNXNXNXNXNXNXNXNXNXNXNXNXNXNXNXNXNXNXNXNXNXNXNXNXNXNX",
"NXNXNXNXNXNXNXNXNXNXNXNXNXNXNXNXNXNXNXNXNXNXNXNXNXNXNXNXNX4 4 z 5 z z x z 5 z 5 4 4 4 4 7 4 5 5 4 4 5 5 5 x z z z z 5 4 4 NXNXNXNXNXNXNXNXNXNXNXNXNXNXNXNXNXNXNXNXNXNXNXNXNXNXNXNXNX",
"NXNXNXNXNXNXNXNXNXNXNXNXNXNXNXNXNXNXNXNXNXNXNXNXNXNXNXNXNXNXNXNXNXNXNXNXNXNXNXNXNXNXNXNXNXNXNXNXNXNXNXNXNXNXNXNXNXNXNXNXNXNXNXNXNXNXNXNXNXNXNXNXNXNXNXNXNXNXNXNXNXNXNXNXNXNXNXNXNXNX",
"NXNXNXNXNXNXNXNXNXNXNXNXNXNXNXNXNXNXNXNXNXNXNXNXNXNXNXNXNXNXNXNXNXNXNXNXNXNXNXNXNXNXNXNXNXNXNXNXNXNXNXNXNXNXNXNXNXNXNXNXNXNXNXNXNXNXNXNXNXNXNXNXNXNXNXNXNXNXNXNXNXNXNXNXNXNXNXNXNXNX",
"NXNXNXNXNXNXNXNXNXNXNXNXNXNXNXNXNXNXNXNXNXNXNXNXNXNXNXNXNXNXNXNXNXNXNXNXNXNXNXNXNXNXNXNXNXNXNXNXNXNXNXNXNXNXNXNXNXNXNXNXNXNXNXNXNXNXNXNXNXNXNXNXNXNXNXNXNXNXNXNXNXNXNXNXNXNXNXNXNXNX",
"NXNXNXNXNXNXNXNXNXNXNXNXNXNXNXNXNXNXNXNXNXNXNXNXNXNXNXNXNXNXNXNXNXNXNXNXNXNXNXNXNXNXNXNXNXNXNXNXNXNXNXNXNXNXNXNXNXNXNXNXNXNXNXNXNXNXNXNXNXNXNXNXNXNXNXNXNXNXNXNXNXNXNXNXNXNXNXNXNXNX",
"NXNXNXNXNXNXNXNXNXNXNXNXNXNXNXNXNXNXNXNXNXNXNXNXNXNXNXNXNXNXNXNXNXNXNXNXNXNXNXNXNXNXNXNXNXNXNXNXNXNXNXNXNXNXNXNXNXNXNXNXNXNXNXNXNXNXNXNXNXNXNXNXNXNXNXNXNXNXNXNXNXNXNXNXNXNXNXNXNXNX",
"NXNXNXNXNXNXNXNXNXNXNXNXNXNXNXNXNXNXNXNXNXNXNXNXNXNXNXNXNXNXNXNXNXNXNXNXNXNXNXNXNXNXNXNXNXNXNXNXNXNXNXNXNXNXNXNXNXNXNXNXNXNXNXNXNXNXNXNXNXNXNXNXNXNXNXNXNXNXNXNXNXNXNXNXNXNXNXNXNXNX",
"NXNXNXNXNXNXNXNXNXNXNXNXNXNXNXNXNXNXNXNXNXNXNXNXNXNXNXNXNXNXNXNXNXNXNXNXNXNXNXNXNXNXNXNXNXNXNXNXNXNXNXNXNXNXNXNXNXNXNXNXNXNXNXNXNXNXNXNXNXNXNXNXNXNXNXNXNXNXNXNXNXNXNXNXNXNXNXNXNXNX",
"NXNXNXNXNXNXNXNXNXNXNXNXNXNXNXNXNXNXNXNXNXNXNXNXNXNXNXNXNXNXNXNXNXNXNXNXNXNXNXNXNXNXNXNXNXNXNXNXNXNXNXNXNXNXNXNXNXNXNXNXNXNXNXNXNXNXNXNXNXNXNXNXNXNXNXNXNXNXNXNXNXNXNXNXNXNXNXNXNXNX",
"NXNXNXNXNXNXNXNXNXNXNXNXNXNXNXNXNXNXNXNXNXNXNXNXNXNXNXNXNXNXNXNXNXNXNXNXNXNXNXNXNXNXNXNXNXNXNXNXNXNXNXNXNXNXNXNXNXNXNXNXNXNXNXNXNXNXNXNXNXNXNXNXNXNXNXNXNXNXNXNXNXNXNXNXNXNXNXNXNXNX",
"NXNXNXNXNXNXNXNXNXNXNXNXNXNXNXNXNXNXNXNXNXNXNXNXNXNXNXNXNXNXNXNXNXNXNXNXNXNXNXNXNXNXNXNXNXNXNXNXNXNXNXNXNXNXNXNXNXNXNXNXNXNXNXNXNXNXNXNXNXNXNXNXNXNXNXNXNXNXNXNXNXNXNXNXNXNXNXNXNXNX",
"NXNXNXNXNXNXNXNXNXNXNXNXNXNXNXNXNXNXNXNXNXNXNXNXNXNXNXNXNXNXNXNXNXNXNXNXNXNXNXNXNXNXNXNXNXNXNXNXNXNXNXNXNXNXNXNXNXNXNXNXNXNXNXNXNXNXNXNXNXNXNXNXNXNXNXNXNXNXNXNXNXNXNXNXNXNXNXNXNXNX",
"NXNXNXNXNXNXNXNXNXNXNXNXNXNXNXNXNXNXNXNXNXNXNXNXNXNXNXNXNXNXNXNXNXNXNXNXNXNXNXNXNXNXNXNXNXNXNXNXNXNXNXNXNXNXNXNXNXNXNXNXNXNXNXNXNXNXNXNXNXNXNXNXNXNXNXNXNXNXNXNXNXNXNXNXNXNXNXNXNXNX",
"NXNXNXNXNXNXNXNXNXNXNXNXNXNXNXNXNXNXNXNXNXNXNXNXNXNXNXNXNXNXNXNXNXNXNXNXNXNXNXNXNXNXNXNXNXNXNXNXNXNXNXNXNXNXNXNXNXNXNXNXNXNXNXNXNXNXNXNXNXNXNXNXNXNXNXNXNXNXNXNXNXNXNXNXNXNXNXNXNXNX",
"NXNXNXNXNXNXNXNXNXNXNXNXNXNXNXNXNXNXNXNXNXNXNXNXNXNXNXNXNXNXNXNXNXNXNXNXNXNXNXNXNXNXNXNXNXNXNXNXNXNXNXNXNXNXNXNXNXNXNXNXNXNXNXNXNXNXNXNXNXNXNXNXNXNXNXNXNXNXNXNXNXNXNXNXNXNXNXNXNXNX",
"NXNXNXNXNXNXNXNXNXNXNXNXNXNXNXNXNXNXNXNXNXNXNXNXNXNXNXNXNXNXNXNXNXNXNXNXNXNXNXNXNXNXNXNXNXNXNXNXNXNXNXNXNXNXNXNXNXNXNXNXNXNXNXNXNXNXNXNXNXNXNXNXNXNXNXNXNXNXNXNXNXNXNXNXNXNXNXNXNXNX",
"NXNXNXNXNXNXNXNXNXNXNXNXNXNXNXNXNXNXNXNXNXNXNXNXNXNXNXNXNXNXNXNXNXNXNXNXNXNXNXNXNXNXNXNXNXNXNXNXNXNXNXNXNXNXNXNXNXNXNXNXNXNXNXNXNXNXNXNXNXNXNXNXNXNXNXNXNXNXNXNXNXNXNXNXNXNXNXNXNXNX",
"NXNXNXNXNXNXNXNXNXNXNXNXNXNXNXNXNXNXNXNXNXNXNXNXNXNXNXNXNXNXNXNXNXNXNXNXNXNXNXNXNXNXNXNXNXNXNXNXNXNXNXNXNXNXNXNXNXNXNXNXNXNXNXNXNXNXNXNXNXNXNXNXNXNXNXNXNXNXNXNXNXNXNXNXNXNXNXNXNXNX",
"NXNXNXNXNXNXNXNXNXNXNXNXNXNXNXNXNXNXNXNXNXNXNXNXNXNXNXNXNXNXNXNXNXNXNXNXNXNXNXNXNXNXNXNXNXNXNXNXNXNXNXNXNXNXNXNXNXNXNXNXNXNXNXNXNXNXNXNXNXNXNXNXNXNXNXNXNXNXNXNXNXNXNXNXNXNXNXNXNXNX",
"NXNXNXNXNXNXNXNXNXNXNXNXNXNXNXNXNXNXNXNXNXNXNXNXNXNXNXNXNXNXNXNXNXNXNXNXNXNXNXNXNXNXNXNXNXNXNXNXNXNXNXNXNXNXNXNXNXNXNXNXNXNXNXNXNXNXNXNXNXNXNXNXNXNXNXNXNXNXNXNXNXNXNXNXNXNXNXNXNXNX",
"NXNXNXNXNXNXNXNXNXNXNXNXNXNXNXNXNXNXNXNXNXNXNXNXNXNXNXNXNXNXNXNXNXNXNXNXNXNXNXNXNXNXNXNXNXNXNXNXNXNXNXNXNXNXNXNXNXNXNXNXNXNXNXNXNXNXNXNXNXNXNXNXNXNXNXNXNXNXNXNXNXNXNXNXNXNXNXNXNXNX",
"NXNXNXNXNXNXNXNXNXNXNXNXNXNXNXNXNXNXNXNXNXNXNXNXNXNXNXNXNXNXNXNXNXNXNXNXNXNXNXNXNXNXNXNXNXNXNXNXNXNXNXNXNXNXNXNXNXNXNXNXNXNXNXNXNXNXNXNXNXNXNXNXNXNXNXNXNXNXNXNXNXNXNXNXNXNXNXNXNXNX"
};
