/* XPM */
static char *result[] = {
/* columns rows colors chars-per-pixel */
"90 105 203 2 ",
"   c #000001",
".  c #00000E",
"X  c #1A0000",
"o  c #000014",
"O  c #00001C",
"+  c #09081F",
"@  c #150E1D",
"#  c #16101F",
"$  c #280500",
"%  c #280800",
"&  c #280F0E",
"*  c #280F10",
"=  c #000122",
"-  c #030923",
";  c #0B0D23",
":  c #00012A",
">  c #000C2D",
",  c #110E22",
"<  c #09122C",
"1  c #151223",
"2  c #191425",
"3  c #1E1826",
"4  c #1A1628",
"5  c #1C1A2C",
"6  c #14172D",
"7  c #000033",
"8  c #00003C",
"9  c #00093F",
"0  c #141C35",
"q  c #1D1E33",
"w  c #031A38",
"e  c #251A26",
"r  c #291B24",
"t  c #231C2A",
"y  c #291721",
"u  c #231F30",
"i  c #2A1F30",
"p  c #1F2035",
"a  c #1B223A",
"s  c #172138",
"d  c #2E2229",
"f  c #33252A",
"g  c #3D2B2C",
"h  c #37282D",
"j  c #222236",
"k  c #292032",
"l  c #24253C",
"z  c #2A263B",
"x  c #26283F",
"c  c #2A293F",
"v  c #332C3A",
"b  c #45322F",
"n  c #4B352D",
"m  c #4A3530",
"M  c #4E3932",
"N  c #463537",
"B  c #553D34",
"V  c #5A3E34",
"C  c #5C4236",
"Z  c #5D4338",
"A  c #564039",
"S  c #614639",
"D  c #65483A",
"F  c #6C4E3D",
"G  c #674436",
"H  c #71513E",
"J  c #000242",
"K  c #001443",
"L  c #001C43",
"P  c #012343",
"I  c #0C2543",
"U  c #142543",
"Y  c #1C2644",
"T  c #142843",
"R  c #1C2944",
"E  c #262B44",
"W  c #2A2C45",
"Q  c #262D48",
"!  c #292E49",
"~  c #332F45",
"^  c #2B314D",
"/  c #26324F",
"(  c #363045",
")  c #253859",
"_  c #243E63",
"`  c #493946",
"'  c #573C46",
"]  c #15436C",
"[  c #154C7B",
"{  c #154570",
"}  c #23456D",
"|  c #244065",
" . c #234770",
".. c #234C78",
"X. c #56444A",
"o. c #644D4C",
"O. c #694346",
"+. c #784A47",
"@. c #6B514C",
"#. c #755541",
"$. c #7C5943",
"%. c #765646",
"&. c #7B5D52",
"*. c #755951",
"=. c #695150",
"-. c #825E45",
";. c #895449",
":. c #985949",
">. c #844F47",
",. c #A65E49",
"<. c #876148",
"1. c #8C654A",
"2. c #876047",
"3. c #936A4D",
"4. c #97664B",
"5. c #9C704F",
"6. c #896654",
"7. c #9A6D51",
"8. c #936C58",
"9. c #9D7252",
"0. c #9B735B",
"q. c #97705A",
"w. c #AD634A",
"e. c #A2634B",
"r. c #B2654B",
"t. c #B56A4D",
"y. c #A27553",
"u. c #A77956",
"i. c #AA7A57",
"p. c #A5795D",
"a. c #AE7E59",
"s. c #AE7352",
"d. c #B07F5A",
"f. c #B97353",
"g. c #AA6B52",
"h. c #AA7D61",
"j. c #C47A56",
"k. c #B3825B",
"l. c #B9865D",
"z. c #BD895F",
"x. c #B48462",
"c. c #BC8A63",
"v. c #B88763",
"b. c #AE8061",
"n. c #C6865E",
"m. c #D3855E",
"M. c #C28D64",
"N. c #CB8C62",
"B. c #D98B62",
"V. c #C69064",
"C. c #CB9366",
"Z. c #CD9569",
"A. c #C69169",
"S. c #D19769",
"D. c #D49A6B",
"F. c #DA9E6D",
"G. c #D79266",
"H. c #D49B71",
"J. c #E59A6B",
"K. c #DDA16F",
"L. c #DEA271",
"P. c #E4A672",
"I. c #EBA371",
"U. c #E7A974",
"Y. c #EBAB75",
"T. c #EFAE78",
"R. c #F1AC76",
"E. c #F1AF78",
"W. c #F7A975",
"Q. c #F4B17A",
"!. c #FAB67D",
"~. c #FDB87E",
"^. c #1A5E95",
"/. c #125589",
"(. c #215686",
"). c #0F639C",
"_. c #116199",
"`. c #1F639C",
"'. c #1769A6",
"]. c #0879BE",
"[. c #0B73B5",
"{. c #1972B3",
"}. c #1877BB",
"|. c #0E6BAA",
" X c #087BC3",
".X c #197CC4",
"XX c #167EC7",
"oX c #0881CB",
"OX c #1582CC",
"+X c #018CDB",
"@X c #0A88D4",
"#X c #058FE1",
"$X c #118FE1",
"%X c #0492E4",
"&X c #0096EA",
"*X c #0398ED",
"=X c #0F94E7",
"-X c #1190E2",
";X c #019CF5",
":X c #039FF8",
">X c #01A1FC",
",X c #FFBB80",
"<X c None",
/* pixels */
"<X<X<X<X<X<X<X<X<X<X<X<X<X<X<X<X<X<X<X<X<X<X<X<X<X<X<X<X<X<X<X<X<X<X<X<X<X<X<X<X<X<X<X<X<X<X<X<X<X<X<X<X<X<X<X<X<X<X<X<X<X<X<X<X<X<X<X<X<X<X<X<X<X<X<X<X<X<X<X<X<X<X<X<X<X<X<X<X<X<X",
"<X<X<X<X<X<X<X<X<X<X<X<X<X<X<X<X<X<X<X<X<X<X<X<X<X<X<X<X<X<X<X<X<X<X<X<X<X<X<X<X<X<X<X<X<X<X<X<X<X<X<X<X<X<X<X<X<X<X<X<X<X<X<X<X<X<X<X<X<X<X<X<X<X<X<X<X<X<X<X<X<X<X<X<X<X<X<X<X<X<X",
"<X<X<X<X<X<X<X<X<X<X<X<X<X<X<X<X<X<X<X<X<X<X<X<X<X<X<X<X<X<X<X<X<X<X<X<X<X<X<X<X<X<X<X<X<X<X<X<X<X<X<X<X<X<X<X<X<X<X<X<X<X<X<X<X<X<X<X<X<X<X<X<X<X<X<X<X<X<X<X<X<X<X<X<X<X<X<X<X<X<X",
"<X<X<X<X<X<X<X<X<X<X<X<X<X<X<X<X<X<X<X<X<X<X<X<X<X<X<X<X<X<X<X<X<X<X<X<X<X<X<X<X<X<X<X<X<X<X<X<X<X<X<X<X<X<X<X<X<X<X<X<X<X<X<X<X<X<X<X<X<X<X<X<X<X<X<X<X<X<X<X<X<X<X<X<X<X<X<X<X<X<X",
"<X<X<X<X<X<X<X<X<X<X<X<X<X<X<X<X<X<X<X<X<X<X<X<X<X<X<X<X<X<X<X<X<X<X<X<X<X<X<X<X<X<X<X<X<X<X<X<X<X<X<X<X<X<X<X<X<X<X<X<X<X<X<X<X<X<X<X<X<X<X<X<X<X<X<X<X<X<X<X<X<X<X<X<X<X<X<X<X<X<X",
"<X<X<X<X<X<X<X<X<X<X<X<X<X<X<X<X<X<X<X<X<X<X<X<X<X<X<X<X<X<X<X<X<X<X<X<X<X<X<X<X<X<X<X<X<X<X<X<X<X<X<X<X<X<X<X<X<X<X<X<X<X<X<X<X<X<X<X<X<X<X<X<X<X<X<X<X<X<X<X<X<X<X<X<X<X<X<X<X<X<X",
"<X<X<X<X<X<X<X<X<X<X<X<X<X<X<X<X<X<X<X<X<X<X<X<X<X<X<X<X<X<X<X<X<XX X X X X <X<X<X<X<X<X<X<X<X<X<X<X<X<XX X X X X <X<X<X<X<X<X<X<X<X<X<X<X<X<X<X<X<X<X<X<X<X<X<X<X<X<X<X<X<X<X<X<X<X",
"<X<X<X<X<X<X<X<X<X<X<X<X<X<X<X<X<X<X<X<X<X<X<X<X<X<X<X<X<X<X<X<XX X X X X X <X<X<X<X<X<X<X<X<X<X<X<X<X<XX X X X X X <X<X<X<X<X<X<X<X<X<X<X<X<X<X<X<X<X<X<X<X<X<X<X<X<X<X<X<X<X<X<X<X",
"<X<X<X<X<X<X<X<X<X<X<X<X<X<X<X<X<X<X<X<X<X<X<X<X<X<X<X<X<X<X<X<Xs q s a s s T <X<X<X<X<X<X<X<X<X<X<X<XT s s s s s s <X<X<X<X<X<X<X<X<X<X<X<X<X<X<X<X<X<X<X<X<X<X<X<X<X<X<X<X<X<X<X<X",
"<X<X<X<X<X<X<X<X<X<X<X<X<X<X<X<X<X<X<X<X<X<X<X<X<X<X<X<X<X<X<X<X] ] { [ [ [ /.).<X<X<X<X<X<X<X<X<X<X_./.[ [ [ { ] ] <X<X<X<X<X<X<X<X<X<X<X<X<X<X<X<X<X<X<X<X<X<X<X<X<X<X<X<X<X<X<X<X",
"<X<X<X<X<X<X<X<X<X<X<X<X<X<X<X<X<X<X<X<X<X<X<X<X<X<X<X<X<X<X<X<X_.^.).|.|.|.[. X+X<X<X<X<X<X<X<X<X+X X[.|.|.'._._.^.<X<X<X<X<X<X<X<X<X<X<X<X<X<X<X<X<X<X<X<X<X<X<X<X<X<X<X<X<X<X<X<X",
"<X<X<X<X<X<X<X<X<X<X<X<X<X<X<X<X<X<X<X<X<X<X<X<X<X<X<X<X<X<X<X<X X X X X@XoX@X+X%X;X>X>X>X>X>X>X;X&X+X+XoX@XoX].]. X<X<X<X<X<X<X<X<X<X<X<X<X<X<X<X<X<X<X<X<X<X<X<X<X<X<X<X<X<X<X<X<X",
"<X<X<X<X<X<X<X<X<X<X<X<X<X<X<X<X<X<X<X<X<X<X<X<X<X<X<X<X<X<X<X<X+X+X+X+X&X&X%X&X*X;X;X:X:X;X:X:X*X*X&X%X%X&X%X+X+X%X<X<X<X<X<X<X<X<X<X<X<X<X<X<X<X<X<X<X<X<X<X<X<X<X<X<X<X<X<X<X<X<X",
"<X<X<X<X<X<X<X<X<X<X<X<X<X<X<X<X<X<X<X<X<X<X<X<X<X<X<X<X<X<X<X<X&X&X&X&X:X>X:X*X&X&X*X*X*X&X&X*X&X&X&X:X>X>X&X&X&X&X<X<X<X<X<X<X<X<X<X<X<X<X<X<X<X<X<X<X<X<X<X<X<X<X<X<X<X<X<X<X<X<X",
"<X<X<X<X<X<X<X<X<X<X<X<X<X<X<X<X<X<X<X<X<X<X<X<X<X<X<X<X<X<X<X<X%X%X%X%X:X>X:X:X;X*X*X*X*X*X*X*X*X;X;X:X>X:X%X*X%X+X<X<X<X<X<X<X<X<X<X<X<X<X<X<X<X<X<X<X<X<X<X<X<X<X<X<X<X<X<X<X<X<X",
"<X<X<X<X<X<X<X<X<X<X<X<X<X<X<X<X<X<X<X<X<X<X<X<X<X<X<X<X<X<X<X{..XOX@X$X-X=X-X-X$X$X$X$X-X-X-X-X$X-X-X-X-X-X$X@XOXXX{.<X<X<X<X<X<X<X<X<X<X<X<X<X<X<X<X<X<X<X<X<X<X<X<X<X<X<X<X<X<X<X",
"<X<X<X<X<X<X<X<X<X<X<X<X<X<X<X<X<X<X<X<X<X<X<X<X<X<X<X<X<X) ..^.`.{.}.}.XXOXXX.X.X}..X.X.X.X.X.X.X.X.X.X.X.X.X{.{.`.^..._ <X<X<X<X<X<X<X<X<X<X<X<X<X<X<X<X<X<X<X<X<X<X<X<X<X<X<X<X<X",
"<X<X<X<X<X<X<X<X<X<X<X<X<X<X<X<X<X<X<X<X<X<X<X<X<X<X<Xe z / _  .(.(.^.^.`.`.`.`.`.`.`.`.`.`.`.`.`.`.`.`.'.`.`.^.(.(. ._ / z e <X<X<X<X<X<X<X<X<X<X<X<X<X<X<X<X<X<X<X<X<X<X<X<X<X<X<X",
"<X<X<X<X<X<X<X<X<X<X<X<X<X<X<X<X<X<X<X<X<X<X<X<X<X<Xl x E Q / ) _ _ } } .. .}  .} } } } } } } } } }  . .} } } } | ) ) ^ E E z x <X<X<X<X<X<X<X<X<X<X<X<X<X<X<X<X<X<X<X<X<X<X<X<X<X<X",
"<X<X<X<X<X<X<X<X<X<X<X<X<X<X<X<X<X<X<X<X<X<X<X<X<X<XE E E ! ! ! E W x z z z l z x z l l z l z z x l z z z l l x E W ! ! ! E E E <X<X<X<X<X<X<X<X<X<X<X<X<X<X<X<X<X<X<X<X<X<X<X<X<X<X",
"<X<X<X<X<X<X<X<X<X<X<X<X<X<X<X<X<X<X<X<X<X<X<X<X<X! ! Q W ^ W z i y * $ $ $ $ $ % % % % % % % % % % $ $ $ $ $ * y i z ~ ! ! E Q Q <X<X<X<X<X<X<X<X<X<X<X<X<X<X<X<X<X<X<X<X<X<X<X<X<X",
"<X<X<X<X<X<X<X<X<X<X<X<X<X<X<X<X<X<X<X<X<X<X<X<XE ! E Q ! ! W z i y * $ $ $ $ $ % % % % $ $ % % % % $ $ $ $ $ * y i z W ! ! E Q Q E <X<X<X<X<X<X<X<X<X<X<X<X<X<X<X<X<X<X<X<X<X<X<X<X",
"<X<X<X<X<X<X<X<X<X<X<X<X<X<X<X<X<X<X<X<X<X<XE E E E Q E E ! W z z i r r y e y e e e e r e e e e e e e y e y e t i z E E ! Q Q E Q E E E <X<X<X<X<X<X<X<X<X<X<X<X<X<X<X<X<X<X<X<X<X<X",
"<X<X<X<X<X<X<X<X<X<X<X<X<X<X<X<X<X<X<X<XE E E E E E E E E E E E E x E z l l z l E l z z l l z z z x z l z l z z x E E E W E E E E W E E E E <X<X<X<X<X<X<X<X<X<X<X<X<X<X<X<X<X<X<X<X",
"<X<X<X<X<X<X<X<X<X<X<X<X<X<X<X<X<X<X<XE E E E E ! ! E E E E E E E E E E E E E E E E E E E E E E E E E E E E E E E E E E E E E E ! ! Q E E E E <X<X<X<X<X<X<X<X<X<X<X<X<X<X<X<X<X<X<X",
"<X<X<X<X<X<X<X<X<X<X<X<X<X<X<X<X<X<X<XE E E Q ^ ^ ! ! ! E E E E E E E E E E E E E E E E E E E E E E E E E E E E E E E E E E E E ^ ^ ! ! E E E <X<X<X<X<X<X<X<X<X<X<X<X<X<X<X<X<X<X<X",
"<X<X<X<X<X<X<X<X<X<X<X<X<X<X<X<X<X<X<XW E E ^ ^ ^ ! ! E E E E E E E E E E E E E E E E E E E E E E E E E E E E E E E E E E E E ! ^ ^ ^ ! E E E <X<X<X<X<X<X<X<X<X<X<X<X<X<X<X<X<X<X<X",
"<X<X<X<X<X<X<X<X<X<X<X<X<X<X<X<X<X<X<XE E E ^ ^ ^ ^ ! E E E E E E E E E x E E E E E E E E E E E E E E E E E E E E E E E E E E ! ^ ^ ^ ! E ! E <X<X<X<X<X<X<X<X<X<X<X<X<X<X<X<X<X<X<X",
"<X<X<X<X<X<X<X<X<X<X<X<X<X<X<X<X<X<X<XE E Q ! ^ ^ ^ ! E E E E E E E E E E E E E E E E E E E E E E E E E E E E E E E E E E E Q ! ^ ^ ^ ! E Q E <X<X<X<X<X<X<X<X<X<X<X<X<X<X<X<X<X<X<X",
"<X<X<X<X<X<X<X<X<X<X<X<X<X<X<X<X<X<X<XE E W E ! ^ ^ ! E E E E E E E E E E E E E E E E E E z E E E E E E E E E E E E E E E E E W ! ! ! ! Q W E <X<X<X<X<X<X<X<X<X<X<X<X<X<X<X<X<X<X<X",
"<X<X<X<X<X<X<X<X<X<X<X<X<X<X<X<X<X<X<XE E E E Q ! ! ! E E E E E E E E E E E E E E E E E E E E E E E E E E E E E E E E E E E E ! ! ! E E E E E <X<X<X<X<X<X<X<X<X<X<X<X<X<X<X<X<X<X<X",
"<X<X<X<X<X<X<X<X<X<X<X<X<X<X<X<X<X<X<XE E x x E Q E E E E E E E E E E E E E E E E E E E E E E E E E E E E E E E E E E E E E E E E Q E x x E E <X<X<X<X<X<X<X<X<X<X<X<X<X<X<X<X<X<X<X",
"<X<X<X<X<X<X<X<X<X<X<X<X<X<X<X<X<X<X<Xl q E u E E E E E E W ! E E E E E E E E E E E E E E E x E E E E E E E E E E E E W Q E E E E E l E q l l <X<X<X<X<X<X<X<X<X<X<X<X<X<X<X<X<X<X<X",
"<X<X<X<X<X<X<X<X<X<X<X<X<X<X<X<X<X<X<Xq q q q l x x E E E Q E E E E E E E E E E E E E E E E E E E E E E x E E E E Q W W Q E E x E E u q u 0 q <X<X<X<X<X<X<X<X<X<X<X<X<X<X<X<X<X<X<X",
"<X<X<X<X<X<X<X<X<X<X<X<X<X<X<X<X<X<X<X5 5 5 5 u a l x E E Q ! E E E E E E E E E E E E E E E E E E E E E E E E E E W Q Q Q E E x l q u 4 6 5 4 <X<X<X<X<X<X<X<X<X<X<X<X<X<X<X<X<X<X<X",
"<X<X<X<X<X<X<X<X<X<X<X<X<X<X<X<X<X<X<X1 1 1 2 q p l l x E ! ! Q E E E E E E E E E E E E E E E E E E E E E E E E E Q W Q Q E x x E u q 4 4 1 1 <X<X<X<X<X<X<X<X<X<X<X<X<X<X<X<X<X<X<X",
"<X<X<X<X<X<X<X<X<X<X<X<X<X<X<X<X<X<X<X@ @ @ 2 3 5 j l x x E E E E E E E E E E E E E E E E E E E E E E E E E E E E E Q W E x x l u q 4 1 @ @ @ <X<X<X<X<X<X<X<X<X<X<X<X<X<X<X<X<X<X<X",
"<X<X<X<X<X<X<X<X<X<X<X<X<X<X<X<X<X<X<X@ @ @ 1 2 5 p j a a x x E E E E E E E W E E E Q E E Q E E E E E E Q E E E E E x E x a p p q q 4 1 @ @ @ <X<X<X<X<X<X<X<X<X<X<X<X<X<X<X<X<X<X<X",
"<X<X<X<X<X<X<X<X<X<X<X<X<X<X<X<X<X<X<X@ @ @ 1 2 5 q 5 p j l x l E E E W E E E W E W E E E E E E E E Q E W E E E E x x a p p p p q 4 2 2 @ @ @ <X<X<X<X<X<X<X<X<X<X<X<X<X<X<X<X<X<X<X",
"<X<X<X<X<X<X<X<X<X<X<X<X<X<X<X<X<X<X<X1 1 1 2 4 4 4 5 5 q p a a l E E E ! ! Q E E Q W ! E ! E Q Q W E ! Q ! ! E E a l p p q 5 5 4 3 2 1 2 1 1 <X<X<X<X<X<X<X<X<X<X<X<X<X<X<X<X<X<X<X",
"<X<X<X<X<X<X<X<X<X<X<X<X<X<X<X<X<X<X<X2 2 2 2 4 4 4 1 4 4 3 p p a x E E ! W Q W Q E E Q Q E Q E E E E W W W E E x l p p 5 3 4 4 4 4 4 2 2 2 2 <X<X<X<X<X<X<X<X<X<X<X<X<X<X<X<X<X<X<X",
"<X<X<X<X<X<X<X<X<X<X<X<X<X<X<X<X<X<X<X2 1 2 1 4 4 4 1 # 1 4 5 k l l E E Q Q W E E E E E E E E E E E E E E E E E x a p 5 2 1 1 # 2 2 4 1 2 1 4 <X<X<X<X<X<X<X<X<X<X<X<X<X<X<X<X<X<X<X",
"<X<X<X<X<X<X<X<X<X<X<X<X<X<X<X<X<X<X<X4 4 4 2 4 2 , + - = - < 6 q a a E E x E x x x x x x x x x E E E E E E E a p s 6 < - - + + , 1 4 1 2 2 2 <X<X<X<X<X<X<X<X<X<X<X<X<X<X<X<X<X<X<X",
"<X<X<X<X<X<X<X<X<X<X<X<X<X<X<X<X<X<X<X3 2 4 1 1 : = o o o O = : > 0 a l l l l l a l l a l l a l l l l l l x x s s < : = O o o o = > , 2 4 3 3 <X<X<X<X<X<X<X<X<X<X<X<X<X<X<X<X<X<X<X",
"<X<X<X<X<X<X<X<X<X<X<X<X<X<X<X<X<X<X<Xe e 3 2 ; = = o o o o O = : > 0 j j l p p j p p p p p s p q p j j j j j 0 > : = O o . o o O = ; 2 3 e t <X<X<X<X<X<X<X<X<X<X<X<X<X<X<X<X<X<X<X",
"<X<X<X<X<X<X<X<X<X<X<X<X<X<X<X<X<X<X<Xt e 3 2 - = O o o . o o O = : < 5 k k k q u q 5 5 5 5 5 5 5 5 q k u k 5 6 : = O o o . o o O = - 4 3 e t <X<X<X<X<X<X<X<X<X<X<X<X<X<X<X<X<X<X<X",
"<X<X<X<X<X<X<X<X<X<X<X<X<X<X<X<X<X<X<X3 3 4 2 , > = = O O O O O = - 1 4 2 5 3 3 4 6 4 6 6 4 4 4 4 4 2 3 3 3 4 1 - = = O O O O = = > , 2 4 3 3 <X<X<X<X<X<X<X<X<X<X<X<X<X<X<X<X<X<X<X",
"<X<X<X<X<X<X<X<X<X<X<X<X<X<X<X<X<X<X<X- - ; 1 t r h b b b b b g f d 2 1 + + ; ; # # # # # 1 1 1 1 1 , ; - - 1 4 d f g b b m b g h d t 1 ; - - <X<X<X<X<X<X<X<X<X<X<X<X<X<X<X<X<X<X<X",
"<X<X<X<X<X<X<X<X<X<X<X<X<X<X<X<X<X<X<Xo O O = t b Z F #.$.H H D B g 3 o o o o O O O O O O O O O o O O o o o = 3 g B D H $.$.H F Z b t = O O o <X<X<X<X<X<X<X<X<X<X<X<X<X<X<X<X<X<X<X",
"<X<X<X<X<X<X<X<X<X<X<X<X<X<X<X<X<X<X<X    o o 3 B %.<.7.9.y.5.2.H M 1 o .   . . o o o o o o o + o o . .     o 1 n H 2.3.9.y.5.1.%.B t o o     <X<X<X<X<X<X<X<X<X<X<X<X<X<X<X<X<X<X<X",
"<X<X<X<X<X<X<X<X<X<X<X<X<X<X<X<X<X<X<X      o t D 1.u.k.z.z.k.9.-.C 1 .         . . . o o . . . . .           # C -.9.k.z.z.k.u.<.D t o       <X<X<X<X<X<X<X<X<X<X<X<X<X<X<X<X<X<X<X",
"<X<X<X<X<X<X<X<X<X<X<X<X<X<X<X<X<X<X<X      o g %.9.l.C.S.D.V.k.3.F d .         o o o o o o . . o o         o d F 3.k.V.D.D.C.l.9.#.g o       <X<X<X<X<X<X<X<X<X<X<X<X<X<X<X<X<X<X<X",
"<X<X<X<X<X<X<X<X<X<X<X<X<X<X<X<X<X<X<X    o 4 S 1.k.C.F.P.P.D.M.u.-.B - o o o o - 2 2 2 # # 3 # 4 - O o o o = A $.u.n.F.P.P.F.C.k.1.S 4 o     <X<X<X<X<X<X<X<X<X<X<X<X<X<X<X<X<X<X<X",
"<X<X<X<X<X<X<X<X<X<X<X<X<X<X<X<X<X<X<Xf f m S <.u.M.D.P.Y.Y.P.Z.k.5.$.Z n n A A Z D D Z S S S S S Z C M m M S $.5.l.Z.L.U.Y.P.D.M.u.<.S m f f <X<X<X<X<X<X<X<X<X<X<X<X<X<X<X<X<X<X<X",
"<X<X<X<X<X<X<X<X<X<X<X<X<X<X<X<X<X<X<X$.$.-.1.i.c.S.L.U.Y.Y.P.D.V.k.y.3.2.2.<.<.1.<.1.1.2.2.1.1.1.1.1.2.<.<.3.y.k.V.F.P.Y.Y.U.K.S.c.u.1.-.$.$.<X<X<X<X<X<X<X<X<X<X<X<X<X<X<X<X<X<X<X",
"<X<X<X<X<X<X<X<X<X<X<X<X<X<X<X<X<X<X<Xi.i.i.k.M.D.F.P.P.Y.Y.P.K.D.C.z.l.k.k.k.k.k.k.k.k.k.k.k.k.k.d.k.d.k.k.l.c.V.D.K.U.U.U.P.P.K.D.M.d.i.u.i.<X<X<X<X<X<X<X<X<X<X<X<X<X<X<X<X<X<X<X",
"<X<X<X<X<X<X<X<X<X<X<X<X<X<X<X<X<X<X<XV.V.V.V.K.U.U.U.P.U.U.U.K.K.K.D.D.C.D.C.C.C.C.V.V.V.V.V.V.C.C.C.S.S.S.S.K.K.K.P.P.U.P.U.U.U.P.F.V.V.V.V.<X<X<X<X<X<X<X<X<X<X<X<X<X<X<X<X<X<X<X",
"<X<X<X<X<X<X<X<X<X<X<X<X<X<X<X<X<X<X<XK.F.K.L.T.Q.Y.Y.U.P.U.P.P.P.P.P.P.P.K.P.K.K.K.K.K.K.K.K.K.K.K.K.K.L.L.L.L.P.P.U.P.P.P.P.Y.T.Q.Y.L.K.K.K.<X<X<X<X<X<X<X<X<X<X<X<X<X<X<X<X<X<X<X",
"<X<X<X<X<X<X<X<X<X<X<X<X<X<X<X<X<X<X<XY.Y.Y.Y.Q.!.Q.T.Y.P.P.P.P.P.P.P.P.P.P.P.P.U.Y.U.Y.Y.Y.Y.Y.Y.U.U.U.U.L.K.L.P.K.P.P.P.P.U.T.Q.~.Q.U.Y.Y.Y.<X<X<X<X<X<X<X<X<X<X<X<X<X<X<X<X<X<X<X",
"<X<X<X<X<X<X<X<X<X<X<X<X<X<X<X<X<X<X<XY.Y.R.Y.~.~.~.Q.Y.Y.U.P.K.K.D.D.F.K.K.P.Y.T.E.E.E.Q.Q.Q.Q.T.T.U.P.K.K.K.K.K.K.K.K.P.U.Y.Q.!.,X,XY.Y.Y.Y.<X<X<X<X<X<X<X<X<X<X<X<X<X<X<X<X<X<X<X",
"<X<X<X<X<X<X<X<X<X<X<X<X<X<X<X<X<X<X<XY.Y.Y.Y.~.,X,X~.Q.Q.T.U.K.S.Z.V.c.n.Z.K.P.T.Q.~.~.~.~.~.~.Q.T.U.K.S.V.z.V.V.Z.D.K.P.U.Y.Q.~.~.!.Y.Y.Y.Y.<X<X<X<X<X<X<X<X<X<X<X<X<X<X<X<X<X<X<X",
"<X<X<X<X<X<X<X<X<X<X<X<X<X<X<X<X<X<X<XY.U.U.U.~.,X,X,X~.Q.Q.U.K.V.k.9.9.u.l.Z.K.T.Q.,X,X,X,X,X,X!.T.K.C.k.b.9.9.k.z.C.K.P.Y.T.Q.!.~.Q.Y.U.Y.U.<X<X<X<X<X<X<X<X<X<X<X<X<X<X<X<X<X<X<X",
"<X<X<X<X<X<X<X<X<X<X<X<X<X<X<X<X<X<X<XU.U.P.U.Q.,X~.~.~.Q.Q.P.V.k.1.#.F $.5.l.S.U.Q.~.,X,X,X,X~.Q.U.K.k.9.$.F H 1.b.c.K.U.Y.T.Q.!.~.Q.P.P.U.U.<X<X<X<X<X<X<X<X<X<X<X<X<X<X<X<X<X<X<X",
"<X<X<X<X<X<X<X<X<X<X<X<X<X<X<X<X<X<X<XP.P.P.P.Q.!.~.Q.Q.Y.K.Z.k.3.F g 5 m #.5.z.S.P.Y.T.T.T.T.Y.K.S.z.5.H n t g D 1.k.Z.K.Y.T.Q.!.~.Q.P.P.P.U.<X<X<X<X<X<X<X<X<X<X<X<X<X<X<X<X<X<X<X",
"<X<X<X<X<X<X<X<X<X<X<X<X<X<X<X<X<X<X<XU.U.P.U.Q.R.Y.Y.Y.Y.K.C.a.<.B O o ; D 3.l.Z.P.Y.Y.Q.Q.Y.Y.P.Z.k.3.D - o o V 2.d.V.D.P.Y.Q.!.!.Q.P.P.P.P.<X<X<X<X<X<X<X<X<X<X<X<X<X<X<X<X<X<X<X",
"<X<X<X<X<X<X<X<X<X<X<X<X<X<X<X<X<X<X<XU.U.U.U.R.U.Y.Y.Y.U.K.V.u.$.g .   o Z 3.l.D.P.Y.Q.Q.Q.Q.Y.P.D.l.3.A o   o V :.s.n.G.F.U.R.W.Q.Q.U.P.U.U.<X<X<X<X<X<X<X<X<X<X<X<X<X<X<X<X<X<X<X",
"<X<X<X<X<X<X<X<X<X<X<X<X<X<X<X<X<X<X<XY.Y.Y.Y.Y.Y.Y.R.Q.<X<X<X<X<X<X<X<X<X<X<X<X<X<X<X<X<X<X<X<X<X<X<X<X<X<X<X<XG 4.s.j.n.G.J.I.R.Q.Q.P.P.U.U.<X<X<X<X<X<X<X<X<X<X<X<X<X<X<X<X<X<X<X",
"<X<X<X<X<X<X<X<X<X<X<X<X<X<X<X<X<X<X<XR.Y.Y.Y.Y.Y.Y.Y.<X<X<X<X<X<X<X<X<X<X<X<X<X<X<X<X<X<X<X<X<X<X<X<X<X<X<X<X<X<Xe.t.f.j.n.G.I.R.R.R.P.U.U.Y.<X<X<X<X<X<X<X<X<X<X<X<X<X<X<X<X<X<X<X",
"<X<X<X<X<X<X<X<X<X<X<X<X<X<X<X<X<X<X<XY.Y.Y.U.Y.U.U.<X<X<X<X<X<X<X<X<X<X<X<X<X<X<X<X<X<X<X<X<X<X<X<X<X<X<X<X<X<X<X<Xt.j.j.j.B.J.I.R.Q.L.U.Y.U.<X<X<X<X<X<X<X<X<X<X<X<X<X<X<X<X<X<X<X",
"<X<X<X<X<X<X<X<X<X<X<X<X<X<X<X<X<X<X<XL.L.L.L.L.P.L.<X<X<X<X<X<X<X<X<X<X<X<X<X<X<X<X<X<X<X<X<X<X<X<X<X<X<X<X<X<X<X<Xr.r.r.j.j.J.I.R.Y.U.U.U.Y.<X<X<X<X<X<X<X<X<X<X<X<X<X<X<X<X<X<X<X",
"<X<X<X<X<X<X<X<X<X<X<X<X<X<X<X<X<X<XD.D.Z.Z.Z.Z.Z.D.<X<X<X<X<X<X<X<X<X<X<X<X<X<X<X<X<X<X<X<X<X<X<X<X<X<X<X<X<X<X<X<X,.r.r.j.j.J.I.W.Q.U.Y.Y.Y.<X<X<X<X<X<X<X<X<X<X<X<X<X<X<X<X<X<X<X",
"<X<X<X<X<X<X<X<X<X<X<X<X<X<X<X<X<XD.Z.c.v.x.x.x.c.M.Z.K.<X<X<X<X<X<X<X<X<X<X<X<X<X<X<X<X<X<X<X<X<X<X<X<X<X<X<X<X<X,.,.,.r.j.B.J.W.!.,XY.U.Y.Y.<X<X<X<X<X<X<X<X<X<X<X<X<X<X<X<X<X<X<X",
"<X<X<X<X<X<X<X<X<X<X<X<X<X<X<XU.L.H.M.b.p.q.8.0.h.x.Z.F.U.Y.Y.<X<X<X<X<X<X<X<X<X<X<X<X<X<X<X<X<X<X<X<X<X<X<X<X<X<X:.,.w.t.j.B.J.W.!.,XQ.U.U.Y.<X<X<X<X<X<X<X<X<X<X<X<X<X<X<X<X<X<X<X",
"<X<X<X<X<X<X<X<X<X<X<X<X<XR.Y.Y.L.H.c.h.6.*.=.&.8.h.A.D.U.U.U.F.A.p.<X<X<X<X<X<X<X<X<X<X<X<X<X<X<X<X<X<X<X<X<X<X>.:.,.w.t.j.B.I.W.!.~.!.U.Y.Y.<X<X<X<X<X<X<X<X<X<X<X<X<X<X<X<X<X<X<X",
"<X<X<X<X<X<X<X<X<X<X<X<X<XQ.Y.Y.P.L.A.h.&.X.~ ` &.p.A.L.P.P.L.D.c.0.*.P <X<X<X8 I Q E E Q E x Q E R L <X<X<XU ' +.;.:.w.t.j.B.G.I.W.R.U.U.Y.Y.<X<X<X<X<X<X<X<X<X<X<X<X<X<X<X<X<X<X<X",
"<X<X<X<X<X<X<X<X<X<X<X<X<XQ.Y.Y.,XE.H.h.*.E 8 I o.q.c.H.L.L.L.Z.v.q.=.P 8 8 8 J I E E W E Q Q Q E R P L K K T ' +.>.:.e.r.t.f.N.G.G.L.P.U.Y.<X<X<X<X<X<X<X<X<X<X<X<X<X<X<X<X<X<X<X<X",
"<X<X<X<X<X<X<X<X<X<X<X<X<XT.Y.Q.,X,XH.h.&.W 7 7 ` <.i.M.Z.H.Z.M.b.6.o.I 8 8 8 K T E E E Q x Q x E R P L L L Y ` O.+.>.:.,.w.f.v.N.S.F.P.Y.<X<X<X<X<X<X<X<X<X<X<X<X<X<X<X<X<X<X<X<X<X",
"<X<X<X<X<X<X<X<X<X<X<X<X<XT.Y.Q.,X,XL.x.-.` 7 7 v @.8.b.c.c.c.b.q.&.X.T 8 8 J L Y E E E x Q x Q E E T P P P E ` ' O.+.>.:.:.g.f.M.C.F.<X<X<X<X<X<X<X<X<X<X<X<X<X<X<X<X<X<X<X<X<X<X<X",
"<X<X<X<X<X<X<X<X<X<X<X<X<XT.Y.Q.,X,XL.c.6.A > : > N @.6.q.p.0.8.&.o.` R L K w U E E E E W E Q x E E Y I P I R ( ` ' O.O.+.>.6.7.<X<X<X<X<X<X<X<X<X<X<X<X<X<X<X<X<X<X<X<X<X<X<X<X<X<X",
"<X<X<X<X<X<X<X<X<X<X<X<X<XQ.T.Y.E.T.F.v.1.Z 4 = = : v X.o.=.=.X.X.` ~ E Y U Y Y E E E E x Q x Q E E E R R E E W ( ` ` ` ` ' <X<X<X<X<X<X<X<X<X<X<X<X<X<X<X<X<X<X<X<X<X<X<X<X<X<X<X<X",
"<X<X<X<X<X<X<X<X<X<X<X<X<XQ.T.Y.L.F.M.a.1.G # o o = : 8 8 <X<X<XL I E E W W W E E E E E x Q x Q E c E E E W E E R T I P P <X<X<X<X<X<X<X<X<X<X<X<X<X<X<X<X<X<X<X<X<X<X<X<X<X<X<X<X<X",
"<X<X<X<X<X<X<X<X<X<X<X<X<X<XQ.Y.L.Z.l.7.H B # o o O = : 7 <X<X<X<XK U E W ~ ~ W E E E E Q x Q x E E E ~ ~ E E R P P P L K <X<X<X<X<X<X<X<X<X<X<X<X<X<X<X<X<X<X<X<X<X<X<X<X<X<X<X<X<X",
"<X<X<X<X<X<X<X<X<X<X<X<X<X<X<XT.F.V.a.1.F n 1 o O = : 7 8 8 <X<XJ L T E ~ ~ ! W W x E E Q Q Q x E E W W W W E R T P P L L <X<X<X<X<X<X<X<X<X<X<X<X<X<X<X<X<X<X<X<X<X<X<X<X<X<X<X<X<X",
"<X<X<X<X<X<X<X<X<X<X<X<X<X<X<X<X<Xl.5.-.C b 1 = = : 7 7 8 J J K L I Y E W W E E E E E E x Q x Q E E E E W c E Q R T P P P L <X<X<X<X<X<X<X<X<X<X<X<X<X<X<X<X<X<X<X<X<X<X<X<X<X<X<X<X",
"<X<X<X<X<X<X<X<X<X<X<X<X<X<X<X<X<X<X<XS b d 4 - : > w w I I U Y R Q Q E E E E E E E E E E E Q x E E E E E E E E Q R R R R U <X<X<X<X<X<X<X<X<X<X<X<X<X<X<X<X<X<X<X<X<X<X<X<X<X<X<X<X",
"<X<X<X<X<X<X<X<X<X<X<X<X<X<X<X<X<X<X<Xr e # 1 4 4 q q x E E Q ! E E E E E E E E E E E E E E Q x E E E E E E E E Q E E E E E <X<X<X<X<X<X<X<X<X<X<X<X<X<X<X<X<X<X<X<X<X<X<X<X<X<X<X<X",
"<X<X<X<X<X<X<X<X<X<X<X<X<X<X<X<X<X<X<Xo o - 4 3 k q j l <X<X<X<X<XW E E E E E E E E E E E E x Q E E E E E E E E E E E E <X<X<X<X<X<X<X<X<X<X<X<X<X<X<X<X<X<X<X<X<X<X<X<X<X<X<X<X<X<X",
"<X<X<X<X<X<X<X<X<X<X<X<X<X<X<X<X<X<X<X. O - 2 3 3 k j <X<X<X<X<X<X<XE E E c E E E E x E x W Q x E E E E E E E E E <X<X<X<X<X<X<X<X<X<X<X<X<X<X<X<X<X<X<X<X<X<X<X<X<X<X<X<X<X<X<X<X<X",
"<X<X<X<X<X<X<X<X<X<X<X<X<X<X<X<X<X<X<Xo O - 2 3 3 5 k <X<X<X<X<X<X<XE E E E E E E E E E E E E E E E E E E E E E <X<X<X<X<X<X<X<X<X<X<X<X<X<X<X<X<X<X<X<X<X<X<X<X<X<X<X<X<X<X<X<X<X<X",
"<X<X<X<X<X<X<X<X<X<X<X<X<X<X<X<X<X<X<X= - 1 2 2 3 3 <X<X<X<X<X<X<X<XE E E E E E E E E E E E E E E E E c E E E E <X<X<X<X<X<X<X<X<X<X<X<X<X<X<X<X<X<X<X<X<X<X<X<X<X<X<X<X<X<X<X<X<X<X",
"<X<X<X<X<X<X<X<X<X<X<X<X<X<X<X<X<X<X<X2 1 2 4 2 4 2 <X<X<X<X<X<X<X<XE E E E E E E E E x E E E E E E E E E E E E <X<X<X<X<X<X<X<X<X<X<X<X<X<X<X<X<X<X<X<X<X<X<X<X<X<X<X<X<X<X<X<X<X<X",
"<X<X<X<X<X<X<X<X<X<X<X<X<X<X<X<X<X<X<X1 4 2 1 4 1 2 <X<X<X<X<X<X<X<X<XE E E E E E E E E E E E E E E E E E E E <X<X<X<X<X<X<X<X<X<X<X<X<X<X<X<X<X<X<X<X<X<X<X<X<X<X<X<X<X<X<X<X<X<X<X",
"<X<X<X<X<X<X<X<X<X<X<X<X<X<X<X<X<X<X<X2 4 1 2 1 2 2 <X<X<X<X<X<X<X<X<X<X<X<X<X<X<X<X<X<X<X<X<X<X<X<X<X<X<X<X<X<X<X<X<X<X<X<X<X<X<X<X<X<X<X<X<X<X<X<X<X<X<X<X<X<X<X<X<X<X<X<X<X<X<X<X",
"<X<X<X<X<X<X<X<X<X<X<X<X<X<X<X<X<X<X<X2 4 4 4 1 # 1 <X<X<X<X<X<X<X<X<X<X<X<X<X<X<X<X<X<X<X<X<X<X<X<X<X<X<X<X<X<X<X<X<X<X<X<X<X<X<X<X<X<X<X<X<X<X<X<X<X<X<X<X<X<X<X<X<X<X<X<X<X<X<X<X",
"<X<X<X<X<X<X<X<X<X<X<X<X<X<X<X<X<X<X<X4 2 2 2 2 2 1 <X<X<X<X<X<X<X<X<X<X<X<X<X<X<X<X<X<X<X<X<X<X<X<X<X<X<X<X<X<X<X<X<X<X<X<X<X<X<X<X<X<X<X<X<X<X<X<X<X<X<X<X<X<X<X<X<X<X<X<X<X<X<X<X",
"<X<X<X<X<X<X<X<X<X<X<X<X<X<X<X<X<X<X<X1 2 2 2 2 2 2 <X<X<X<X<X<X<X<X<X<X<X<X<X<X<X<X<X<X<X<X<X<X<X<X<X<X<X<X<X<X<X<X<X<X<X<X<X<X<X<X<X<X<X<X<X<X<X<X<X<X<X<X<X<X<X<X<X<X<X<X<X<X<X<X",
"<X<X<X<X<X<X<X<X<X<X<X<X<X<X<X<X<X<X<X1 2 2 2 1 4 2 <X<X<X<X<X<X<X<X<X<X<X<X<X<X<X<X<X<X<X<X<X<X<X<X<X<X<X<X<X<X<X<X<X<X<X<X<X<X<X<X<X<X<X<X<X<X<X<X<X<X<X<X<X<X<X<X<X<X<X<X<X<X<X<X",
"<X<X<X<X<X<X<X<X<X<X<X<X<X<X<X<X<X<X<X4 1 2 4 1 2 1 <X<X<X<X<X<X<X<X<X<X<X<X<X<X<X<X<X<X<X<X<X<X<X<X<X<X<X<X<X<X<X<X<X<X<X<X<X<X<X<X<X<X<X<X<X<X<X<X<X<X<X<X<X<X<X<X<X<X<X<X<X<X<X<X",
"<X<X<X<X<X<X<X<X<X<X<X<X<X<X<X<X<X<X<X<X2 4 2 4 2 <X<X<X<X<X<X<X<X<X<X<X<X<X<X<X<X<X<X<X<X<X<X<X<X<X<X<X<X<X<X<X<X<X<X<X<X<X<X<X<X<X<X<X<X<X<X<X<X<X<X<X<X<X<X<X<X<X<X<X<X<X<X<X<X<X",
"<X<X<X<X<X<X<X<X<X<X<X<X<X<X<X<X<X<X<X<X<X<X<X<X<X<X<X<X<X<X<X<X<X<X<X<X<X<X<X<X<X<X<X<X<X<X<X<X<X<X<X<X<X<X<X<X<X<X<X<X<X<X<X<X<X<X<X<X<X<X<X<X<X<X<X<X<X<X<X<X<X<X<X<X<X<X<X<X<X<X",
"<X<X<X<X<X<X<X<X<X<X<X<X<X<X<X<X<X<X<X<X<X<X<X<X<X<X<X<X<X<X<X<X<X<X<X<X<X<X<X<X<X<X<X<X<X<X<X<X<X<X<X<X<X<X<X<X<X<X<X<X<X<X<X<X<X<X<X<X<X<X<X<X<X<X<X<X<X<X<X<X<X<X<X<X<X<X<X<X<X<X",
"<X<X<X<X<X<X<X<X<X<X<X<X<X<X<X<X<X<X<X<X<X<X<X<X<X<X<X<X<X<X<X<X<X<X<X<X<X<X<X<X<X<X<X<X<X<X<X<X<X<X<X<X<X<X<X<X<X<X<X<X<X<X<X<X<X<X<X<X<X<X<X<X<X<X<X<X<X<X<X<X<X<X<X<X<X<X<X<X<X<X",
"<X<X<X<X<X<X<X<X<X<X<X<X<X<X<X<X<X<X<X<X<X<X<X<X<X<X<X<X<X<X<X<X<X<X<X<X<X<X<X<X<X<X<X<X<X<X<X<X<X<X<X<X<X<X<X<X<X<X<X<X<X<X<X<X<X<X<X<X<X<X<X<X<X<X<X<X<X<X<X<X<X<X<X<X<X<X<X<X<X<X",
"<X<X<X<X<X<X<X<X<X<X<X<X<X<X<X<X<X<X<X<X<X<X<X<X<X<X<X<X<X<X<X<X<X<X<X<X<X<X<X<X<X<X<X<X<X<X<X<X<X<X<X<X<X<X<X<X<X<X<X<X<X<X<X<X<X<X<X<X<X<X<X<X<X<X<X<X<X<X<X<X<X<X<X<X<X<X<X<X<X<X",
"<X<X<X<X<X<X<X<X<X<X<X<X<X<X<X<X<X<X<X<X<X<X<X<X<X<X<X<X<X<X<X<X<X<X<X<X<X<X<X<X<X<X<X<X<X<X<X<X<X<X<X<X<X<X<X<X<X<X<X<X<X<X<X<X<X<X<X<X<X<X<X<X<X<X<X<X<X<X<X<X<X<X<X<X<X<X<X<X<X<X"
};
