/* XPM */
static char *result[] = {
/* columns rows colors chars-per-pixel */
"90 105 232 2 ",
"   c #000001",
".  c #00000D",
"X  c #190000",
"o  c #000015",
"O  c #00001C",
"+  c #06091F",
"@  c #160C1C",
"#  c #16111F",
"$  c #000123",
"%  c #020A23",
"&  c #00002C",
"*  c #0B0D25",
"=  c #150721",
"-  c #09132A",
";  c #151223",
":  c #191425",
">  c #1E1926",
",  c #1A1628",
"<  c #1B192C",
"1  c #141528",
"2  c #000032",
"3  c #00043A",
"4  c #000B37",
"5  c #00143A",
"6  c #001A3C",
"7  c #061836",
"8  c #1D1E33",
"9  c #151C35",
"0  c #2B0423",
"q  c #201B2A",
"w  c #271C26",
"e  c #28152C",
"r  c #1F2136",
"t  c #1B223A",
"y  c #152134",
"u  c #2B2028",
"i  c #2F2426",
"p  c #37292B",
"a  c #3E312E",
"s  c #222133",
"d  c #22253B",
"f  c #292739",
"g  c #352E3E",
"h  c #4E0B00",
"j  c #572A01",
"k  c #713000",
"l  c #421726",
"z  c #442D2C",
"x  c #48252A",
"c  c #582A2D",
"v  c #49342E",
"b  c #4B3631",
"n  c #4D3831",
"m  c #463539",
"M  c #533B33",
"N  c #583733",
"B  c #573C2E",
"V  c #693B33",
"C  c #594237",
"Z  c #664A3B",
"A  c #6A4C3B",
"S  c #674337",
"D  c #78483A",
"F  c #74533D",
"G  c #6D513E",
"H  c #7A4200",
"J  c #001D45",
"K  c #001543",
"L  c #000541",
"P  c #012445",
"I  c #022748",
"U  c #152542",
"Y  c #1D2641",
"T  c #192A47",
"R  c #202741",
"E  c #262B44",
"W  c #292D46",
"Q  c #292E49",
"!  c #262D48",
"~  c #322F45",
"^  c #2B314C",
"/  c #293047",
"(  c #3C3544",
")  c #003E6D",
"_  c #003569",
"`  c #00336C",
"'  c #533B47",
"]  c #4E3E44",
"[  c #074271",
"{  c #5A4347",
"}  c #694945",
"|  c #745541",
" . c #7A5741",
".. c #7C5A43",
"X. c #7E534D",
"o. c #704B49",
"O. c #63607A",
"+. c #924D08",
"@. c #B25619",
"#. c #AD5302",
"$. c #834B3B",
"%. c #89563F",
"&. c #96543B",
"*. c #815328",
"=. c #AC5724",
"-. c #B45925",
";. c #A95A36",
":. c #B25D36",
">. c #B86439",
",. c #B36B32",
"<. c #B26318",
"1. c #C4703B",
"2. c #825D44",
"3. c #885748",
"4. c #955541",
"5. c #995B47",
"6. c #864F48",
"7. c #A35E45",
"8. c #8B654A",
"9. c #886349",
"0. c #946B4E",
"q. c #9A644A",
"w. c #996951",
"e. c #9C7151",
"r. c #946C50",
"t. c #A56249",
"y. c #AA664B",
"u. c #AC674A",
"i. c #B36444",
"p. c #B2654A",
"a. c #B56B4D",
"s. c #B96D4E",
"d. c #A96E52",
"f. c #B66E50",
"g. c #B86F50",
"h. c #A37553",
"j. c #A67955",
"k. c #AA7B56",
"l. c #AC7D59",
"z. c #A97755",
"x. c #BC7352",
"c. c #B97957",
"v. c #B17A4D",
"b. c #C5754A",
"n. c #C27554",
"m. c #C47956",
"M. c #C37E59",
"N. c #C87B58",
"B. c #CC7954",
"V. c #C57F63",
"C. c #B5845C",
"Z. c #BA845D",
"A. c #BC895F",
"S. c #AE815C",
"D. c #BE8B61",
"F. c #BF8760",
"G. c #CC855D",
"H. c #C6875C",
"J. c #D4835D",
"K. c #D7885B",
"L. c #D78C55",
"P. c #C28D62",
"I. c #CC8B61",
"U. c #CB876D",
"Y. c #D48D63",
"T. c #DB8B62",
"R. c #CB9366",
"E. c #CD9668",
"W. c #C99366",
"Q. c #D49366",
"!. c #D59B6B",
"~. c #DB9C6C",
"^. c #D69466",
"/. c #C68B76",
"(. c #CE8F79",
"). c #E38D64",
"_. c #E59669",
"`. c #E5996A",
"'. c #DDA16E",
"]. c #DFA371",
"[. c #E3A16E",
"{. c #E8A06F",
"}. c #E3A572",
"|. c #E7A974",
" X c #EBAC76",
".X c #EEAF78",
"XX c #E9A672",
"oX c #F5AB76",
"OX c #F2B17A",
"+X c #FEB77E",
"@X c #EEB079",
"#X c #004887",
"$X c #005192",
"%X c #00559A",
"&X c #004F97",
"*X c #0057A2",
"=X c #0061B2",
"-X c #076EB6",
";X c #126099",
":X c #5776A5",
">X c #0072CB",
",X c #006FC9",
"<X c #917781",
"1X c #0384DC",
"2X c #0085E3",
"3X c #009BF3",
"4X c #0296EB",
"5X c #66B4FE",
"6X c #65ABF1",
"7X c #5F90CC",
"8X c #AE8784",
"9X c #9D99AF",
"0X c #CD9785",
"qX c #D8AA9A",
"wX c #D5B2AA",
"eX c #E1B1A0",
"rX c #E9C7BA",
"tX c #9CB4DF",
"yX c #98C9FE",
"uX c #BCD5FB",
"iX c #BEE0FF",
"pX c #D5CEDA",
"aX c #EFD7CE",
"sX c #F9E4DA",
"dX c #C2DDFF",
"fX c #D2EBFE",
"gX c #FEF4ED",
"hX c #E5F5FF",
"jX c #FFFFFE",
"kX c #FAFCFA",
"lX c #F8EBE9",
"zX c None",
/* pixels */
"zXzXzXzXzXzXzXzXzXzXzXzXzXzXzXzXzXzXzXzXzXzXzXzXzXzXE E E W W W ! ! E E E E E E E E E E E E E E E E E E E E E E E W Q Q ! E E E zXzXzXzXzXzXzXzXzXzXzXzXzXzXzXzXzXzXzXzXzXzXzXzXzXzX",
"zXzXzXzXzXzXzXzXzXzXzXzXzXzXzXzXzXzXzXzXzXzXzXzXzXzXE E E ! Q ^ W W E E E E E E E E E E E E E E E E E E E E E E ! W ^ Q ! E E E zXzXzXzXzXzXzXzXzXzXzXzXzXzXzXzXzXzXzXzXzXzXzXzXzXzX",
"zXzXzXzXzXzXzXzXzXzXzXzXzXzXzXzXzXzXzXzXzXzXzXzXzXzXE E E W Q ^ ! W E E E E E E E E E E E E d E E E E E E E E E W W W ^ W E ! E zXzXzXzXzXzXzXzXzXzXzXzXzXzXzXzXzXzXzXzXzXzXzXzXzXzX",
"zXzXzXzXzXzXzXzXzXzXzXzXzXzXzXzXzXzXzXzXzXzXzXzXzXzXE E ! W ! W W ! E E E E E E E E E E E E E E E E E E E E E E E W W W W E E E zXzXzXzXzXzXzXzXzXzXzXzXzXzXzXzXzXzXzXzXzXzXzXzXzXzX",
"zXzXzXzXzXzXzXzXzXzXzXzXzXzXzXzXzXzXzXzXzXzXzXzXzXE E E E E W W W E E E E E E E E E E E E E E E E E E E E E d W E W W W E E E E E zXzXzXzXzXzXzXzXzXzXzXzXzXzXzXzXzXzXzXzXzXzXzXzXzX",
"zXzXzXzXzXzXzXzXzXzXzXzXzXzXzXzXzXzXzXzXzXzXzXzXE E E E E E W W W E E E R W E E E E E E f E E E E E E ! E E E E ! W ! W E E E E E E zXzXzXzXzXzXzXzXzXzXzXzXzXzXzXzXzXzXzXzXzXzXzXzX",
"zXzXzXzXzXzXzXzXzXzXzXzXzXzXzXzXzXzXzXzXzXzXE E E E E E E W ! W W E E E E E E E E E E E E E E E E E E d E E E E E E W W ! E E E E E W ! zXzXzXzXzXzXzXzXzXzXzXzXzXzXzXzXzXzXzXzXzXzX",
"zXzXzXzXzXzXzXzXzXzXzXzXzXzXzXzXzXzXzXzXE E E ! E E E E E E E E E E E R E E E E E E E E E E E E E E E E E E E E E E E E E E E ! E ! W W W zXzXzXzXzXzXzXzXzXzXzXzXzXzXzXzXzXzXzXzXzX",
"zXzXzXzXzXzXzXzXzXzXzXzXzXzXzXzXzXzXzXzX! E E E E E E E E E E E E E E E E E E E E E E E E E E E E E E E E E E E E E E E E E E E W ! W E ! ! zXzXzXzXzXzXzXzXzXzXzXzXzXzXzXzXzXzXzXzX",
"zXzXzXzXzXzXzXzXzXzXzXzXzXzXzXzXzXzXzXE E E ! ^ Q W W W E E E E E E E E E E E E E E E E E E E E E E E E E E E E E E E E E E E W Q Q W ! W R E zXzXzXzXzXzXzXzXzXzXzXzXzXzXzXzXzXzXzX",
"zXzXzXzXzXzXzXzXzXzXzXzXzXzXzXzXzXzXzXE E E W ^ ^ ^ W W E E E E E E E E E E E E E E E E E E E E E E E E E E E E E E E E E E ! W W Q W W R R d d zXzXzXzXzXzXzXzXzXzXzXzXzXzXzXzXzXzX",
"zXzXzXzXzXzXzXzXzXzXzXzXzXzXzXzXzXzXzX! E ! W ^ ^ ^ W E E E E E E E E E E E E E E E E E E E E E E E ! E E E E E E E ! E E E E W W W E E s d s r < zXzXzXzXzXzXzXzXzXzXzXzXzXzXzXzXzX",
"zXzXzXzXzXzXzXzXzXzXzXzXzXzXzXzXzXzXzX! ! E ^ ^ ^ ^ ^ ! W E E E E E E E E E E E E R E E E E E W E E W E W E E E W E W ! E E E E E R d s r 8 < < < 1 zXzXzXzXzXzXzXzXzXzXzXzXzXzXzXzX",
"zXzXzXzXzXzXzXzXzXzXzXzXzXzXzXzXzXzXzXW W E Q ^ ^ ^ ! E R W E E E E E E E E E E E E E E E E E W W ! W E ! W W ! ! ! W W ! W E d d d d 8 < < < < , : : ; zXzXzXzXzXzXzXzXzXzXzXzXzXzX",
"zXzXzXzXzXzXzXzXzXzXzXzXzXzXzXzXzXzXzXE E W W Q Q Q Q E R W W R R E E E E f E E E E E E E E E E E E ! W E E W E W E W ! W E E d d r < < : : : : : : : 1 : zXzXzXzXzXzXzXzXzXzXzXzXzX",
"zXzXzXzXzXzXzXzXzXzXzXzXzXzXzXzXzXzXzXE E E E Q Q Q ! ! E E E E E E E E E E E E E E E E E E E E E E E E E E E E E E W E ! E d d s < < : ; ; : : : : : : : zXzXzXzXzXzXzXzXzXzXzXzXzX",
"zXzXzXzXzXzXzXzXzXzXzXzXzXzXzXzXzXzXzXE d E E E W W E E E E E E E E E E E E W ! E E E R E E Y Y Y Y t R R R E E d E E E f E d t r < : ; # # , , q , : : , zXzXzXzXzXzXzXzXzXzXzXzXzX",
"zXzXzXzXzXzXzXzXzXzXzXzXzXzXzXzXzXzXzXd d d d E E E E E E E W E E E E E E W E W ! E E Y t 6 6 5 5 5 6 7 t t d d d d d d d d d r < , 1 # # ; = : : , : : : zXzXzXzXzXzXzXzXzXzXzXzXzX",
"zXzXzXzXzXzXzXzXzXzXzXzXzXzXzXzXzXzXzX8 8 8 d d E E E E W E W W W W E E ! E W ~ W W E U 6 5 2 2 2 & 2 4 5 9 d s f f d d r r r < < < : ; # ; : : , , : : ; zXzXzXzXzXzXzXzXzXzXzXzXzX",
"zXzXzXzXzXzXzXzXzXzXzXzXzXzXzXzXzXzXzX< 8 < 8 d E d E E E W W ! W ! ! W W W Q ^ Q W E J 5 2 & & $ $ $ & & - 8 s s s s 8 r r < < < : : ; ; : : q , : : : , zXzXzXzXzXzXzXzXzXzXzXzXzX",
"zXzXzXzXzXzXzXzXzXzXzXzXzXzXzXzXzXzXzX: : : < s d d E E E W W ! ! E W ! W W W W Q W R y 5 2 & $ O O O O $ - < < q q < < < < > > : : : : : : : , , : : : : zXzXzXzXzXzXzXzXzXzXzXzXzX",
"zXzXzXzXzXzXzXzXzXzXzXzXzXzXzXzXzXzXzX# ; ; : 8 8 d d R E ! ! ! E E E E E E W W W W E Y t y - - % % + + ; ; 1 ; > : : 1 ; 1 1 1 : : : : : : : , , , : : : zXzXzXzXzXzXzXzXzXzXzXzXzX",
"zXzXzXzXzXzXzXzXzXzXzXzXzXzXzXzXzXzXzXzX@ @ ; : < 8 r t t R R E Y R d R Y Y T U U Y E g g n M M M B v a i w ; + % + = ; # : ; ; ; : : : : : , , , : : : : zXzXzXzXzXzXzXzXzXzXzXzXzX",
"zXzXzXzXzXzXzXzXzXzXzXzXzXzXzXzXzXzXzXzXzX@ ; ; - - 6 6 6 6 6 K 6 6 6 6 6 5 4 3 3 5 t m { } X.2.2.F F S b i + O O O O + # # # : : : : ; : : : , , : : : ; zXzXzXzXzXzXzXzXzXzXzXzXzX",
"zXzXzXzXzXzXzXzXzXzXzXzXzXzXzXzXzXzXzXzXzXzX; % $ & & 2 2 2 2 2 2 2 2 2 & 2 2 & & 2 9 ] } ..r.e.e.e.8.F C p O o o o O O ; # : w : : : : : : , , , : , : : zXzXzXzXzXzXzXzXzXzXzXzXzX",
"zXzXzXzXzXzXzXzXzXzXzXzXzXzXzXzXzXzXzXzXzXzXzXzX$ & $ $ & $ & $ & $ & $ $ $ $ O O % - M ..e.l.D.A.C.S.8.G z $ . . o O $ * : : # : : : : : : : , , , ; ; : zXzXzXzXzXzXzXzXzXzXzXzXzX",
"zXzXzXzXzXzXzXzXzXzXzXzXzXzXzXzXzXzXzXzXzXzXzXzXzX$ $ O O $ $ $ $ O $ $ O O o   . O > Z r.k.D.E.E.R.A.e...n $ o . o o O ; : w ; : : : : : : : : , : : : ; zXzXzXzXzXzXzXzXzXzXzXzXzX",
"zXzXzXzXzXzXzXzXzXzXzXzXzXzXzXzXzXzXzXzXzXzXzXzXzXzX$ $ $ $ $ $ $ $ $ O O O o . . o a F e.D.E.].'.'.P.S.8.C : o . o O $ ; : : : : : : 1 : : > > , : : : : zXzXzXzXzXzXzXzXzXzXzXzXzX",
"zXzXzXzXzXzXzXzXzXzXzXzXzXzXzXzXzXzXzXzXzXzXzXzXzXzXn n n B M B n C n n b z i w w v A 8.S.W.'.XX|.[.E.Z.0.F z O o O $ $ ; ; * * ; ; 1 : : : , : , : , : : zXzXzXzXzXzXzXzXzXzXzXzXzX",
"zXzXzXzXzXzXzXzXzXzXzXzXzXzXzXzXzXzXzXzXzXzXzXzXzXzX2.2.2.2.9.9.9...%.....F F A F F 8.j.A.!.[. X X|.'.H.h.3.V x 0 0 = = $ O O $ $ % ; ; : : , , , : : 1 : zXzXzXzXzXzXzXzXzXzXzXzXzX",
"zXzXzXzXzXzXzXzXzXzXzXzXzXzXzXzXzXzXzXzXzXzXzXzXzXzXk.j.j.l.C.S.S.j.j.j.h.h.e.e.e.h.S.A.R.'. X.X.XXX!.P.l.q.$.V c l 0 = O o O O O $ * : w > q > , : : : : zXzXzXzXzXzXzXzXzXzXzXzXzX",
"zXzXzXzXzXzXzXzXzXzXzXzXzXzXzXzXzXzXzXzXzXzXzXzXzXzXR.P.P.R.!.!.E.P.P.P.P.P.D.H.D.D.I.E.'.[. X.X.XXX~.R.M.u.5.$.V c l @ O o . o O O % ; > > q < , : : : : zXzXzXzXzXzXzXzXzXzXzXzXzX",
"zXzXzXzXzXzXzXzXzXzXzXzXzXzXzXzXzXzXzXzXzXzXzXzXzXzX'.~.!.XX X X}.'.'.!.!.'.!.!.!.'.'.'.}. X@X@X X|.~.Q.H.c.t.4.$.V c 0 o . . o O O % : > q q q , : : : : zXzXzXzXzXzXzXzXzXzXzXzXzX",
"zXzXzXzXzXzXzXzXzXzXzXzXzXzXzXzXzXzXzXzXzXzXzXzXzXzX}.}.}..XOXOX.X|.}.}.}.}.}.'.}.}.'.}.|. X X X|.'.~.Q.G.m.g.t.&.$.V x @ O o o O + % : > > , , , : : : : zXzXzXzXzXzXzXzXzXzXzXzXzX",
"zXzXzXzXzXzXzXzXzXzXzXzXzXzXzXzXzXzXzXzXzXzXzXzXzXzX].}.}. XOXOX.X|.}.'.}.].[.}.'.].].].].].].].'.!.^.K.G.m.x.a.7.4.6.S C p q 1 1 1 > > ; ; ; 1 : : : : : zXzXzXzXzXzXzXzXzXzXzXzXzX",
"zXzXzXzXzXzXzXzXzXzXzXzXzXzXzXzXzXzXzXzXzXzXzXzXzXP.W.!.!.}.XX}.[.'.'.!.'.E.'.'.'.!.'.'.'.E.!.E.R.W.I.H.G.m.x.s.p.t.q.2.F G Z C b a i ; $ $ $ - 1 : : : : zXzXzXzXzXzXzXzXzXzXzXzXzX",
"zXzXzXzXzXzXzXzXzXzXzXzXzXzXzXzXzXzXzXzXzXzXzXzXr.j.S.D.D.W.E.E.W.P.P.P.A.D.P.P.P.D.P.D.D.D.D.C.Z.C.Z.c.x.n.x.x.f.f.v.j.e.r.9...A C p 1 O $ $ & 1 : ; , : zXzXzXzXzXzXzXzXzXzXzXzXzX",
"zXzXzXzXzXzXzXzXzXzXzXzXzXzXzXzXzXzXzXzXzXzXW { o.X.r.r.h.j.k.k.k.j.j.e.h.h.h.j.j.e.j.e.e.e.e.e.e.h.d.u.v.g.x.x.c.Z.H.D.D.C.S.e.9.G b 1 O O O $ * , : : : zXzXzXzXzXzXzXzXzXzXzXzXzX",
"zXzXzXzXzXzXzXzXzXzXzXzXzXzXzXzXzXzXzXzXJ P E ( { } } |  .2.2.2.......................| | | | |  .2.5.q.t.p.g.x.G.H.W.E.E.W.D.S.r.| M : O O O $ - , : : : zXzXzXzXzXzXzXzXzXzXzXzXzX",
"zXzXzXzXzXzXzXzXzXzXzXzXzXzXzXzXzXzXzXzXT T E / g g g ( v n n n n n b b v n n n b b n m a p p a n V D 3.5.u.s.m.G.Q.'.].].'.E.A.h.2.C : o o O $ & , : : ; zXzXzXzXzXzXzXzXzXzXzXzXzX",
"zXzXzXzXzXzXzXzXzXzXzXzXzXzXzXzXzXzXzX^ W E W ! Y 9 5 & $ O O o O O $ O $ O O O O O $ O O o o O $ x V $.4.t.f.m.G.^.`.}.|.[.!.P.j.9.C > o . O + % ; ; 1 , zXzXzXzXzXzXzXzXzXzXzXzXzX",
"zXzXzXzXzXzXzXzXzXzXzXzXzXzXzXzXzXzXzX/ W W T T J 3 2 $ O         . o . . . o . o . . .         o 0 c $.4.7.f.n.G.T._.[.[.[.E.H.v.2.C X       o $ ; , , zXzXzXzXzXzXzXzXzXzXzXzXzXzX",
"zXzXzXzXzXzXzXzXzXzXzXzXzXzXzXzXzXzXzXT T T I I K 3 & O .                                       o 0 c V 4.7.f.n.G.L.L.K.^.L.L.C.0.*.j X         O ; , zXzXzXzXzXzXzXzXzXzXzXzXzXzXzX",
"zXzXzXzXzXzXzXzXzXzXzXzXzXzXzXzXzXzXzXI I I P J L 3 & O                                         o e V o.5.y.f.n.B.B.L.L.L.L.,.<.+.H j X           zXzXzXzXzXzXzXzXzXzXzXzXzXzXzXzXzX",
"zXzXzXzXzXzXzXzXzXzXzXzXzXzXzXzXzXzXzXI I P J K L 2 & $ .             .   .         .   .     o O p V D 5.y.g.n.b.b.b.1.1.1.<.#.+.k h X       zXzXzXzXzXzXzXzXzXzXzXzXzXzXzXzXzXzXzX",
"zXzXzXzXzXzXzXzXzXzXzXzXzXzXzXzXzXzXzXI I P P J 6 3 2 $ O o . . o o o o o o o O o O o o o o o O % x S 6.5.y.g.x.b.b.b.b.,.<.=.+.+.k h X       zXzXzXzXzXzXzXzXzXzXzXzXzXzXzXzXzXzXzX",
"zXzXzXzXzXzXzXzXzXzXzXzXzXzXzXzXzXzXzX~ ~ W W ~ ~ W f u u u u w u u u i u u u u u w u q % $ $ % i c D %.5.y.g.x.g.n.n.c.c.d.d.q.6.o.N 8 & & & zXzXzXzXzXzXzXzXzXzXzXzXzXzXzXzXzXzXzX",
"zXzXzXzXzXzXzXzXzXzXzXzXzXzXzXzXzXzXzX' ' ' ' } { } } Z Z Z Z Z Z A Z Z Z Z Z Z Z Z Z C M b z z N V D &.7.p.g.m.V.V./.(.0X0X8X8X<XO.O.[ _ ` _ zXzXzXzXzXzXzXzXzXzXzXzXzXzXzXzXzXzXzX",
"zXzXzXzXzXzXzXzXzXzXzXzXzXzXzXzXzXzXzXo.o.o.o.6.3.3.8.8.8.0.0.0.0.0.0.r.0.0.0.0.0.8.9.2.F F A V D D $.&.;.i.n.V.U.0XqXeXeXwXwX9X9X9X:X%X$X#X#X) zXzXzXzXzXzXzXzXzXzXzXzXzXzXzXzXzXzX",
"zXzXzXzXzXzXzXzXzXzXzXzXzXzXzXzXzXzXzX6.6.6.6.5.d.z.h.l.S.S.C.C.C.D.F.D.A.C.C.C.l.l.j.h.h.q.3.%.%.&.&.=.-.>.n.U.qXeXrXrXaXsXpXpXtXtX7X-X=X%X%X[ ) T zXzXzXzXzXzXzXzXzXzXzXzXzXzXzXzX",
"zXzXzXzXzXzXzXzXzXzXzXzXzXzXzXzXzXzXzX5.5.5.t.d.l.V.F.D.W.W.E.!.!.!.!.!.!.!.E.E.R.P.H.C.c.d.d.q.7.7.;.-.-.>.b.(.qXrXaXsXgXgXkXfXdXtX6X1X>X=X%X$X) U X X zXzXzXzXzXzXzXzXzXzXzXzXzXzX",
"zXzXzXzXzXzXzXzXzXzXzXzXzXzXzXzXzXzXzX7.7.p.d.V.I.Y.(.0X!.'.}.}.}.}.|.|.}.}.].].'.'.!.Q.H.Z.c.f.p.7.;.-.@.-.n.(.eXrXsXgXjXjXkXhXdXyX6X4X1X>X=X%X[ U X X X zXzXzXzXzXzXzXzXzXzXzXzXzX",
"zXzXzXzXzXzXzXzXzXzXzXzXzXzXzXzXzXzXzXp.p.p.n.V.Y.T.`.'.}.}.|.|.|.}.}.}.|.}.|. X|.|.[.~.E.I.M.x.f.p.:.-.#.@.a./.qXrXaXgXjXjXhXfXiXyX6X4X1X>X=X%X[ T X X X zXzXzXzXzXzXzXzXzXzXzXzXzX",
"zXzXzXzXzXzXzXzXzXzXzXzXzXzXzXzXzXzXzXs.a.s.n.B.T.`.`.{.XXXXXX X X X X X X X.X@X.X X X}.`.Y.G.N.g.a.:.-.#.@.p./.wXrXsXgXjXjXkXhXiXyX5X3X1X,X=X$X) U X X X zXzXzXzXzXzXzXzXzXzXzXzXzX",
"zXzXzXzXzXzXzXzXzXzXzXzXzXzXzXzXzXzXzXs.s.n.N.T.T._.{.{.}.{.XXXX X X.X.X@XOXOXOXOXOXoXoX{.`.T.N.n.s.:.-.#.@.i./.qXpXlXkXjXjXkXhXiXyX5X3X2X>X=X$X) U X X zXzXzXzXzXzXzXzXzXzXzXzXzXzX",
"zXzXzXzXzXzXzXzXzXzXzXzXzXzXzXzXzXzXzXs.s.s.B.B._._.`.{.`.~.!.~.`.}. XOXOXOXOXOX.XOX+XOXoX{._.J.n.s.i.:.@.-.b.zXzXzXzXkXjXjXkXfXdXyX5X3X2X>X=X$X[ U X zXzXzXzXzXzXzXzXzXzXzXzXzXzXzX",
"zXzXzXzXzXzXzXzXzXzXzXzXzXzXzXzXzXzXzXg.g.g.N.T.)._._.`.T.Y.I.Y.E.zXzXzXzXzXOX.X XOXeX+X+X{._.K.n.a.i.:.-.zXzXzXzXzXzXzXzXzXzXzXzXzXzXzXzXzXzXzXzXzXzXzXzXzXzXzXzXzXzXzXzXzXzXzXzXzX",
"zXzXzXzXzXzXzXzXzXzXzXzXzXzXzXzXzXzXzXg.g.g.n.T.).).).).Y.M.M.M.zXzXzXzXzXzX@X.X X@X+X+XoXoX_.K.n.p.p.i.zXzXzXzXzXzXzXzXzXzXzXzXzXzXzXzXzXzXzXzXzXzXzXzXzXzXzXzXzXzXzXzXzXzXzXzXzXzX",
"zXzXzXzXzXzXzXzXzXzXzXzXzXzXzXzXzXzXzXg.g.g.g.N.B.B.B.B.n.x.g.f.zXzXzXzXzXzXzX.X|.|..XoXoX{.T.N.a.a.u.p.zXzXzXzXzXzXzXzXzXzXzXzXzXzXzXzXzXzXzXzXzXzXzXzXzXzXzXzXzXzXzXzXzXzXzXzXzXzX",
"zXzXzXzXzXzXzXzXzXzXzXzXzXzXzXzXzXzXzXzXg.g.g.g.g.n.f.a.a.a.p.zXzXzXzXzXzXzXzX.X X|.[.~.L.L.H.x.g.p.f.zXzXzXzXzXzXzXzXzXzXzXzXzXzXzXzXzXzXzXzXzXzXzXzXzXzXzXzXzXzXzXzXzXzXzXzXzXzXzX",
"zXzXzXzXzXzXzXzXzXzXzXzXzXzXzXzXzXzXzXzXg.g.g.g.g.g.p.a.p.p.i.zXzXzXzXzXzXzXzXzX X|.].~.Q.I.M.x.s.a.zXzXzXzXzXzXzXzXzXzXzXzXzXzXzXzXzXzXzXzXzXzXzXzXzXzXzXzXzXzXzXzXzXzXzXzXzXzXzXzX",
"zXzXzXzXzXzXzXzXzXzXzXzXzXzXzXzXzXzXzXzXzXzXg.g.g.p.a.p.p.p.zXzXzXzXzXzXzXzXzXzXzX|.[.~.Q.G.M.c.f.zXzXzXzXzXzXzXzXzXzXzXzXzXzXzXzXzXzXzXzXzXzXzXzXzXzXzXzXzXzXzXzXzXzXzXzXzXzXzXzXzX",
"zXzXzXzXzXzXzXzXzXzXzXzXzXzXzXzXzXzXzXzXzXzXzXzXzXzXzXzXzXzXzXzXzXzXzXzXzXzXzXzXzXzXzXzXzXzXzXzXzXzXzXzXzXzXzXzXzXzXzXzXzXzXzXzXzXzXzXzXzXzXzXzXzXzXzXzXzXzXzXzXzXzXzXzXzXzXzXzXzXzX",
"zXzXzXzXzXzXzXzXzXzXzXzXzXzXzXzXzXzXzXzXzXzXzXzXzXzXzXzXzXzXzXzXzXzXzXzXzXzXzXzXzXzXzXzXzXzXzXzXzXzXzXzXzXzXzXzXzXzXzXzXzXzXzXzXzXzXzXzXzXzXzXzXzXzXzXzXzXzXzXzXzXzXzXzXzXzXzXzXzXzX",
"zXzXzXzXzXzXzXzXzXzXzXzXzXzXzXzXzXzXzXzXzXzXzXzXzXzXzXzXzXzXzXzXzXzXzXzXzXzXzXzXzXzXzXzXzXzXzXzXzXzXzXzXzXzXzXzXzXzXzXzXzXzXzXzXzXzXzXzXzXzXzXzXzXzXzXzXzXzXzXzXzXzXzXzXzXzXzXzXzXzX",
"zXzXzXzXzXzXzXzXzXzXzXzXzXzXzXzXzXzXzXzXzXzXzXzXzXzXzXzXzXzXzXzXzXzXzXzXzXzXzXzXzXzXzXzXzXzXzXzXzXzXzXzXzXzXzXzXzXzXzXzXzXzXzXzXzXzXzXzXzXzXzXzXzXzXzXzXzXzXzXzXzXzXzXzXzXzXzXzXzXzX",
"zXzXzXzXzXzXzXzXzXzXzXzXzXzXzXzXzXzXzXzXzXzXzXzXzXzXzXzXzXzXzXzXzXzXzXzXzXzXzXzXzXzXzXzXzXzXzXzXzXzXzXzXzXzXzXzXzXzXzXzXzXzXzXzXzXzXzXzXzXzXzXzXzXzXzXzXzXzXzXzXzXzXzXzXzXzXzXzXzXzX",
"zXzXzXzXzXzXzXzXzXzXzXzXzXzXzXzXzXzXzXzXzXzXzXzXzXzXzXzXzXzXzXzXzXzXzXzXzXzXzXzXzXzXzXzXzXzXzXzXzXzXzXzXzXzXzXzXzXzXzXzXzXzXzXzXzXzXzXzXzXzXzXzXzXzXzXzXzXzXzXzXzXzXzXzXzXzXzXzXzXzX",
"zXzXzXzXzXzXzXzXzXzXzXzXzXzXzXzXzXzXzXzXzXzXzXzXzXzXzXzXzXzXzXzXzXzXzXzXzXzXzXzXzXzXzXzXzXzXzXzXzXzXzXzXzXzXzXzXzXzXzXzXzXzXzXzXzXzXzXzXzXzXzXzXzXzXzXzXzXzXzXzXzXzXzXzXzXzXzXzXzXzX",
"zXzXzXzXzXzXzXzXzXzXzXzXzXzXzXzXzXzXzXzXzXzXzXzXzXzXzXzXzXzXzXzXzXzXzXzXzXzXzXzXzXzXzXzXzXzXzXzXzXzXzXzXzXzXzXzXzXzXzXzXzXzXzXzXzXzXzXzXzXzXzXzXzXzXzXzXzXzXzXzXzXzXzXzXzXzXzXzXzXzX",
"zXzXzXzXzXzXzXzXzXzXzXzXzXzXzXzXzXzXzXzXzXzXzXzXzXzXzXzXzXzXzXzXzXzXzXzXzXzXzXzXzXzXzXzXzXzXzXzXzXzXzXzXzXzXzXzXzXzXzXzXzXzXzXzXzXzXzXzXzXzXzXzXzXzXzXzXzXzXzXzXzXzXzXzXzXzXzXzXzXzX",
"zXzXzXzXzXzXzXzXzXzXzXzXzXzXzXzXzXzXzXzXzXzXzXzXzXzXzXzXzXzXzXzXzXzXzXzXzXzXzXzXzXzXzXzXzXzXzXzXzXzXzXzXzXzXzXzXzXzXzXzXzXzXzXzXzXzXzXzXzXzXzXzXzXzXzXzXzXzXzXzXzXzXzXzXzXzXzXzXzXzX",
"zXzXzXzXzXzXzXzXzXzXzXzXzXzXzXzXzXzXzXzXzXzXzXzXzXzXzXzXzXzXzXzXzXzXzXzXzXzXzXzXzXzXzXzXzXzXzXzXzXzXzXzXzXzXzXzXzXzXzXzXzXzXzXzXzXzXzXzXzXzXzXzXzXzXzXzXzXzXzXzXzXzXzXzXzXzXzXzXzXzX",
"zXzXzXzXzXzXzXzXzXzXzXzXzXzXzXzXzXzXzXzXzXzXzXzXzXzXzXzXzXzXzXzXzXzXzXzXzXzXzXzXzXzXzXzXzXzXzXzXzXzXzXzXzXzXzXzXzXzXzXzXzXzXzXzXzXzXzXzXzXzXzXzXzXzXzXzXzXzXzXzXzXzXzXzXzXzXzXzXzXzX",
"zXzXzXzXzXzXzXzXzXzXzXzXzXzXzXzXzXzXzXzXzXzXzXzXzXzXzXzXzXzXzXzXzXzXzXzXzXzXzXzXzXzXzXzXzXzXzXzXzXzXzXzXzXzXzXzXzXzXzXzXzXzXzXzXzXzXzXzXzXzXzXzXzXzXzXzXzXzXzXzXzXzXzXzXzXzXzXzXzXzX",
"zXzXzXzXzXzXzXzXzXzXzXzXzXzXzXzXzXzXzXzXzXzXzXzXzXzXzXzXzXzXzXzXzXzXzXzXzXzXzXzXzXzXzXzXzXzXzXzXzXzXzXzXzXzXzXzXzXzXzXzXzXzXzXzXzXzXzXzXzXzXzXzXzXzXzXzXzXzXzXzXzXzXzXzXzXzXzXzXzXzX",
"zXzXzXzXzXzXzXzXzXzXzXzXzXzXzXzXzXzXzXzXzXzXzXzXzXzXzXzXzXzXzXzXzXzXzXzXzXzXzXzXzXzXzXzXzXzXzXzXzXzXzXzXzXzXzXzXzXzXzXzXzXzXzXzXzXzXzXzXzXzXzXzXzXzXzXzXzXzXzXzXzXzXzXzXzXzXzXzXzXzX",
"zXzXzXzXzXzXzXzXzXzXzXzXzXzXzXzXzXzXzXzXzXzXzXzXzXzXzXzXzXzXzXzXzXzXzXzXzXzXzXzXzXzXzXzXzXzXzXzXzXzXzXzXzXzXzXzXzXzXzXzXzXzXzXzXzXzXzXzXzXzXzXzXzXzXzXzXzXzXzXzXzXzXzXzXzXzXzXzXzXzX",
"zXzXzXzXzXzXzXzXzXzXzXzXzXzXzXzXzXzXzXzXzXzXzXzXzXzXzXzXzXzXzXzXzXzXzXzXzXzXzXzXzXzXzXzXzXzXzXzXzXzXzXzXzXzXzXzXzXzXzXzXzXzXzXzXzXzXzXzXzXzXzXzXzXzXzXzXzXzXzXzXzXzXzXzXzXzXzXzXzXzX",
"zXzXzXzXzXzXzXzXzXzXzXzXzXzXzXzXzXzXzXzXzXzXzXzXzXzXzXzXzXzXzXzXzXzXzXzXzXzXzXzXzXzXzXzXzXzXzXzXzXzXzXzXzXzXzXzXzXzXzXzXzXzXzXzXzXzXzXzXzXzXzXzXzXzXzXzXzXzXzXzXzXzXzXzXzXzXzXzXzXzX",
"zXzXzXzXzXzXzXzXzXzXzXzXzXzXzXzXzXzXzXzXzXzXzXzXzXzXzXzXzXzXzXzXzXzXzXzXzXzXzXzXzXzXzXzXzXzXzXzXzXzXzXzXzXzXzXzXzXzXzXzXzXzXzXzXzXzXzXzXzXzXzXzXzXzXzXzXzXzXzXzXzXzXzXzXzXzXzXzXzXzX",
"zXzXzXzXzXzXzXzXzXzXzXzXzXzXzXzXzXzXzXzXzXzXzXzXzXzXzXzXzXzXzXzXzXzXzXzXzXzXzXzXzXzXzXzXzXzXzXzXzXzXzXzXzXzXzXzXzXzXzXzXzXzXzXzXzXzXzXzXzXzXzXzXzXzXzXzXzXzXzXzXzXzXzXzXzXzXzXzXzXzX",
"zXzXzXzXzXzXzXzXzXzXzXzXzXzXzXzXzXzXzXzXzXzXzXzXzXzXzXzXzXzXzXzXzXzXzXzXzXzXzXzXzXzX! E E E E E zXzXzXzXzXzXzXzXzXzXzXzXzXzXzXzXzXzXzXzXzXzXzXzXzXzXzXzXzXzXzXzXzXzXzXzXzXzXzXzXzXzX",
"zXzXzXzXzXzXzXzXzXzXzXzXzXzXzXzXzXzXzXzXzXzXzXzXzXzXzXzXzXzXzXzXzXzXzXzXzXzXzXzXzXE E E E E E W E zXzXzXzXzXzXzXzXzXzXzXzXzXzXzXzXzXzXzXzXzXzXzXzXzXzXzXzXzXzXzXzXzXzXzXzXzXzXzXzXzX",
"zXzXzXzXzXzXzXzXzXzXzXzXzXzXzXzXzXzXzXzXzXzXzXzXzXzXzXzXzXzXzXzXzXzXzXzXzXzXzXzXzX! E E E E f ! E zXzXzXzXzXzXzXzXzXzXzXzXzXzXzXzXzXzXzXzXzXzXzXzXzXzXzXzXzXzXzXzXzXzXzXzXzXzXzXzXzX",
"zXzXzXzXzXzXzXzXzXzXzXzXzXzXzXzXzXzXzXzXzXzXzXzXzXzXzXzXzXzXzXzXzXzXzXzXzXzXzXzXE E E E E E E E E E zXzXzXzXzXzXzXzXzXzXzXzXzXzXzXzXzXzXzXzXzXzXzXzXzXzXzXzXzXzXzXzXzXzXzXzXzXzXzXzX",
"zXzXzXzXzXzXzXzXzXzXzXzXzXzXzXzXzXzXzXzXzXzXzXzXzXzXzXzXzXzXzXzXzXzXzXzXzXzXzXzXE E E E E E E E E E zXzXzXzXzXzXzXzXzXzXzXzXzXzXzXzXzXzXzXzXzXzXzXzXzXzXzXzXzXzXzXzXzXzXzXzXzXzXzXzX",
"zXzXzXzXzXzXzXzXzXzXzXzXzXzXzXzXzXzXzXzXzXzXzXzXzXzXzXzXzXzXzXzXzXzXzXzXzXzXzXE E E E E E E E E E E ! zXzXzXzXzXzXzXzXzXzXzXzXzXzXzXzXzXzXzXzXzXzXzXzXzXzXzXzXzXzXzXzXzXzXzXzXzXzXzX",
"zXzXzXzXzXzXzXzXzXzXzXzXzXzXzXzXzXzXzXzXzXzXzXzXzXzXzXzXzXzXzXzXzXzXzXzXE E E E E E E E E E E E E E E E E E zXzXzXzXzXzXzXzXzXzXzXzXzXzXzXzXzXzXzXzXzXzXzXzXzXzXzXzXzXzXzXzXzXzXzXzX",
"zXzXzXzXzXzXzXzXzXzXzXzXzXzXzXzXzXzXzXzXzXzXzXzXzXzXzXzXzXzXzXzXzXzXzX! E E E ! E E E E E E E E E E E E E E E zXzXzXzXzXzXzXzXzXzXzXzXzXzXzXzXzXzXzXzXzXzXzXzXzXzXzXzXzXzXzXzXzXzXzX",
"zXzXzXzXzXzXzXzXzXzXzXzXzXzXzXzXzXzXzXzXzXzXzXzXzXzXzXzXzXzXzXzXzXzXE E E E E f E E E E E E E E E E d E E E E E zXzXzXzXzXzXzXzXzXzXzXzXzXzXzXzXzXzXzXzXzXzXzXzXzXzXzXzXzXzXzXzXzXzX",
"zXzXzXzXzXzXzXzXzXzXzXzXzXzXzXzXzXzXzXzXzXzXzXzXzXzXzXzXzXzXzXzXzXzXd E E E E E d E E E E E E E E E W E E E E E zXzXzXzXzXzXzXzXzXzXzXzXzXzXzXzXzXzXzXzXzXzXzXzXzXzXzXzXzXzXzXzXzXzX",
"zXzXzXzXzXzXzXzXzXzXzXzXzXzXzXzXzXzXzXzXzXzXzXzXzXzXzXzXzXzXzXzXzXzXE E E E E E E E E E E E E E E d E E E E E E zXzXzXzXzXzXzXzXzXzXzXzXzXzXzXzXzXzXzXzXzXzXzXzXzXzXzXzXzXzXzXzXzXzX",
"zXzXzXzXzXzXzXzXzXzXzXzXzXzXzXzXzXzXzXzXzXzXzXzXzXzXzXzXzXzXzXzXzXzX! E E E E ! E E E E E ! / E E E E E E E E E zXzXzXzXzXzXzXzXzXzXzXzXzXzXzXzXzXzXzXzXzXzXzXzXzXzXzXzXzXzXzXzXzXzX",
"zXzXzXzXzXzXzXzXzXzXzXzXzXzXzXzXzXzXzXzXzXzXzXzXzXzXzXzXzXzXzXzXzXzXE E E E f / E E E E E E E E E E E E E E E E zXzXzXzXzXzXzXzXzXzXzXzXzXzXzXzXzXzXzXzXzXzXzXzXzXzXzXzXzXzXzXzXzXzX",
"zXzXzXzXzXzXzXzXzXzXzXzXzXzXzXzXzXzXzXzXzXzXzXzXzXzXzXzXzXzXzXzXzXzXzXE E E E E E E E E E E E E E E E E E E E zXzXzXzXzXzXzXzXzXzXzXzXzXzXzXzXzXzXzXzXzXzXzXzXzXzXzXzXzXzXzXzXzXzXzX",
"zXzXzXzXzXzXzXzXzXzXzXzXzXzXzXzXzXzXzXzXzXzXzXzXzXzXzXzXzXzXzXzXzXzXzXzX! E E E E E E E E R E E E E E E E E zXzXzXzXzXzXzXzXzXzXzXzXzXzXzXzXzXzXzXzXzXzXzXzXzXzXzXzXzXzXzXzXzXzXzXzX",
"zXzXzXzXzXzXzXzXzXzXzXzXzXzXzXzXzXzXzXzXzXzXzXzXzXzXzXzXzXzXzXzXzXzXzXzXzXzXzX! E E E E E E E E E E ! zXzXzXzXzXzXzXzXzXzXzXzXzXzXzXzXzXzXzXzXzXzXzXzXzXzXzXzXzXzXzXzXzXzXzXzXzXzXzX",
"zXzXzXzXzXzXzXzXzXzXzXzXzXzXzXzXzXzXzXzXzXzXzXzXzXzXzXzXzXzXzXzXzXzXzXzXzXzXzXzXzXE E E E E E E E zXzXzXzXzXzXzXzXzXzXzXzXzXzXzXzXzXzXzXzXzXzXzXzXzXzXzXzXzXzXzXzXzXzXzXzXzXzXzXzXzX",
"zXzXzXzXzXzXzXzXzXzXzXzXzXzXzXzXzXzXzXzXzXzXzXzXzXzXzXzXzXzXzXzXzXzXzXzXzXzXzXzXzXE E W E E E E E zXzXzXzXzXzXzXzXzXzXzXzXzXzXzXzXzXzXzXzXzXzXzXzXzXzXzXzXzXzXzXzXzXzXzXzXzXzXzXzXzX",
"zXzXzXzXzXzXzXzXzXzXzXzXzXzXzXzXzXzXzXzXzXzXzXzXzXzXzXzXzXzXzXzXzXzXzXzXzXzXzXzXzXd E E E E E E E zXzXzXzXzXzXzXzXzXzXzXzXzXzXzXzXzXzXzXzXzXzXzXzXzXzXzXzXzXzXzXzXzXzXzXzXzXzXzXzXzX",
"zXzXzXzXzXzXzXzXzXzXzXzXzXzXzXzXzXzXzXzXzXzXzXzXzXzXzXzXzXzXzXzXzXzXzXzXzXzXzXzXzXE E E E E E E W zXzXzXzXzXzXzXzXzXzXzXzXzXzXzXzXzXzXzXzXzXzXzXzXzXzXzXzXzXzXzXzXzXzXzXzXzXzXzXzXzX",
"zXzXzXzXzXzXzXzXzXzXzXzXzXzXzXzXzXzXzXzXzXzXzXzXzXzXzXzXzXzXzXzXzXzXzXzXzXzXzXzXzXW E E E E E R E zXzXzXzXzXzXzXzXzXzXzXzXzXzXzXzXzXzXzXzXzXzXzXzXzXzXzXzXzXzXzXzXzXzXzXzXzXzXzXzXzX",
"zXzXzXzXzXzXzXzXzXzXzXzXzXzXzXzXzXzXzXzXzXzXzXzXzXzXzXzXzXzXzXzXzXzXzXzXzXzXzXzXzXE E E E E E W W zXzXzXzXzXzXzXzXzXzXzXzXzXzXzXzXzXzXzXzXzXzXzXzXzXzXzXzXzXzXzXzXzXzXzXzXzXzXzXzXzX",
"zXzXzXzXzXzXzXzXzXzXzXzXzXzXzXzXzXzXzXzXzXzXzXzXzXzXzXzXzXzXzXzXzXzXzXzXzXzXzXzXzXW E E E E E E W zXzXzXzXzXzXzXzXzXzXzXzXzXzXzXzXzXzXzXzXzXzXzXzXzXzXzXzXzXzXzXzXzXzXzXzXzXzXzXzXzX"
};
