/* XPM */
static char *result[] = {
/* columns rows colors chars-per-pixel */
"105 90 230 2 ",
"   c #000001",
".  c #00000E",
"X  c #0F0000",
"o  c #1A0000",
"O  c #19050B",
"+  c #000014",
"@  c #00001C",
"#  c #160E1E",
"$  c #1A0A16",
"%  c #17101F",
"&  c #000122",
"*  c #030A23",
"=  c #0B0C21",
"-  c #00002B",
";  c #020C2A",
":  c #110E21",
">  c #161223",
",  c #191425",
"<  c #151529",
"1  c #1A1729",
"2  c #1C1A2D",
"3  c #1F1827",
"4  c #000036",
"5  c #00003B",
"6  c #000B3F",
"7  c #000D31",
"8  c #041937",
"9  c #1E1E32",
"0  c #131B33",
"q  c #05132E",
"w  c #241B28",
"e  c #2A1E2F",
"r  c #1F2035",
"t  c #1D233B",
"y  c #33252A",
"u  c #3D2A2C",
"i  c #212136",
"p  c #22253C",
"a  c #27283D",
"s  c #2E232B",
"d  c #200000",
"f  c #6C3712",
"g  c #452B2D",
"h  c #45312F",
"j  c #472E30",
"k  c #4B3631",
"l  c #4B3634",
"z  c #553A34",
"x  c #57312C",
"c  c #663C35",
"v  c #5C4339",
"b  c #65493A",
"n  c #6B4D3B",
"m  c #684439",
"M  c #78483A",
"N  c #73533F",
"B  c #6F513E",
"V  c #001441",
"C  c #001D42",
"Z  c #000041",
"A  c #1E2944",
"S  c #192745",
"D  c #12375C",
"F  c #0A2C50",
"G  c #262B44",
"H  c #282D46",
"J  c #292E49",
"K  c #232944",
"L  c #2B314D",
"P  c #3A3445",
"I  c #00016A",
"U  c #143C64",
"Y  c #022C70",
"T  c #483B45",
"R  c #314E7F",
"E  c #02426E",
"W  c #57454A",
"Q  c #534D55",
"!  c #634C4A",
"~  c #6B514F",
"^  c #795744",
"/  c #73514C",
"(  c #6D686F",
")  c #844C3C",
"_  c #955336",
"`  c #A85C3A",
"'  c #AE5B2C",
"]  c #BA6838",
"[  c #BB6629",
"{  c #CA7202",
"}  c #C67536",
"|  c #865A45",
" . c #965943",
".. c #8A6349",
"X. c #946B4D",
"o. c #996549",
"O. c #876453",
"+. c #986E53",
"@. c #9C7152",
"#. c #9C745B",
"$. c #A96549",
"%. c #B46A4D",
"&. c #BA6D4C",
"*. c #B86945",
"=. c #B66E52",
"-. c #A97B57",
";. c #A87856",
":. c #BC7352",
">. c #B77958",
",. c #B76F4B",
"<. c #B3786C",
"1. c #936A5F",
"2. c #C2764B",
"3. c #C37B56",
"4. c #C47B58",
"5. c #C07F65",
"6. c #D88616",
"7. c #D88A39",
"8. c #E3963B",
"9. c #B4845C",
"0. c #BA855D",
"q. c #AE805A",
"w. c #BD8B63",
"e. c #B88467",
"r. c #B78877",
"t. c #CA855D",
"y. c #CA855B",
"u. c #D58C52",
"i. c #E49D5B",
"p. c #E39848",
"a. c #E9A35D",
"s. c #C38D62",
"d. c #CD8B61",
"f. c #C8886A",
"g. c #D38C62",
"h. c #CB9366",
"j. c #C99369",
"k. c #D49366",
"l. c #D39A6B",
"z. c #DB9C6C",
"x. c #D99668",
"c. c #C68E76",
"v. c #E29F6E",
"b. c #DCA16F",
"n. c #DEA371",
"m. c #E4A46D",
"M. c #E9A568",
"N. c #E3A572",
"B. c #E7A973",
"V. c #EBAB75",
"C. c #E7AB7A",
"Z. c #F4B279",
"A. c #FBB67A",
"S. c #FAB477",
"D. c #F1AE70",
"F. c #003988",
"G. c #004B83",
"H. c #00558D",
"J. c #005A99",
"K. c #004A93",
"L. c #0064AA",
"P. c #006BB5",
"I. c #0074BC",
"U. c #265F9D",
"Y. c #586F96",
"T. c #607FAE",
"R. c #0077C8",
"E. c #007BD6",
"W. c #1A7ED4",
"Q. c #A27E95",
"!. c #778DAD",
"~. c #0085D8",
"^. c #2E88D5",
"/. c #008DE4",
"(. c #0086E7",
"). c #0093EC",
"_. c #0091E7",
"`. c #2B98EA",
"'. c #389AEA",
"]. c #3A9FF1",
"[. c #3EA5FA",
"{. c #5891D8",
"}. c #7291CE",
"|. c #5998E3",
" X c #669BE1",
".X c #41AAFD",
"XX c #74ADEF",
"oX c #918488",
"OX c #B48D92",
"+X c #9389B2",
"@X c #A796AC",
"#X c #98A2B0",
"$X c #B2AAB6",
"%X c #B2A59F",
"&X c #C39790",
"*X c #D1A791",
"=X c #EAB489",
"-X c #EABA97",
";X c #ECB485",
":X c #CBB2B4",
">X c #CBACA8",
",X c #F6C396",
"<X c #F7CBA8",
"1X c #F2CEB5",
"2X c #D6C2B5",
"3X c #8899CB",
"4X c #93A8C6",
"5X c #92A8D3",
"6X c #B0B7D1",
"7X c #95B9E6",
"8X c #D0BFC5",
"9X c #B9C7DB",
"0X c #ABC3DB",
"qX c #82C3FF",
"wX c #9CC6F5",
"eX c #B4D2F4",
"rX c #C9C3CA",
"tX c #C5CAD9",
"yX c #D2C5CD",
"uX c #F2DCCC",
"iX c #FDE3CE",
"pX c #F8E9DB",
"aX c #C7D3E7",
"sX c #D4E7FC",
"dX c #CFEAFF",
"fX c #FDF3E8",
"gX c #EBF7FF",
"hX c #FCFCFA",
"jX c #E5E8F2",
"kX c None",
/* pixels */
"kXkXkXkXkXkXkXkXkXkXkXkXkXkXkXkXkXkXkXkXkXkXkXkXkXkXkXkXkXkXkXkXkXkXkXkXkXkXkXkXkXkXkXkXkXkXkXkXkXkXkXkXkXkXkXkXkXkXkXkXkXkXkXkXkXkXkXkXkXkXkXkXkXkXkXkXkXkXkXkXkXkXkXkXkXkXkXkXkXkXkXkXkXkXkXkXkXkXkXkXkXkXkXkXkX",
"kXkXkXkXkXkXkXkXkXkXkXkXkXkXkXkXkXkXkXkXkXkXkXkXkXkXkXkXkXkXkXkXkXkXkXkXkXkXkXkXkXkXkXkXkXkXkXkXkXkXkXkXkXkXkXkXkXkXkXkXkXkXkXkXkXkXkXkXkXkXkXkXkXkXkXkXkXkXkXkXkXkXkXkXkXkXkXkXkXkXkXkXkXkXkXkXkXkXkXkXkXkXkXkXkX",
"kXkXkXkXkXkXkXkXkXkXkXkXkXkXkXkXkXkXkXkXkXkXkXkXkXkXkXkXkXkXkXkXkXkXkXkXkXkXkXkXkXkXkXkXkXkXkXkXkXkXkXkXkXkXkXkXkXkXkXkXkXkXkXkXkXkXkXkXkXkXkXkXkXkXkXkXkXkXkXkXkXkXkXkXkXkXkXkXkXkXkXkXkXkXkXkXkXkXkXkXkXkXkXkXkX",
"kXkXkXkXkXkXkXkXkXkXkXkXkXkXkXkXkXkXkXkXkXkXkXkXkXkXkXkXkXkXkXkXkXkXkXkXkXkXkXkXkXkXkXkXkXkXkXkXkXkXkXkXkXkXkXkXkXkXkXkXkXkXkXkXkXkXkXkXkXkXkXkXkXkXkXkXkXkXkXkXkXkXkXkXkXkXkXkXkXkXkXkXkXkXkXkXkXkXkXkXkXkXkXkXkX",
"kXkXkXkXkXkXkXkXkXkXkXkXkXkXkXkXkXkXkXkXkXkXkXkXkXkXkXkXkXkXkXkXkXkXkXkXkXkXkXkXkXkXkXkXkXkXkXkXkXkXkXkXkXkXkXkXkXkXkXkXkXkXkXkXkXkXkXkXkXkXkXkXkXkXkXkXkXkXkXkXkXkXkXkXkXkXkXkXkXkXkXkXkXkXkXkXkXkXkXkXkXkXkXkXkX",
"kXkXkXkXkXkXkXkXkXkXkXkXkXkXkXkXkXkXkXkXkXkXkXkXkXkXkXkXkXkXkXkXkXkXkXkXkXkXkXkXkXkXkXkXkXkXkXkXkXkXkXkXkXkXkXkXkXkXkXkXkXkXkXkXkXkXkXkXkXkXkXkXkXkXkXkXkXkXkXkXkXkXkXkXkXkXkXkXkXkXkXkXkXkXkXkXkXkXkXkXkXkXkXkXkX",
"kXkXkXkXkXkXkXkXkXkXkXkXkXkXkXkXkXkXkXkXkXkXkXkXkXkXkXkXkXkXkXkXkXkXkXkXkXkXkXkXkXkXkXkXkXkXkXkXkXkXkXkXo o o o o o o kXkXkXkXkXkXkXkXkXkXkXkXkXkXkXkXkXkXkXkXkXkXkXkXkXkXkXkXkXkXkXkXkXkXkXkXkXkXkXkXkXkXkXkXkXkX",
"kXkXkXkXkXkXkXkXkXkXkXkXkXkXkXkXkXkXkXkXkXkXkXkXkXkXkXkXkXkXkXkXkXkXkXkXkXkXkXkXkXkXkXkXkXkXkXkXkXkXkXO o o o o o o o o kXkXkXkXkXkXkXkXkXkXkXkXkXkXkXkXkXkXkXkXkXkXkXkXkXkXkXkXkXkXkXkXkXkXkXkXkXkXkXkXkXkXkXkXkX",
"kXkXkXkXkXkXkXkXkXkXkXkXkXkXkXkXkXkXkXkXkXkXkXkXkXkXkXkXkXkXkXkXkXkXkXkXkXkXkXkXkXkXkXkXkXkXkXkXkXkXo o o o o o o o o o o kXkXkXkXkXkXkXkXkXkXkXkXkXkXkXkXkXkXkXkXkXkXkXkXkXkXkXkXkXkXkXkXkXkXkXkXkXkXkXkXkXkXkXkX",
"kXkXkXkXkXkXkXkXkXkXkXkXkXkXkXkXkXkXkXkXkXkXkXkXkXkXkXkXkXkXkXkXkXkXkXkXkXkXkXkXkXkXkXkXkXkXkXkXkXO $ $ $ $ % % % $ $ O O o kXkXkXkXkXkXkXkXkXkXkXkXkXkXkXkXkXkXkXkXkXkXkXkXkXkXkXkXkXkXkXkXkXkXkXkXkXkXkXkXkXkXkX",
"kXkXkXkXkXkXkXkXkXkXkXkXkXkXkXkXkXkXkXkXkXkXkXkXkXkXkXkXkXkXkXkXkXkXkXkXkXkXkXkXkXkXkXkXkXkXkXkXkXD U D D U U U U U D D U E kXkXkXkXkXkXkXkXkXkXkXkXkXkXkXkXkXkXkXkXkXkXkXkXkXkXkXkXkXkXkXkXkXkXkXkXkXkXkXkXkXkXkX",
"kXkXkXkXkXkXkXkXkXkXkXkXkXkXkXkXkXkXkXkXkXkXkXkXkXkXkXkXkXkXkXkXkXkXkXkXkXkXkXkXkXkXkXkXkXkXkXkXE G.H.E H.J.J.J.J.H.H.H.H.J.L.kXkXkXkXkXkXkXkXkXkXkXkXkXkXkXkXkXkXkXkXkXkXkXkXkXkXkXkXkXkXkXkXkXkXkXkXkXkXkXkXkXkX",
"kXkXkXkXkXkXkXkXkXkXkXkXkXkXkXkXkXkXkXkXkXkXkXkXkXkXkXkXkXkXkXkXkXkXkXkXkXkXkXkXkXkXkXkXkXkXkXF.J.J.J.L.L.I.I.I.I.P.L.L.L.P.R.E.kXkXkXkXkXkXkXkXkXkXkXkXkXkXkXkXkXkXkXkXkXkXkXkXkXkXkXkXkXkXkXkXkXkXkXkXkXkXkXkXkX",
"kXkXkXkXkXkXkXkXkXkXkXkXkXkXkXkXkXkXkXkXkXkXkXkXkXkXkXkXkXkXkXkXkXkXkXkXkXkXkXkXkXkXkXkXkXI Y F.J.P.P.R.~.~.~.~.~.E.R.R.R.E.E.E.(.E.kXkXkXkXkXkXkXkXkXkXkXkXkXkXkXkXkXkXkXkXkXkXkXkXkXkXkXkXkXkXkXkXkXkXkXkXkXkXkX",
"kXkXkXkXkXkXkXkXkXkXkXkXkXkXkXkXkXkXkXkXkXkXkXkXkXkXkXkXkXkXkXkXkXkXkXkXkXkXkXkXkXkXkXkXI I F.K.J.P.R.~.~._._._./.~.(.~.(.E.E.(.(.(.(.kXkXkXkXkXkXkXkXkXkXkXkXkXkXkXkXkXkXkXkXkXkXkXkXkXkXkXkXkXkXkXkXkXkXkXkXkXkX",
"kXkXkXkXkXkXkXkXkXkXkXkXkXkXkXkXkXkXkXkXkXkXkXkXkXkXkXkXkXkXkXkXkXkXkXkXkXkXkXkXkXkXkXY Y Y F.J.P.I.~.~._.).).).).).).(.).).).).(.).(._.kXkXkXkXkXkXkXkXkXkXkXkXkXkXkXkXkXkXkXkXkXkXkXkXkXkXkXkXkXkXkXkXkXkXkXkXkX",
"kXkXkXkXkXkXkXkXkXkXkXkXkXkXkXkXkXkXkXkXkXkXkXkXkXkXkXkXkXkXkXkXkXkXkXkXkXkXkXkXkXkXkXR R U.U.U.W.^.^.^.`.`.`.`.`.].|.].]..X.X.X.X].].'.kXkXkXkXkXkXkXkXkXkXkXkXkXkXkXkXkXkXkXkXkXkXkXkXkXkXkXkXkXkXkXkXkXkXkXkXkX",
"kXkXkXkXkXkXkXkXkXkXkXkXkXkXkXkXkXkXkXkXkXkXkXkXkXkXkXkXkXkXkXkXkXkXkXkXkXkXkXkXkXkXkXY.Y.Y.!.}.}.{.{.{.|.|.|.|. X|. X XXXXXXX7XqXXXXXXXkXkXkXkXkXkXkXkXkXkXkXkXkXkXkXkXkXkXkXkXkXkXkXkXkXkXkXkXkXkXkXkXkXkXkXkXkX",
"kXkXkXkXkXkXkXkXkXkXkXkXkXkXkXkXkXkXkXkXkXkXkXkXkXkXkXkXkXkXkXkXkXkXkXkXkXkXkXkXkXkXkX!.!.!.}.4X5X3X}.}.}.}.3X3X3X3X5X3X7XwXeXeXeXwXwXwX7XkXkXkXkXkXkXkXkXkXkXkXkXkXkXkXkXkXkXkXkXkXkXkXkXkXkXkXkXkXkXkXkXkXkXkXkX",
"kXkXkXkXkXkXkXkXkXkXkXkXkXkXkXkXkXkXkXkXkXkXkXkXkXkXkXkXkXkXkXkXkXkXkXkXkXkXkXkXkXkXkX4X4X#X5X6X5X4X3X+X+X3XQ.+X+X@X6X6X9XaXdXdXdXeXeXeX7XkXkXkXkXkXkXkXkXkXkXkXkXkXkXkXkXkXkXkXkXkXkXkXkXkXkXkXkXkXkXkXkXkXkXkXkX",
"kXkXkXkXkXkXkXkXkXkXkXkXkXkXkXkXkXkXkXkXkXkXkXkXkXkXkXkXkXkXkXkXkXkXkXkXkXkXkXkXkXkXkX0X6X6X0X0X6X6X@X@XQ.Q.Q.OXOX&X>X:XyXaXjXhXgXdXsXaX0XkXkXkXkXkXkXkXkXkXkXkXkXkXkXkXkXkXkXkXkXkXkXkXkXkXkXkXkXkXkXkXkXkXkXkXkX",
"kXkXkXkXkXkXkXkXkXkXkXkXkXkXkXkXkXkXkXkXkXkXkXkXkXkXkXkXkXkXkXkXkXkXkXkXkXkXkXkXkXkXkXeXeX9X0XaX8X6XOXQ.<.<.5.4.f.k.&X-X1XpXfXhXhXgXgXsX9X#XkXkXkXkXkXkXkXkXkXkXkXkXkXkXkXkXkXkXkXkXkXkXkXkXkXkXkXkXkXkXkXkXkXkXkX",
"kXkXkXkXkXkXkXkXkXkXkXkXkXkXkXkXkXkXkXkXkXkXkXkXkXkXkXkXkXkXkXkXkXkXkXkXkXkXkXkXkXkXkXaXaXtXaXtXrX:XOX<.=.] } } 2.i.v.=X<XiXfXhXhXhXgXjXtX#X(         - K H kXkXkXkXkXkXkXkXkXkXkXkXkXkXkXkXkXkXkXkXkXkXkXkXkXkXkX",
"kXkXkXkXkXkXkXkXkXkXkXkXkXkXkXkXkXkXkXkXkXkXkXkXkXkXkXkXkXkXkXkXkXkXkXkXkXkXkXkXkXkXkX9XtXtXtXtX8X>X&X=.] { { { 6.8.i.;X<XuXpXhXhXfXfXpXyX%X1.x d   X s H K kXkXkXkXkXkXkXkXkXkXkXkXkXkXkXkXkXkXkXkXkXkXkXkXkXkXkX",
"kXkXkXkXkXkXkXkXkXkXkXkXkXkXkXkXkXkXkXkXkXkXkXkXkXkXkXkXkXkXkXkXkXkXkXkXkXkXkXkXkXkX#X$X9XrXrX8X:X&Xc.:.[ { { 6.6.8.a.Z.,X1XiXfXfXfXpXuX:X%Xr...f f x T P A kXkXkXkXkXkXkXkXkXkXkXkXkXkXkXkXkXkXkXkXkXkXkXkXkXkXkX",
"kXkXkXkXkXkXkXkXkXkXkXkXkXkXkXkXkXkXkXkXkXkXkXkXkXkXkXkXkXkXkXkXkXkXkXkXkXkXkXkXkX( oX@X%X$X:X>X>X&Xe.=.[ { { { 8.p.a.Z.,X<X1XiXpXuXuX1X-X*Xw.-.o._ M ! T C kXkXkXkXkXkXkXkXkXkXkXkXkXkXkXkXkXkXkXkXkXkXkXkXkXkXkX",
"kXkXkXkXkXkXkXkXkXkXkXkXkXkXkXkXkXkXkXkXkXkXkXkXkXkXkXkXkXkXkXkXkXkXkXkXkXkXkX  8 Q ( Q.OXOX%X&X&X&X<.%.] ] } u.p.p.v.V.;X,X<X<X1X1X1X<X-X*Xb.s.0.;.X.^ W C kXkXkXkXkXkXkXkXkXkXkXkXkXkXkXkXkXkXkXkXkXkXkXkXkXkXkX",
"kXkXkXkXkXkXkXkXkXkXkXkXkXkXkXkXkXkXkXkXkXkXkXkXkXkXkXkXkXkXkXkXkXkXkXkXkXkX    - T ~ 1.r.r.r.&X5.>.=.%.*.*.2.y.u.v.m.V.C.,X,X,X-X-X-X=X*XN.b.l.h.0.-.O.W C kXkXkXkXkXkXkXkXkXkXkXkXkXkXkXkXkXkXkXkXkXkXkXkXkXkXkX",
"kXkXkXkXkXkXkXkXkXkXkXkXkXkXkXkXkXkXkXkXkXkXkXkXkXkXkXkXkXkXkXkXkXkXkXkXkX. . @ $ x M  .$.=.4.4.5.=.%.%.%.:.t.d.k.b.n.B.C.C.C.C.C.C.C.C.C.V.B.b.l.h.q.+.~ V kX4 5 C K G kXkXkXkXkXkXkXkXkXkXkXkXkXkXkXkXkXkXkXkXkX",
"kXkXkXkXkXkXkXkXkXkXkXkXkXkXkXkXkXkXkXkXkXkXkXkXkXkXkXkXkXkXkXkXkXkXkXkXkX* * 3 g c )  .$.` *.*.2.*.%.=.:.4.s.g.l.b.B.B.B.M.M.n.i.M.M.V.Z.Z.Z.B.b.h.e.#.~ 6 4 5 5 V A G kXkXkXkXkXkXkXkXkXkXkXkXkXkXkXkXkXkXkXkXkX",
"kXkXkXkXkXkXkXkXkXkXkXkXkXkXkXkXkXkXkXkXkXkXkXkXkXkXkXkXkXkXkXkXkXkXkXkXu u g j c M _ _ ' ' ' ] *.2.2.2.>.d.d.x.b.m.B.B.M.b.M.i.i.i.a.D.S.A.A.V.n.l.w.#.~ 6 4 4 5 V A G kXkXkXkXkXkXkXkXkXkXkXkXkXkXkXkXkXkXkXkXkX",
"kXkXkXkXkXkXkXkXkXkXkXkXkXkXkXkXkXkXkXkXkXkXkXkXkXkXkXkXkXkXkXkXkXkXkXj x x c m ) _ _ ` ' ' [ ] 2.2.4.4.d.d.x.z.b.m.B.D.B.M.M.a.a.a.a.D.S.A.;XC.n.l.w.#.~ Z 4 5 5 V A G kXkXkXkXkXkXkXkXkXkXkXkXkXkXkXkXkXkXkXkXkX",
"kXkXkXkXkXkXkXkXkXkXkXkXkXkXkXkXkXkXkXkXkXkXkXkXkXkXkXkXkXkXkXkXkX* y x x c M  . . .` ` ` *.*.*.2.4.4.g.k.x.z.n.N.V.V.V.V.V.M.M.M.M.D.D.A.A.A.C.N.l.w.#.~ 6 4 4 5 V A G kXkXkXkXkXkXkXkXkXkXkXkXkXkXkXkXkXkXkXkXkX",
"kXkXkXkXkXkXkXkXkXkXkXkXkXkXkXkXkXkXkXkXkXkXkXkXkXkXkXkXkXkXkXkX@ - e x c M )  .$.` $.$.` *.&.4.4.4.g.v.z.n.n.N.B.V.C.V.V.D.V.V.B.B.D.D.A.A.A.V.N.l.w.#.~ 6 4 4 5 V A G kXkXkXkXkXkXkXkXkXkXkXkXkXkXkXkXkXkXkXkXkX",
"kXkXkXkXkXkXkXkXkXkXkXkXkXkXkXkXkXkXkXkXkXkXkXkXkXkXkXkXkXkXkX@ @ * y x c |  .` %.%.&.*.%.%.&.:.4.4.x.v.N.N.B.B.B.V.V.V.V.V.V.V.V.V.V.D.A.A.Z.B.n.j.e.#.~ 6 5 5 5 V A G kXkXkXkXkXkXkXkXkXkXkXkXkXkXkXkXkXkXkXkXkX",
"kXkXkXkXkXkXkXkXkXkXkXkXkXkXkXkXkXkXkXkXkXkXkXkXkXkXkXkXkXkXkX@ @ & y c )  .$.%.=.3.2.2.%.%.&.:.g.g.x.v.N.B.B.B.N.N.N.N.N.N.m.m.m.B.B.B.Z.V.V.b.l.j.e.#.~ 6 5 5 5 V A G kXkXkXkXkXkXkXkXkXkXkXkXkXkXkXkXkXkXkXkXkX",
"kXkXkXkXkXkXkXkXkXkXkXkXkXkXkXkXkXkXkXkXkXkXkXkXkXkXkXkXkXkX@ @ @ @ u m  .1.=.4.4.4.4.4.:.%.=.3.g.g.v.v.C.V.B.n.b.b.b.l.l.l.l.l.z.l.b.b.m.N.b.l.j.w.q.O.! C kX5 Z C A G kXkXkXkXkXkXkXkXkXkXkXkXkXkXkXkXkXkXkXkXkX",
"kXkXkXkXkXkXkXkXkXkXkXkXkXkXkXkXkXkXkXkXkXkXkXkXkXkXkXkXkX& @ @ @ - g M  .=.4.5.g.4.g.4.2.&.:.3.d.x.v.V.V.V.N.b.l.h.w.0.0.s.s.s.s.s.s.h.h.h.s.t.e.-.#.O.W C kXZ Z C K G kXkXkXkXkXkXkXkXkXkXkXkXkXkXkXkXkXkXkXkXkX",
"kXkXkXkXkXkXkXkXkXkXkXkXkXkXkXkXkXkXkXkXkXkXkXkXkXkXkXkX= & @ + + & g / X.>.d.g.x.x.g.4.3.:.:.3.g.g.v.V.C.V.n.l.s.9.q.;.;.;.;.-.q.-.-.q.9.9.-.-.#.@.O.^ W kXkXkXV C G G kXkXkXkXkXkXkXkXkXkXkXkXkXkXkXkXkXkXkXkXkX",
"kXkXkXkXkXkXkXkXkXkXkXkXkXkXkXkXkXkXkXkXkXkXkXkXkXkX, , > @ @ + + @ g ^ @.0.k.z.v.v.v.g.4.3.3.4.5.v.M.V.V.V.b.j.0.@.....^ ^ ..........X.X.X.X.....^ / W T kXkXkXC S G G kXkXkXkXkXkXkXkXkXkXkXkXkXkXkXkXkXkXkXkXkX",
"kXkXkXkXkXkXkXkXkXkXkXkXkXkXkXkXkXkXkXkXkXkXkXkXkX, , , > & @ + + @ h ^ X.9.h.n.B.B.b.d.y.:.:.4.d.x.m.V.V.n.b.w.q...B v k z v b b b n n n n n b b W z T P kXkXkXS A G J kXkXkXkXkXkXkXkXkXkXkXkXkXkXkXkXkXkXkXkXkX",
"kXkXkXkXkXkXkXkXkXkXkXkXkXkXkXkXkXkXkXkXkXkXkXkXkX, , , > - @ + + @ h ^ q.9.h.B.B.M.b.g.y.:.%.>.y.k.m.M.B.b.h.q.X.n u * + @ = w y y y y y y y y y y a a G H kXG L G G G kXkXkXkXkXkXkXkXkXkXkXkXkXkXkXkXkXkXkXkXkX",
"kXkXkXkXkXkXkXkXkXkXkXkXkXkXkXkXkXkXkXkXkXkXkXkXkX, > , > * & @ + & h B @.9.w.b.b.m.k.y.:.%.%.:.4.d.b.b.b.l.w.-.^ v +       . + @ @ @ @ + @ @ & - - 7 8 t G P J H G G J kXkXkXkXkXkXkXkXkXkXkXkXkXkXkXkXkXkXkXkXkX",
"kXkXkXkXkXkXkXkXkXkXkXkXkXkXkXkXkXkXkXkXkXkXkXkX< , , , < - & @ @ @ u b ..q.w.h.l.h.y.0.;.$.$.$.:.0.s.h.h.w.q.X.B u +         . + + + + @ @ & & & - - q t a a a G G G G kXkXkXkXkXkXkXkXkXkXkXkXkXkXkXkXkXkXkXkXkX",
"kXkXkXkXkXkXkXkXkXkXkXkXkXkXkXkXkXkXkXkXkXkXkXkXkX, , < 1 ; & @ @ @ y v ^ @.q.9.0.0.>.;.o._ _ o.o.%.>.9.9.q.@...b y @         . + + @ @ @ - - - - - - q 0 r a a a a G G kXkXkXkXkXkXkXkXkXkXkXkXkXkXkXkXkXkXkXkXkX",
"kXkXkXkXkXkXkXkXkXkXkXkXkXkXkXkXkXkXkXkXkXkXkXkXkX> , , < = - @ & & s z B ^ ..@.@.@.o...| M M M | ..X.@.@.X.^ N v s @ + . + + @ @ @ & - - 4 4 4 4 7 7 q < 2 w i p a K G kXkXkXkXkXkXkXkXkXkXkXkXkXkXkXkXkXkXkXkXkX",
"kXkXkXkXkXkXkXkXkXkXkXkXkXkXkXkXkXkXkXkXkXkXkXkXkX, , , 1 > - - & * w h v b B ^ ^ N N n m c z c m M N ^ N N b v h w & @ @ @ @ @ @ - ; 7 8 8 8 8 8 0 0 < < , 3 9 i p p G kXkXkXkXkXkXkXkXkXkXkXkXkXkXkXkXkXkXkXkXkX",
"kXkXkXkXkXkXkXkXkXkXkXkXkXkXkXkXkXkXkXkXkXkXkXkXkX, , < , < < = = > w w y u h k v k k h g g g u h h k k k k u u y w > = * * # > > < 2 9 t A K G G t 9 2 , , 1 1 9 p a G kXkXkXkXkXkXkXkXkXkXkXkXkXkXkXkXkXkXkXkXkX",
"kXkXkXkXkXkXkXkXkXkXkXkXkXkXkXkXkXkXkXkXkXkXkXkXkX, , , , 1 1 , 1 , , : * & & & & & @ & * * * ; @ @ & & & & @ & = > > , , , % , > 1 9 r t a G G G p t 9 1 , , 1 r r K G kXkXkXkXkXkXkXkXkXkXkXkXkXkXkXkXkXkXkXkXkX",
"kXkXkXkXkXkXkXkXkXkXkXkXkXkXkXkXkXkXkXkXkXkXkXkXkX, , , , 1 w w 3 1 : & @ @ + + + + + @ @ @ @ @ @ @ + + + + @ @ @ * # 3 w % % % > 1 2 t p G J G G t p i 2 1 1 9 r p K G kXkXkXkXkXkXkXkXkXkXkXkXkXkXkXkXkXkXkXkXkX",
"kXkXkXkXkXkXkXkXkXkXkXkXkXkXkXkXkXkXkXkXkXkXkXkXkX, , , , w 1 w 3 3 : & @ @ + . . . + @ @ @ @ @ @ + + . + . + @ & & > 3 3 w % % > < 2 r p G G J G G p p r 9 9 r r p a G kXkXkXkXkXkXkXkXkXkXkXkXkXkXkXkXkXkXkXkXkX",
"kXkXkXkXkXkXkXkXkXkXkXkXkXkXkXkXkXkXkXkXkXkXkXkXkX, , , , 1 1 w 3 1 > & & @ @ + + + + + @ @ @ + @ + + + + + + @ @ * > , 3 % % % % 1 1 r p a G G G G a p p r r t p p G G kXkXkXkXkXkXkXkXkXkXkXkXkXkXkXkXkXkXkXkXkX",
"kXkXkXkXkXkXkXkXkXkXkXkXkXkXkXkXkXkXkXkXkXkXkXkXkX, , , , < 1 1 1 1 > = * @ @ @ @ @ @ @ @ @ * @ @ @ @ @ @ @ @ @ @ = % > $ % % # % , 1 r p p G G H G G G p t p p p K G G kXkXkXkXkXkXkXkXkXkXkXkXkXkXkXkXkXkXkXkXkX",
"kXkXkXkXkXkXkXkXkXkXkXkXkXkXkXkXkXkXkXkXkXkXkXkXkX, , , , 1 1 1 , , , > > : = = # * @ # = = : : = = = @ * # = : > % > % % % # # % , 2 r p p G G H H G G G G G p G G K a kXkXkXkXkXkXkXkXkXkXkXkXkXkXkXkXkXkXkXkXkX",
"kXkXkXkXkXkXkXkXkXkXkXkXkXkXkXkXkXkXkXkXkXkXkXkXkX, , , 1 1 1 1 > , , , , , > , , , , , % , , , , , > , > > > , , , , , > % % % > 1 9 r p p G G H H H J G G G G G G G G kXkXkXkXkXkXkXkXkXkXkXkXkXkXkXkXkXkXkXkXkX",
"kXkXkXkXkXkXkXkXkXkXkXkXkXkXkXkXkXkXkXkXkXkXkXkXkX, , , , 1 , , , , , , , 1 1 1 < 1 1 < 1 2 < < 1 1 1 1 1 1 1 1 1 1 1 1 1 , , , 1 1 9 r p p G G H H J G H G G H G G G G kXkXkXkXkXkXkXkXkXkXkXkXkXkXkXkXkXkXkXkXkX",
"kXkXkXkXkXkXkXkXkXkXkXkXkXkXkXkXkXkXkXkXkXkXkXkXkX, , , , 1 , , , > , , < 1 2 9 2 9 2 9 2 9 9 2 2 2 9 2 2 9 2 2 9 9 9 2 2 2 2 2 2 9 r p p p K G G G G J J J G G G G G G kXkXkXkXkXkXkXkXkXkXkXkXkXkXkXkXkXkXkXkXkX",
"kXkXkXkXkXkXkXkXkXkXkXkXkXkXkXkXkXkXkXkXkXkXkXkXkX, < , 1 , , , > > , , 1 9 9 r r t r r r r r r r r r t r r r t r r r t r r r r r r i p p G G G J J J J G G J H H G G G kXkXkXkXkXkXkXkXkXkXkXkXkXkXkXkXkXkXkXkXkX",
"kXkXkXkXkXkXkXkXkXkXkXkXkXkXkXkXkXkXkXkXkXkXkXkXkX, , , , 1 , # # # > 1 1 9 r r t p p p t p p p p t t p p t t p r t p p p p t i p p p p p G G G G G J J J G H G G G G G kXkXkXkXkXkXkXkXkXkXkXkXkXkXkXkXkXkXkXkXkX",
"kXkXkXkXkXkXkXkXkXkXkXkXkXkXkXkXkXkXkXkXkXkXkXkXkX, , > 1 , , > # > > 1 9 r t p G a G p a p p a a a p a a a a t p p a p p p p p p G p G G G G G G J G J G G G G G G G G kXkXkXkXkXkXkXkXkXkXkXkXkXkXkXkXkXkXkXkXkX",
"kXkXkXkXkXkXkXkXkXkXkXkXkXkXkXkXkXkXkXkXkXkXkXkXkX, , , < 1 > % % % 1 1 r r p p G G G G G G G G a G G G G G G G K G G G G a G G G G K G G G G G G G J G G G G G G G G G kXkXkXkXkXkXkXkXkXkXkXkXkXkXkXkXkXkXkXkXkX",
"kXkXkXkXkXkXkXkXkXkXkXkXkXkXkXkXkXkXkXkXkXkXkXkXkX, > , , 1 1 , , , 1 2 r p p G G G J G G G G G G G G G G G G G G G G G H H G G G G G G G G G G G G G L J G G G G G G kXkXkXkXkXkXkXkXkXkXkXkXkXkXkXkXkXkXkXkXkXkX",
"kXkXkXkXkXkXkXkXkXkXkXkXkXkXkXkXkXkXkXkXkXkXkXkXkX, , > 1 1 1 1 1 1 2 r t p G G J J J J J G G G J G G G J G G J G G J G G J G G G J G G G G G G G G G L G G G G G G G kXkXkXkXkXkXkXkXkXkXkXkXkXkXkXkXkXkXkXkXkXkX",
"kXkXkXkXkXkXkXkXkXkXkXkXkXkXkXkXkXkXkXkXkXkXkXkXkX, > , 1 1 9 1 9 r r p p p G H G J G G J G J G G G G J G J G G G J G G J G G G H G H H G G G G G G H G G G G G G G kXkXkXkXkXkXkXkXkXkXkXkXkXkXkXkXkXkXkXkXkXkXkX",
"kXkXkXkXkXkXkXkXkXkXkXkXkXkXkXkXkXkXkXkXkXkXkXkXkX> > 1 1 9 9 9 r r p p p G K G G H H H G G H H G G G H G G G H G G J G G G H G H G G G G G G G G G J J H G G G G kXkXkXkXkXkXkXkXkXkXkXkXkXkXkXkXkXkXkXkXkXkXkXkX",
"kXkXkXkXkXkXkXkXkXkXkXkXkXkXkXkXkXkXkXkXkXkXkXkX> > > , w 9 9 i p p p K K a G G G G G G G G G G G H G G G H G G G G G G G G G G G G G G G G G G G H J J H G G G G kXkXkXkXkXkXkXkXkXkXkXkXkXkXkXkXkXkXkXkXkXkXkXkX",
"kXkXkXkXkXkXkXkXkXkXkXkXkXkXkXkXkXkXkXkXkXkXkXkXkX% > , 2 9 i p p G a G G G G G G G G G G K G G G G G G G G G K G G G G G G G G G G G G G G G G H J J J J G G G kXkXkXkXkXkXkXkXkXkXkXkXkXkXkXkXkXkXkXkXkXkXkXkXkX",
"kXkXkXkXkXkXkXkXkXkXkXkXkXkXkXkXkXkXkXkXkXkXkXkXkX# > > 1 9 i p p K H G H H G G G G G G G G G G G G G G G G G G G G G G G G G G G G G G G G G G G G J J J K K G kXkXkXkXkXkXkXkXkXkXkXkXkXkXkXkXkXkXkXkXkXkXkXkXkX",
"kXkXkXkXkXkXkXkXkXkXkXkXkXkXkXkXkXkXkXkXkXkXkXkXkX# # , 1 9 i p K G J J H H H G G G G a G G G G G G a G G G G G G G G G G G G G G G G K G G G G G J J L H G G G kXkXkXkXkXkXkXkXkXkXkXkXkXkXkXkXkXkXkXkXkXkXkXkXkX",
"kXkXkXkXkXkXkXkXkXkXkXkXkXkXkXkXkXkXkXkXkXkXkXkXkXkX# , 1 9 i K K H J J J H G G G G G G G G G G G G G G G G G G G G G G G G G G G G G G G G G G G J L J J G G G kXkXkXkXkXkXkXkXkXkXkXkXkXkXkXkXkXkXkXkXkXkXkXkXkX",
"kXkXkXkXkXkXkXkXkXkXkXkXkXkXkXkXkXkXkXkXkXkXkXkXkXkXkX, 1 9 i K K H L L J J H G G G G G G G G G G G G G G G G G G a G G G G G G a G G G G G G G H J L L L G G G kXkXkXkXkXkXkXkXkXkXkXkXkXkXkXkXkXkXkXkXkXkXkXkXkX",
"kXkXkXkXkXkXkXkXkXkXkXkXkXkXkXkXkXkXkXkXkXkXkXkXkXkXkXkXkXi p K K J L L L J H G G G G G G G G G G G G G G G G G G G G G G G G G G G G G G G G G H J L L L H G G kXkXkXkXkXkXkXkXkXkXkXkXkXkXkXkXkXkXkXkXkXkXkXkXkX",
"kXkXkXkXkXkXkXkXkXkXkXkXkXkXkXkXkXkXkXkXkXkXkXkXkXkXkXkXkXkXa G K G L L L L H G G G G G G G G G G G G G G G G G G G G G G G G G G G G G G G G G G J L L L H G G kXkXkXkXkXkXkXkXkXkXkXkXkXkXkXkXkXkXkXkXkXkXkXkXkX",
"kXkXkXkXkXkXkXkXkXkXkXkXkXkXkXkXkXkXkXkXkXkXkXkXkXkXkXkXkXkXkXG G G J L L J G G G G G G G G G G K G G G G G G G G G G G G G G G G G G G G G G G J J J L L G G G kXkXkXkXkXkXkXkXkXkXkXkXkXkXkXkXkXkXkXkXkXkXkXkXkX",
"kXkXkXkXkXkXkXkXkXkXkXkXkXkXkXkXkXkXkXkXkXkXkXkXkXkXkXkXkXkXkXG H G G H G G G G G G K G G G K G G G G G G G G G a G G G a G G G G G G G G G G G G G H G G G G G kXkXkXkXkXkXkXkXkXkXkXkXkXkXkXkXkXkXkXkXkXkXkXkXkX",
"kXkXkXkXkXkXkXkXkXkXkXkXkXkXkXkXkXkXkXkXkXkXkXkXkXkXkXkXkXkXkXkXG G G G G G G G H H H H G G H H G G G G G H G G J G H G H G H G G G G H G H G G G G G G G G G kXkXkXkXkXkXkXkXkXkXkXkXkXkXkXkXkXkXkXkXkXkXkXkXkXkX",
"kXkXkXkXkXkXkXkXkXkXkXkXkXkXkXkXkXkXkXkXkXkXkXkXkXkXkXkXkXkXkXkXkXG G G G G G K H H J J J H H H J J J H H G J G J G H H J G J H J H J J J J J H G G G G G G kXkXkXkXkXkXkXkXkXkXkXkXkXkXkXkXkXkXkXkXkXkXkXkXkXkXkX",
"kXkXkXkXkXkXkXkXkXkXkXkXkXkXkXkXkXkXkXkXkXkXkXkXkXkXkXkXkXkXkXkXkXkXkXG K G G H J L L L J J J J J J J J J J J J J J J J J J J J J J J J L L J H G G G H G kXkXkXkXkXkXkXkXkXkXkXkXkXkXkXkXkXkXkXkXkXkXkXkXkXkXkXkX",
"kXkXkXkXkXkXkXkXkXkXkXkXkXkXkXkXkXkXkXkXkXkXkXkXkXkXkXkXkXkXkXkXkXkXkXkXG G G H L L L L L J J L J J J J L J J J L J J J J J J J J J J L L L L H G G G kXkXkXkXkXkXkXkXkXkXkXkXkXkXkXkXkXkXkXkXkXkXkXkXkXkXkXkXkXkX",
"kXkXkXkXkXkXkXkXkXkXkXkXkXkXkXkXkXkXkXkXkXkXkXkXkXkXkXkXkXkXkXkXkXkXkXkXkXG G G L L L L J J H H J J J J J H J J J J J J J J J J J J J L L L L H G G H kXkXkXkXkXkXkXkXkXkXkXkXkXkXkXkXkXkXkXkXkXkXkXkXkXkXkXkXkXkX",
"kXkXkXkXkXkXkXkXkXkXkXkXkXkXkXkXkXkXkXkXkXkXkXkXkXkXkXkXkXkXkXkXkXkXkXkXkXG G G G L H G G G G G G G G G G G G G G G G G G G G G G G G G J L G G G G kXkXkXkXkXkXkXkXkXkXkXkXkXkXkXkXkXkXkXkXkXkXkXkXkXkXkXkXkXkXkX",
"kXkXkXkXkXkXkXkXkXkXkXkXkXkXkXkXkXkXkXkXkXkXkXkXkXkXkXkXkXkXkXkXkXkXkXkXkXkXG G G G G G G G G G G G G G G G G G G G G G G G G G G G G G G G G G G kXkXkXkXkXkXkXkXkXkXkXkXkXkXkXkXkXkXkXkXkXkXkXkXkXkXkXkXkXkXkXkX",
"kXkXkXkXkXkXkXkXkXkXkXkXkXkXkXkXkXkXkXkXkXkXkXkXkXkXkXkXkXkXkXkXkXkXkXkXkXkXG G G G G G G K G G G K K G K G G G G K K G K G G G G G G G G G G G G kXkXkXkXkXkXkXkXkXkXkXkXkXkXkXkXkXkXkXkXkXkXkXkXkXkXkXkXkXkXkXkX",
"kXkXkXkXkXkXkXkXkXkXkXkXkXkXkXkXkXkXkXkXkXkXkXkXkXkXkXkXkXkXkXkXkXkXkXkXkXkXkXkXG G G G G G G G G G G G G K G G G G G G K G G G G G G G G G G kXkXkXkXkXkXkXkXkXkXkXkXkXkXkXkXkXkXkXkXkXkXkXkXkXkXkXkXkXkXkXkXkXkX",
"kXkXkXkXkXkXkXkXkXkXkXkXkXkXkXkXkXkXkXkXkXkXkXkXkXkXkXkXkXkXkXkXkXkXkXkXkXkXkXkXkXkXkXkXkXkXkXkXkXkXkXkXkXkXkXkXkXkXkXkXkXkXkXkXkXkXkXkXkXkXkXkXkXkXkXkXkXkXkXkXkXkXkXkXkXkXkXkXkXkXkXkXkXkXkXkXkXkXkXkXkXkXkXkXkX",
"kXkXkXkXkXkXkXkXkXkXkXkXkXkXkXkXkXkXkXkXkXkXkXkXkXkXkXkXkXkXkXkXkXkXkXkXkXkXkXkXkXkXkXkXkXkXkXkXkXkXkXkXkXkXkXkXkXkXkXkXkXkXkXkXkXkXkXkXkXkXkXkXkXkXkXkXkXkXkXkXkXkXkXkXkXkXkXkXkXkXkXkXkXkXkXkXkXkXkXkXkXkXkXkXkX",
"kXkXkXkXkXkXkXkXkXkXkXkXkXkXkXkXkXkXkXkXkXkXkXkXkXkXkXkXkXkXkXkXkXkXkXkXkXkXkXkXkXkXkXkXkXkXkXkXkXkXkXkXkXkXkXkXkXkXkXkXkXkXkXkXkXkXkXkXkXkXkXkXkXkXkXkXkXkXkXkXkXkXkXkXkXkXkXkXkXkXkXkXkXkXkXkXkXkXkXkXkXkXkXkXkX",
"kXkXkXkXkXkXkXkXkXkXkXkXkXkXkXkXkXkXkXkXkXkXkXkXkXkXkXkXkXkXkXkXkXkXkXkXkXkXkXkXkXkXkXkXkXkXkXkXkXkXkXkXkXkXkXkXkXkXkXkXkXkXkXkXkXkXkXkXkXkXkXkXkXkXkXkXkXkXkXkXkXkXkXkXkXkXkXkXkXkXkXkXkXkXkXkXkXkXkXkXkXkXkXkXkX",
"kXkXkXkXkXkXkXkXkXkXkXkXkXkXkXkXkXkXkXkXkXkXkXkXkXkXkXkXkXkXkXkXkXkXkXkXkXkXkXkXkXkXkXkXkXkXkXkXkXkXkXkXkXkXkXkXkXkXkXkXkXkXkXkXkXkXkXkXkXkXkXkXkXkXkXkXkXkXkXkXkXkXkXkXkXkXkXkXkXkXkXkXkXkXkXkXkXkXkXkXkXkXkXkXkX",
"kXkXkXkXkXkXkXkXkXkXkXkXkXkXkXkXkXkXkXkXkXkXkXkXkXkXkXkXkXkXkXkXkXkXkXkXkXkXkXkXkXkXkXkXkXkXkXkXkXkXkXkXkXkXkXkXkXkXkXkXkXkXkXkXkXkXkXkXkXkXkXkXkXkXkXkXkXkXkXkXkXkXkXkXkXkXkXkXkXkXkXkXkXkXkXkXkXkXkXkXkXkXkXkXkX"
};
