/* XPM */
static char *result[] = {
/* columns rows colors chars-per-pixel */
"105 90 229 2 ",
"   c #000001",
".  c #00000C",
"X  c #190000",
"o  c #000013",
"O  c #00001C",
"+  c #090A1F",
"@  c #160C1C",
"#  c #16101F",
"$  c #000122",
"%  c #030B23",
"&  c #00002B",
"*  c #070C27",
"=  c #120721",
"-  c #031127",
";  c #161223",
":  c #191425",
">  c #1A1628",
",  c #1C1A2C",
"<  c #181628",
"1  c #000033",
"2  c #00003D",
"3  c #000D39",
"4  c #011C3C",
"5  c #031436",
"6  c #1D1E32",
"7  c #121D37",
"8  c #270222",
"9  c #231A29",
"0  c #391626",
"q  c #201F35",
"w  c #1F2135",
"e  c #1D233C",
"r  c #0C213F",
"t  c #2B2228",
"y  c #3B2A2B",
"u  c #342628",
"i  c #222135",
"p  c #22253C",
"a  c #24283F",
"s  c #3A3039",
"d  c #4E0A00",
"f  c #572D09",
"g  c #713100",
"h  c #452B2C",
"j  c #54272B",
"k  c #45322D",
"l  c #4B342E",
"z  c #57342F",
"x  c #483734",
"c  c #543D34",
"v  c #583C35",
"b  c #663933",
"n  c #401C27",
"m  c #5C4336",
"M  c #5D4339",
"N  c #56403A",
"B  c #684839",
"V  c #7C473A",
"C  c #75533E",
"Z  c #78563F",
"A  c #7C4600",
"S  c #000241",
"D  c #000B42",
"F  c #001542",
"G  c #001C43",
"H  c #012444",
"J  c #072645",
"K  c #152542",
"L  c #1B2643",
"P  c #1D2944",
"I  c #152946",
"U  c #00275E",
"Y  c #222741",
"T  c #262B44",
"R  c #292D46",
"E  c #292E49",
"W  c #262D48",
"Q  c #2B314C",
"!  c #3A3344",
"~  c #342E44",
"^  c #003E6C",
"/  c #003061",
"(  c #0B3D6D",
")  c #493846",
"_  c #543D47",
"`  c #623F46",
"'  c #004273",
"]  c #584448",
"[  c #4F414A",
"{  c #6A4746",
"}  c #7C5A44",
"|  c #775545",
" . c #744E4A",
".. c #6B5C67",
"X. c #944E07",
"o. c #B45718",
"O. c #AC5506",
"+. c #834A3A",
"@. c #8A523E",
"#. c #915437",
"$. c #B45926",
"%. c #A85A37",
"&. c #B05C35",
"*. c #B86537",
"=. c #BA682C",
"-. c #B4661E",
";. c #C4703A",
":. c #835E45",
">. c #865747",
",. c #975946",
"<. c #824E49",
"1. c #A55E47",
"2. c #866147",
"3. c #8B6549",
"4. c #886349",
"5. c #946B4D",
"6. c #9A654A",
"7. c #9C704F",
"8. c #8C6655",
"9. c #966953",
"0. c #9D7251",
"q. c #A6634A",
"w. c #AB664B",
"e. c #A9694B",
"r. c #B56544",
"t. c #B2664B",
"y. c #B66C4D",
"u. c #B96D4D",
"i. c #A46D55",
"p. c #B66F50",
"a. c #B86F50",
"s. c #A27453",
"d. c #A67956",
"f. c #A97B57",
"g. c #AC7D59",
"h. c #A87456",
"j. c #B47252",
"k. c #BC7252",
"l. c #B97B59",
"z. c #BB7F4F",
"x. c #99777A",
"c. c #C57547",
"v. c #C27453",
"b. c #C37A56",
"n. c #C87C58",
"m. c #CA7750",
"M. c #C47D61",
"N. c #B3825B",
"B. c #BA855D",
"V. c #BD895F",
"C. c #AF815A",
"Z. c #AE8160",
"A. c #BE8B61",
"S. c #B9877C",
"D. c #C5835D",
"F. c #CC845D",
"G. c #CA885B",
"H. c #D4825D",
"J. c #D7865A",
"K. c #D38A52",
"L. c #C38D63",
"P. c #CB8B65",
"I. c #D48C62",
"U. c #DB8E63",
"Y. c #C69064",
"T. c #CC9466",
"R. c #CE9668",
"E. c #C99369",
"W. c #DA9365",
"Q. c #D29768",
"!. c #D49A6B",
"~. c #DA9D6C",
"^. c #D69466",
"/. c #C68B75",
"(. c #D18F77",
"). c #E28D64",
"_. c #E49C6C",
"`. c #E69769",
"'. c #DDA16E",
"]. c #DEA370",
"[. c #E5A26E",
"{. c #ECA16F",
"}. c #E3A572",
"|. c #E7A974",
" X c #ECAC76",
".X c #ECAA75",
"XX c #F3AF78",
"oX c #F4AC76",
"OX c #F4B37A",
"+X c #FAB57C",
"@X c #003F80",
"#X c #004987",
"$X c #005397",
"%X c #0A5493",
"&X c #0061B2",
"*X c #0567B0",
"=X c #005FAF",
"-X c #55709E",
";X c #0072CA",
":X c #0076D0",
">X c #7E84A5",
",X c #0385DC",
"<X c #0297EC",
"1X c #0092EC",
"2X c #66B4FE",
"3X c #65AAF0",
"4X c #5D8CC6",
"5X c #A99AA9",
"6X c #D39984",
"7X c #D9AA9A",
"8X c #D4AFA5",
"9X c #C5A9AA",
"0X c #E7BFB0",
"qX c #EAC8BB",
"wX c #9AB0D9",
"eX c #98C9FE",
"rX c #BCD8FA",
"tX c #D1C8D3",
"yX c #EDD3CA",
"uX c #F9E4D9",
"iX c #CDDEFA",
"pX c #DDF4FF",
"aX c #C9E7FF",
"sX c #FFF3EC",
"dX c #F4FEFF",
"fX c #FFFFFE",
"gX c #FEF7F2",
"hX c #F0ECEE",
"jX c None",
/* pixels */
"jXjXjXjXjXjXjXjXjXjXjXjXjXjXjXjXjXjXjXjXjXjXjXjXjXjXjXjXjXjXjXjXjXjXjXjXjXjXjXjXjXjXjXjXjXjXjXjXjXjXjXjXjXjXjXjXjXjXjXjXjXjXjXjXjXjXjXjXjXjXjXjXjXjXjXjXjXjXjXjXjXjXjXjXjXjXjXjXjXjXjXjXjXjXjXjXjXjXjXjXjXjXjXjXjX",
"jXjXjXjXjXjXjXjXjXjXjXjXjXjXjXjXjXjXjXjXjXjXjXjXjXjXjXjXjXjXjXjXjXjXjXjXjXjXjXjXjXjXjXjXjXjXjXjXjXjXjXjXjXjXjXjXjXjXjXjXjXjXjXjXjXjXjXjXjXjXjXjXjXjXjXjXjXjXjXjXjXjXjXjXjXjXjXjXjXjXjXjXjXjXjXjXjXjXjXjXjXjXjXjXjX",
"jXjXjXjXjXjXjXjXjXjXjXjXjXjXjXjXjXjXjXjXjXjXjXjXjXjXjXjXjXjXjXjXjXjXjXjXjXjXjXjXjXjXjXjXjXjXjXjXjXjXjXjXjXjXjXjXjXjXjXjXjXjXjXjXjXjXjXjXjXjXjXjXjXjXjXjXjXjXjXjXjXjXjXjXjXjXjXjXjXjXjXjXjXjXjXjXjXjXjXjXjXjXjXjXjX",
"jXjXjXjXjXjXjXjXjXjXjXjXjXjXjXjXjXjXjXjXjXjXjXjXjXjXjXjXjXjXjXjXjXjXjXjXjXjXjXjXjXjXjXjXjXjXjXjXjXjXjXjXjXjXjXjXjXjXjXjXjXjXjXjXjXjXjXjXjXjXjXjXjXjXjXjXjXjXjXjXjXjXjXjXjXjXjXjXjXjXjXjXjXjXjXjXjXjXjXjXjXjXjXjXjX",
"jXjXjXjXjXjXjXjXjXjXjXjXjXjXjXjXjXjXjXjXjXjXjXjXjXjXjXjXjXjXjXjXjXjXjXjXjXjXjXjXjXjXjXjXjXjXjXjXjXjXjXjXjXjXjXjXjXjXjXjXjXjXjXjXjXjXjXjXjXjXjXjXjXjXjXjXjXjXjXjXjXjXjXjXjXjXjXjXjXjXjXjXjXjXjXjXjXjXjXjXjXjXjXjXjX",
"jXjXjXjXjXjXjXjXjXjXjXjXjXjXjXjXjXjXjXjXjXjXjXjXjXjXjXjXjXjXjXjXjXjXjXjXjXjXjXjXjXjXjXjXjXjXjXjXjXjXjXjXjXjXjXjXjXjXjXjXjXjXjXjXjXjXjXjXjXjXjXjXjXjXjXjXjXjXjXjXjXjXjXjXjXjXjXjXjXjXjXjXjXjXjXjXjXjXjXjXjXjXjXjXjX",
"jXjXjXjXjXjXjXjXjXjXjXjXjXjXjXjXjXjXjXjXjXjXjXjXjXjXjXjXjXjXjXjXjXjXjXjXjXjXjXjXjXjXjXjXjXjXjXjXjXjXjXjXjXjXjXjXjXjXjXjXjXjXjXjXjXjXjXjXjXjXjXjXjXjXjXjXjXjXjXjXjXjXjXjXjXjXjXjXjXjXjXjXjXjXjXjXjXjXjXjXjXjXjXjXjX",
"jXjXjXjXjXjXjXjXjXjXjXjXjXjXjXjXjXjXjXjXjXjXjXjXjXjXjXjXjXjXjXjXjXjXjXjXjXjXjXjXjXjXjXjXjXjXjXjXjXjXjXjXjXjXjXjXjXjXjXjXjXjXjXjXjXjXjXjXjXjXjXjXjXjXjXjXjXjXjXjXjXjXjXjXjXjXjXjXjXjXjXjXjXjXjXjXjXjXjXjXjXjXjXjXjX",
"jXjXjXjXjXjXjXjXjXjXjXjXjXjXjXjXjXjXjXjXjXjXjXjXjXjXjXjXjXjXjXjXjXjXjXjXjXjXjXjXjXjXjXjXjXjXjXjXjXjXjXjXjXjXjXjXjXjXjXjXjXjXjXjXjXjXjXjXjXjXjXjXjXjXjXjXjXjXjXjXjXjXjXjXjXjXjXjXjXjXjXjXjXjXjXjXjXjXjXjXjXjXjXjXjX",
"jXjXjXjXjXjXjXjXjXjXjXjXjXjXjXjXjXjXjXjXjXjXjXjXjXjXjXjXjXjXjXjXjXjXjXjXjXjXjXjXjXjXjXjXjXjXjXjXjXjXjXjXjXjXjXjXjXjXjXjXjXjXjXjXjXjXjXjXjXjXjXjXjXjXjXjXjXjXjXjXjXjXjXjXjXjXjXjXjXjXjXjXjXjXjXjXjXjXjXjXjXjXjXjXjX",
"jXjXjXjXjXjXjXjXjXjXjXjXjXjXjXjXjXjXjXjXjXjXjXjXjXjXjXjXjXjXjXjXjXjXjXjXjXjXjXjXjXjXjXjXjXjXjXjXjXjXjXjXjXjXjXjXjXjXjXjXjXjXjXjXjXjXjXjXjXjXjXjXjXjXjXjXjXjXjXjXjXjXjXjXjXjXjXjXjXjXjXjXjXjXjXjXjXjXjXjXjXjXjXjXjX",
"jXjXjXjXjXjXjXjXjXjXjXjXjXjXjXjXjXjXjXjXjXjXjXjXjXjXjXjXjXjXjXjXjXjXjXjXjXjXjXjXjXjXjXjXjXjXjXjXjXjXjXjXjXjXjXjXjXjXjXjXjXjXjXjXjXjXjXjXjXjXjXjXjXjXjXjXjXjXjXjXjXjXjXjXjXjXjXjXjXjXjXjXjXjXjXjXjXjXjXjXjXjXjXjXjX",
"jXjXjXjXjXjXjXjXjXjXjXjXjXjXjXjXjXjXjXjXjXjXjXjXjXjXjXjXjXjXjXjXjXjXjXjXjXjXjXjXjXjXjXjXjXjXjXjXjXjXjXjXjXjXjXjXjXjXjXjXjXjXjXjXjXjXjXjXjXjXjXjXjXjXjXjXjXjXjXjXjXjXjXjXjXjXjXjXjXjXjXjXjXjXjXjXjXjXjXjXjXjXjXjXjX",
"jXjXjXjXjXjXjXjXjXjXjXjXjXjXjXjXjXjXjXjX; : : : : : : : ; : : : > : ; ; ; > ; > > : : ; : : : : jXjXjXjXjXjXjXjXjXX X X X jXjXjXjXjXjXjXjXjXjXjXjXjXjXjXjXjXjXjXjXjXjXjXjXjXjXjXjXjXjXjXjXjXjXjXjXjXjXjXjXjXjXjXjX",
"jXjXjXjXjXjXjXjXjXjXjXjXjXjXjXjXjXjXjX; : : : : : : : : ; ; ; ; ; : > > > ; ; : ; : > ; : : > : jXjXjXjXjXjXjXjXX X X X X jXjXjXjXjXjXjXjXjXjXjXjXjXjXjXjXjXjXjXjXjXjXjXjXjXjXjXjXjXjXjXjXjXjXjXjXjXjXjXjXjXjXjXjX",
"jXjXjXjXjXjXjXjXjXjXjXjXjXjXjXjXjXjXjX; : : : : : : : : > > : > : : ; : ; > : : : : ; > : : ; : > jXjXjXjXjXjXjXX X X X X X jXjXjXjXjXjXjXjXjXjXjXjXjXjXjXjXjXjXjXjXjXjXjXjXjXjXjXjXjXjXjXjXjXjXjXjXjXjXjXjXjXjXjX",
"jXjXjXjXjXjXjXjXjXjXjXjXjXjXjXjXjXjX< < ; : > > > : > : : : > ; : > : : : : : : < < < < < < < ; ; jXjXjXjXjXjXK K K I K I L jXjXjXjXjXjXjXjXjXjXjXjXjXjXjXjXjXjXjXjXjXjXjXjXjXjXjXjXjXjXjXjXjXjXjXjXjXjXjXjXjXjXjX",
"jXjXjXjXjXjXjXjXjXjXjXjXjXjXjXjXjXjX, < : : > , > , > > : , > > > > > > > > > > < < < ; * % % % o   jXjXjXjXjX^ ^ ^ ' ' ^ ^ jXjXjXjXjXjXjXjXjXjXjXjXjXjXjXjXjXjXjXjXjXjXjXjXjXjXjXjXjXjXjXjXjXjXjXjXjXjXjXjXjXjXjX",
"jXjXjXjXjXjXjXjXjXjXjXjXjXjXjXjXjXi 6 < : : > > , : : : > > > > > > > > 9 > 9 > < * $ & & $ O O       jXjXjX^ #X#X$X$X$X$X$XjXjXjXjXjXjXjXjXjXjXjXjXjXjXjXjXjXjXjXjXjXjXjXjXjXjXjXjXjXjXjXjXjXjXjXjXjXjXjXjXjXjXjX",
"jXjXjXjXjXjXjXjXjXjXjXjXjXjXjXT Y i 6 , : : ; ; : : : : : > > > : > : > > 9 : 9 < $ $ $ O O + .         $ U @X$X$X&X&X&X=X&XjXjXjXjXjXjXjXjXjXjXjXjXjXjXjXjXjXjXjXjXjXjXjXjXjXjXjXjXjXjXjXjXjXjXjXjXjXjXjXjXjXjXjX",
"jXjXjXjXjXjXjXjXjXjXjXjXjXjXE T p p i , > ; @ ; # : : : : : : : > : : > 9 9 9 9 ; $ $ O + . .           O U #X$X&X;X:X;X;X:XjXjXjXjXjXjXjXjXjXjXjXjXjXjXjXjXjXjXjXjXjXjXjXjXjXjXjXjXjXjXjXjXjXjXjXjXjXjXjXjXjXjXjX",
"jXjXjXjXjXjXjXjXjXjXjXjXjXE T T T p w , > ; @ @ # : : : : : : : : : : : : > : : ; % $ $ o . o           O / #X=X;X:X,X,X,X,XjXjXjXjXjXjXjXjXjXjXjXjXjXjXjXjXjXjXjXjXjXjXjXjXjXjXjXjXjXjXjXjXjXjXjXjXjXjXjXjXjXjXjX",
"jXjXjXjXjXjXjXjXjXjXjXjXR W R T T T p q , : ; ; # : # : : : ; : : : : : < ; : : : : > ; # # # # X X X X : ( %X*X,X<X<X<X<X<XjXjXjXjXjXjXjXjXjXjXjXjXjXjXjXjXjXjXjXjXjXjXjXjXjXjXjXjXjXjXjXjXjXjXjXjXjXjXjXjXjXjXjX",
"jXjXjXjXjXjXjXjXjXjXjXjXT R T E E T Y i 6 , : : : : : : : : : : : : : # * % % % : t y k m m m m f f d d l ..-X4X3X3X2X2X2X2XjXjXjXjXjXjXjXjXjXjXjXjXjXjXjXjXjXjXjXjXjXjXjXjXjXjXjXjXjXjXjXjXjXjXjXjXjXjXjXjXjXjXjX",
"jXjXjXjXjXjXjXjXjXjXjXT T W T E E E Y p e 6 , > > < < ; : : : : : : ; % $ $ O $ - y m B } } } } Z A g g ` ..>XwXwXeXeXeXeXeXjXjXjXjXjXjXjXjXjXjXjXjXjXjXjXjXjXjXjXjXjXjXjXjXjXjXjXjXjXjXjXjXjXjXjXjXjXjXjXjXjXjXjX",
"jXjXjXjXjXjXjXjXjXjXT T T T R E E E T Y i w 6 6 , , > : : # # 9 : : ; % O O o O - k B } 3.C.C.C.%.X.X.X.<.x.5XwXrXaXrXrXrXaXjXjXjXjXjXjXjXjXjXjXjXjXjXjXjXjXjXjXjXjXjXjXjXjXjXjXjXjXjXjXjXjXjXjXjXjXjXjXjXjXjXjXjX",
"jXjXjXjXjXjXjXjXT T T T T T T R R T T T p p i 6 6 , , < : : : : 9 : # % O o o o - N C 5.C.A.A.A.N.=.O.X.1.x.5XtXiXpXpXpXpXpXjXjXjXjXjXjXjXjXjXjXjXjXjXjXjXjXjXjXjXjXjXjXjXjXjXjXjXjXjXjXjXjXjXjXjXjXjXjXjXjXjXjXjX",
"jXjXjXjXjXjXjXT T T T T T T T T R T T T T T Y p w , , ; # : # : : : # O O o . o - N } C.A.E.!.R.K.N.-.o.w.S.9XtXhXgXdXdXdXdXjXjXjXjXjXjXjXjXjXjXjXjXjXjXjXjXjXjXjXjXjXjXjXjXjXjXjXjXjXjXjXjXjXjXjXjXjXjXjXjXjXjXjX",
"jXjXjXjXjXjXT T T T E E T T T T T T T R T T T i w 6 , : : # ; ; < ; < $ O o . o t B 5.C.Y.'.}.[.K.K.-.-.p./.8XyXhXfXfXfXfXfXjXjXjXjXjXjXjXjXjXjXjXjXjXjXjXT T T T T R T jXjXjXjXjXjXjXjXjXjXjXjXjXjXjXjXjXjXjXjXjX",
"jXjXjXjXjXjXT T T E Q Q E E T T T T T W W T T p p 6 , : ; ; ; ; ; ; ; $ O O o $ l Z 7.N.R.'.|.[._.K.;.;.a./.8XyXsXfXfXfXfXfXjXjXjXjXjXjXjXjXjXjXjXjXjXjXT T T T T T T T jXjXjXjXjXjXjXjXjXjXjXjXjXjXjXjXjXjXjXjXjX",
"jXjXjXjXjXjXT T T E Q Q E E T T T T R R E R T Y p 6 , : # + O O $ $ = = = = 8 n m @.7.B.R.'.[.[.`.K.;.;.v./.7XqXuXgXgXgXgXgXjXjXjXjXjXjXjXjXjXjXjXjXjXjXT T R T T T T T T jXjXjXjXjXjXjXjXjXjXjXjXjXjXjXjXjXjXjXjX",
"jXjXjXjXjXjXT T T Q Q Q E E R T T R T R R T T p p i , > # O O O O O O = 8 0 j b V ,.j.D.T.W.~.`.U.K.c.c.m.P.7XqXyXuXuXuXuXsXjXjXjXjXjXjXjXjXjXjXjXjXjXjXT T a T T T T T T jXjXjXjXjXjXjXjXjXjXjXjXjXjXjXjXjXjXjXjX",
"jXjXjXjXjXjXT T T E Q Q E R T T T T R W R T T a p i t > + O + o o o O @ 0 j b V @.q.j.l.P.I.W.W.J.K.c.c.v.M.6X7XqXqXyX0XyXjXjXjXjXjXjXjXjXjXjXjXjXjXjXR T T T T T T T T T jXjXjXjXjXjXjXjXjXjXjXjXjXjXjXjXjXjXjXjX",
"jXjXjXjXjXjXT T T E E E E R T T T T T T T T T p i i 6 > + O o . . . o 8 j b +.#.1.w.j.k.n.F.F.G.F.n.c.u.v.M.(.6X7X7X7X7X9XjXjXjXjXjXjXjXjXjXjXjXjXjXR R R a T T a T T T T T jXjXjXjXjXjXjXjXjXjXjXjXjXjXjXjXjXjXjX",
"jXjXjXjXjXjXT Y T T E E E T T T T T T E R T T p p t , > % O o o . o O 0 b V ,.1.t.p.k.v.k.b.b.b.v.v.v.a.k.l.n./.(.(./././.jXjXjXjXjXjXjXjXjXjXR T T T T T T T T T T T T T T T T T jXjXjXjXjXjXjXjXjXjXjXjXjXjXjXjX",
"jXjXjXjXjXjXT T T T E Q E T T T T T R T T T T p e w , : ; + o o $ - y b V ,.1.t.k.v.k.a.k.p.y.y.p.p.a.a.a.p.a.k.m.m.v.r.u.u.jXjXjXjXjXjXjXjXR T T T T T T T T T T T T T T T T T T T jXjXjXjXjXjXjXjXjXjXjXjXjXjXjX",
"jXjXjXjXjXjXT T T T E E W T T T T T W R W T T e w 5 - ; 9 t u k x m B :.,.i.l.b.n.b.b.k.t.1.1.1.q.q.w.w.w.w.*.*.*.$.o.o.o.o.jXjXjXjXjXjXjXjXR Y Y P P T T T T T T T T T T T T T T T T jXjXjXjXjXjXjXjXjXjXjXjXjXjX",
"jXjXjXjXjXjXT T T R E E E R T T T T T T T T Y e 5 - $ * u k m B Z 4.5.s.j.b.D.F.G.F.l.j.w.1.,.#.,.,.,.6.,.1.%.&.$.o.O.O.O.o.$.jXjXjXjXjXjX) ~ I H J K T T T T T T T T T T T T T T T T jXjXjXjXjXjXjXjXjXjXjXjXjXjX",
"jXjXjXjXjXjXT T T T E E W T T T T W E T T T T 7 3 & $ $ y m C 4.7.f.N.D.P.P.^.^.I.G.l.y.q.>.+.V b V V <.@.@.#.%.$.$.$.$.$.&.*.r.t.jXjXjX{ _ ! K H H H P T T T a T a T T T T T T T T E jXjXjXjXjXjXjXjXjXjXjXjXjXjX",
"jXjXjXjXjXjXT T T E E E E R T T T T T R T T Y 4 & & O $ k B 2.s.N.Y.R.Q.~.~.~.~.W.P.B.s.6.+.b z b b b b V V #.#.%.&.&.*.*.*.r.r.t.t.q.,. .` ! H G H H K P T T T T R T T T T T T T T jXjXjXjXjXjXjXjXjXjXjXjXjXjXjX",
"jXjXjXjXjXjXT T T T E E E T T T T T E T T T T 4 1 $ O O l C 5.N.Y.!.[.|.|.|.|.[.~.T.B.s.2.B j 0 8 9 0 h z b V @.,.1.t.r.u.y.y.y.t.t.1.,.<.{ ) G F G H I Y T T T T T T T T T T T T T jXjXjXjXjXjXjXjXjXjXjXjXjXjXjX",
"jXjXjXjXjXjXT T T T E Q E T T T T T T T E T L 5 1 & O O l | 7.B.R.'.|. XOX X X|.'.Q.B.s.} m : o o o O O 9 j B @.,.t.p.a.v.v.v.v.p.p.t.6.>. .) U jXjXG J T T T T T T T T T T T T T T jXjXjXjXjXjXjXjXjXjXjXjXjXjXjX",
"jXjXjXjXjXjXT T T R E E E T T T T T T E Y T a 4 1 & $ $ l } 7.N.Y.'.|. X XOX X X}.!.V.s.} x O .     . O O h b @.1.w.k.b.n.n.n.n.n.b.p.w.,. ._ F jXjXF H Y T T T T T T T T T T T T T jXjXjXjXjXjXjXjXjXjXjXjXjXjXjX",
"jXjXjXjXjXjXT T T T E E E T T T T T R T T T T 4 1 1 & * x | 3.g.V.R.'.}. X X X X|.!.V.s.} k O         o O y B >.1.p.b.P.U.).`.).U.M.l.i.9.<._ F jXjXD H Y T T T T T a T T T T T T T jXjXjXjXjXjXjXjXjXjXjXjXjXjXjX",
"jXjXjXjXjXjXT T T T E E R T T T T T T T T T T r 3 1 1 5 x B 2.9.f.B.Y.Q.'.|. X X|.!.A.d.} x O         o O k B 3.i.B.F.I.).`.{.{.`.W.M.g.i.>.] D jXjXS G W T T T T T T a R T T T T T jXjXjXjXjXjXjXjXjXjXjXjXjXjXjX",
"jXjXjXjXjXjXT T T T E Q R T T T T T T T T T T K 4 3 5 r s [ { | 4.0.f.B.Y.'.}.|.'.'.A.d.} x O .       o $ l | 6.j.D.^.~.{..XoXoXoX_.P.A.h.8.] S jXjX2 G Y T T T T T T T T T T T T T jXjXjXjXjXjXjXjXjXjXjXjXjXjXjX",
"jXjXjXjXjXjXT T T R E W E T T T T T T T T T T L e H r e R s x c M C 2.s.N.R.'.}.}.!.A.d.} N O .       o % c Z 0.N.T.!.[..XoX+X+XXX}.E.L.g.8.] S jXjX2 G Y W T T T T T T T T T T T a jXjXjXjXjXjXjXjXjXjXjXjXjXjXjX",
"jXjXjXjXjXjXT T T T E Q E R T T T T T T T T T T T P P T R a 7 5 7 y M 2.d.L.!.}.}.'.Y.f.2.m O .     . o ; m 2.s.V.Q._..XoX+X+X+XXX}.!.E.Z.8.] 2 jXjX2 G Y T T T T T T T T T T T T T jXjXjXjXjXjXjXjXjXjXjXjXjXjXjX",
"jXjXjXjXjXjXT T T T E E E T T T T T T T T T T T R R R T P 4 1 $ O O u C 7.V.!.|.}.~.Y.d.:.c $ o       o ; m :.d.L.!.}. X XOX X X|.}.!.E.Z.8.] 2 jXjXS G Y R T T T T T T T T T T T W jXjXjXjXjXjXjXjXjXjXjXjXjXjXjX",
"jXjXjXjXjXjXT T T T E E E T T T T T T T T T T R R ~ Q R P 3 1 $ .   + B 5.V.R.].}.'.Y.g.2.c $ o       o > M 3.f.Y.~. X XOXOXOXOX X}.!./.Z.8.] 2 2 1 2 G Y T T T T T T T T R T T T W jXjXjXjXjXjXjXjXjXjXjXjXjXjXjX",
"jXjXjXjXjXjXT T T E E E E T T T T T T T T T T R Q ~ R R L 3 1 $ . . O B 5.V.!.].}.'.Y.d.:.c $ .       o ; M 3.g.E.].|. XOXOXOXOXOX|.!.A.Z...[ 4 2 2 S G T T T T T T T T T T T T T T jXjXjXjXjXjXjXjXjXjXjXjXjXjXjX",
"jXjXjXjXjXjXT T T T E E E R T T T a T T T T a R R R R R L 5 1 $ o o : B 7.N.R.}.}.~.Y.d.2.c $ o       o < M 3.N.R.].|. XOXOXOXOXjXjXjXjXjX .[ 4 S 2 F K p T T T T T T T T T T T T T E jXjXjXjXjXjXjXjXjXjXjXjXjXjX",
"jXjXjXjXjXjXT T T T E E W T T T T T T T T T T R R R E T e 4 1 $ o O u C 7.V.!.}.}.'.Y.d.2.c $ o     . o > m 3.N.R.].|. XOX+XjXjXjXjXjXjXjXjX! K G G G L T T T T T T T T T T Y T T T T jXjXjXjXjXjXjXjXjXjXjXjXjXjX",
"jXjXjXjXjXjXT T T T E Q E T T T T T T T T T T T E R R E T 4 1 & O $ y C 0.V.!.[.}.~.Y.d.:.c $ .       o > M 3.N.'.}.|. XOX7XjXjXjXjXjXjXjXjXR T K K L T R T T T T a T T T T T T T T T jXjXjXjXjXjXjXjXjXjXjXjXjXjX",
"jXjXjXjXjXjXT T T T E E E T T T T T T T T T T T R E T T P 4 1 $ $ O k Z 0.A.!.}.}.~.Y.d.2.c $ o     . o ; m 3.N.R.|.|. XOX+XjXjXjXjXjXjXjXjXR T T T T T T T T T T T T T T T T T T T jXjXjXjXjXjXjXjXjXjXjXjXjXjXjX",
"jXjXjXjXjXjXT T T R E E E R T T T T T T T T T T R T T T a 4 1 & O O k Z 0.D.!.}.}.'.Y.d.:.c $ o       o ; B 3.N.!.}.|. XOX+XjXjXjXjXjXjXjXjXjXjXR T T Y T T T T T T T T T T T T T jXjXjXjXjXjXjXjXjXjXjXjXjXjXjXjX",
"jXjXjXjXjXjXT T T E Q E E E T T T T T T T T T T T T T T T 4 1 & $ $ k | s.L.'.|.|.[.Y.f.2.v $ .       o ; m 3.N.R.|.|. X X.XjXjXjXjXjXjXjXjXjXjXjXjXjXY T T T T a T T T T R jXjXjXjXjXjXjXjXjXjXjXjXjXjXjXjXjXjXjX",
"jXjXjXjXjXjXT T T E Q Q E E T T T T T T T T T T E T Q R Y 4 1 & $ $ l } d.Y.[. XXX}.R.C.2.m O .       . ; B 3.N.R.].|. X X}.~.jXjXjXjXjXjXjXjXjXjXjXjXjXT T T T T T T T T jXjXjXjXjXjXjXjXjXjXjXjXjXjXjXjXjXjXjXjX",
"jXjXjXjXjXjXT T T E Q Q E E T T T T T T T T T T T E W T T H 1 1 $ $ l :.g.R.|.OXOX|.Q.C.2.c O         . ; m 3.N.R.].|. X|.[.W.D.u.1.jXjXjXjXjXjXjXjXjXjXT T T R T T T T R jXjXjXjXjXjXjXjXjXjXjXjXjXjXjXjXjXjXjXjX",
"jXjXjXjXjXjXT T T E Q Q E E T T T T T T T T T T T W E W Y 4 1 & $ $ l } g.Q.}.OXOX|.!.N.4.m O         . # m 3.C.R.].|. X}._.G.D.a.t.t.jXjXjXjXjXjXjXjXjXT T T T T T T T T jXjXjXjXjXjXjXjXjXjXjXjXjXjXjXjXjXjXjXjX",
"jXjXjXjXjXjXT T T E E E E R T T T T T T T T T T T E T T Y 4 1 & $ O x Z s.Y.'. X X}.T.g.:.c O .       o ; m 3.g.L.~.|.|.[._.I.D.a.y.t.t.jXjXjXjXjXjXjXjXT T T T T T T T jXjXjXjXjXjXjXjXjXjXjXjXjXjXjXjXjXjXjXjXjX",
"jXjXjXjXjXjXT T T T R R R W T T T T T T T T T T E T T T p 4 1 & O O k Z s.D.!.|.}.'.Y.d.:.c % O .   . O : M 2.d.L.!.}.}.{._.`.I.n.u.y.t.jXjXjXjXjXjXjXjXjXT T T T T T R jXjXjXjXjXjXjXjXjXjXjXjXjXjXjXjXjXjXjXjXjX",
"jXjXjXjXjXjXjXT R T T T T T T T T R T R R T T T T T T T e 4 1 $ O $ k Z s.V.'.'.}.!.A.d.} c - $ $ O O $ 6 N :.s.L.Q._.[.{.{.`.).n.v.y.u.jXjXjXjXjXjXjXjXjXjXjXjXjXjXjXjXjXjXjXjXjXjXjXjXjXjXjXjXjXjXjXjXjXjXjXjXjX",
"jXjXjXjXjXjXjXjXT T T T W T T R E E E W R R T T T T a a e 7 & & O $ l Z s.L.'.|.}.!.Z.8. .x 7 1 & & & & w ] >.s.A.P.~._._.`.`.).H.a.y.u.jXjXjXjXjXjXjXjXjXjXjXjXjXjXjXjXjXjXjXjXjXjXjXjXjXjXjXjXjXjXjXjXjXjXjXjXjX",
"jXjXjXjXjXjXjXjXjXjXT T T T T R Q Q Q Q E E E R T T p p 6 5 & $ $ jXjXjXjXjXjXjXjXY.f.8.{ s e 3 1 2 S 2 Y ] >.i.l.P.W.`.`.`.`.).n.m.a.a.jXjXjXjXjXjXjXjXjXjXjXjXjXjXjXjXjXjXjXjXjXjXjXjXjXjXjXjXjXjXjXjXjXjXjXjXjX",
"jXjXjXjXjXjXjXjXjXjXjXT T T T Q Q Q Q Q Q E W T T p p q , < & $ jXjXjXjXjXjXjXjXjXjX8. .] ! P H F D S F T _ >.9.l.M.I.U.).).`.).n.m.u.a.jXjXjXjXjXjXjXjXjXjXjXjXjXjXjXjXjXjXjXjXjXjXjXjXjXjXjXjXjXjXjXjXjXjXjXjXjX",
"jXjXjXjXjXjXjXjXjXjXjXjXT T T R Q Q Q Q E E T T Y p q , : : * jXjXjXjXjXjXjXjXjXjXjXjX] ! ~ W I H G F F E _  .9.i.M.n.n.I.U.n.n.n.k.u.a.jXjXjXjXjXjXjXjXjXjXjXjXjXjXjXjXjXjXjXjXjXjXjXjXjXjXjXjXjXjXjXjXjXjXjXjXjX",
"jXjXjXjXjXjXjXjXjXjXjXjXT T T T W Q Q E T T T a p q , , ; ; # jXjXjXjXjXjXjXjXjXjXjXjXT T T T W I H H H R )  .<.6.t.a.v.v.v.n.n.m.v.u.u.jXjXjXjXjXjXjXjXjXjXjXjXjXjXjXjXjXjXjXjXjXjXjXjXjXjXjXjXjXjXjXjXjXjXjXjXjX",
"jXjXjXjXjXjXjXjXjXjXjXjXjXT T T T T T T W T p p p , : : # @ jXjXjXjXjXjXjXjXjXjXjXjXjXjXH P R R I H H H R ) { <.,.w.t.p.a.a.a.a.p.p.k.k.jXjXjXjXjXjXjXjXjXjXjXjXjXjXjXjXjXjXjXjXjXjXjXjXjXjXjXjXjXjXjXjXjXjXjXjXjX",
"jXjXjXjXjXjXjXjXjXjXjXjXjXjXT R T W W T R T T p w , > : @ @ jXjXjXjXjXjXjXjXjXjXjXjXjXjXG L R R Q H H J W ) { <.,.1.t.p.u.a.a.p.p.k.k.jXjXjXjXjXjXjXjXjXjXjXjXjXjXjXjXjXjXjXjXjXjXjXjXjXjXjXjXjXjXjXjXjXjXjXjXjXjX",
"jXjXjXjXjXjXjXjXjXjXjXjXjXjXjXT T T T R T R T p w , > # jXjXjXjXjXjXjXjXjXjXjXjXjXjXjXjXjXjXE Q W J J J E _ { <.,.1.t.u.u.u.j.k.p.jXjXjXjXjXjXjXjXjXjXjXjXjXjXjXjXjXjXjXjXjXjXjXjXjXjXjXjXjXjXjXjXjXjXjXjXjXjXjXjX",
"jXjXjXjXjXjXjXjXjXjXjXjXjXjXjXjXjXjXjXjXjXjXjXjXjXjXjXjXjXjXjXjXjXjXjXjXjXjXjXjXjXjXjXjXjXjXjXjXjXjXjXjXjXjXjXjXjXjXjXjXjXjXjXjXjXjXjXjXjXjXjXjXjXjXjXjXjXjXjXjXjXjXjXjXjXjXjXjXjXjXjXjXjXjXjXjXjXjXjXjXjXjXjXjXjX",
"jXjXjXjXjXjXjXjXjXjXjXjXjXjXjXjXjXjXjXjXjXjXjXjXjXjXjXjXjXjXjXjXjXjXjXjXjXjXjXjXjXjXjXjXjXjXjXjXjXjXjXjXjXjXjXjXjXjXjXjXjXjXjXjXjXjXjXjXjXjXjXjXjXjXjXjXjXjXjXjXjXjXjXjXjXjXjXjXjXjXjXjXjXjXjXjXjXjXjXjXjXjXjXjXjX",
"jXjXjXjXjXjXjXjXjXjXjXjXjXjXjXjXjXjXjXjXjXjXjXjXjXjXjXjXjXjXjXjXjXjXjXjXjXjXjXjXjXjXjXjXjXjXjXjXjXjXjXjXjXjXjXjXjXjXjXjXjXjXjXjXjXjXjXjXjXjXjXjXjXjXjXjXjXjXjXjXjXjXjXjXjXjXjXjXjXjXjXjXjXjXjXjXjXjXjXjXjXjXjXjXjX",
"jXjXjXjXjXjXjXjXjXjXjXjXjXjXjXjXjXjXjXjXjXjXjXjXjXjXjXjXjXjXjXjXjXjXjXjXjXjXjXjXjXjXjXjXjXjXjXjXjXjXjXjXjXjXjXjXjXjXjXjXjXjXjXjXjXjXjXjXjXjXjXjXjXjXjXjXjXjXjXjXjXjXjXjXjXjXjXjXjXjXjXjXjXjXjXjXjXjXjXjXjXjXjXjXjX",
"jXjXjXjXjXjXjXjXjXjXjXjXjXjXjXjXjXjXjXjXjXjXjXjXjXjXjXjXjXjXjXjXjXjXjXjXjXjXjXjXjXjXjXjXjXjXjXjXjXjXjXjXjXjXjXjXjXjXjXjXjXjXjXjXjXjXjXjXjXjXjXjXjXjXjXjXjXjXjXjXjXjXjXjXjXjXjXjXjXjXjXjXjXjXjXjXjXjXjXjXjXjXjXjXjX",
"jXjXjXjXjXjXjXjXjXjXjXjXjXjXjXjXjXjXjXjXjXjXjXjXjXjXjXjXjXjXjXjXjXjXjXjXjXjXjXjXjXjXjXjXjXjXjXjXjXjXjXjXjXjXjXjXjXjXjXjXjXjXjXjXjXjXjXjXjXjXjXjXjXjXjXjXjXjXjXjXjXjXjXjXjXjXjXjXjXjXjXjXjXjXjXjXjXjXjXjXjXjXjXjXjX",
"jXjXjXjXjXjXjXjXjXjXjXjXjXjXjXjXjXjXjXjXjXjXjXjXjXjXjXjXjXjXjXjXjXjXjXjXjXjXjXjXjXjXjXjXjXjXjXjXjXjXjXjXjXjXjXjXjXjXjXjXjXjXjXjXjXjXjXjXjXjXjXjXjXjXjXjXjXjXjXjXjXjXjXjXjXjXjXjXjXjXjXjXjXjXjXjXjXjXjXjXjXjXjXjXjX",
"jXjXjXjXjXjXjXjXjXjXjXjXjXjXjXjXjXjXjXjXjXjXjXjXjXjXjXjXjXjXjXjXjXjXjXjXjXjXjXjXjXjXjXjXjXjXjXjXjXjXjXjXjXjXjXjXjXjXjXjXjXjXjXjXjXjXjXjXjXjXjXjXjXjXjXjXjXjXjXjXjXjXjXjXjXjXjXjXjXjXjXjXjXjXjXjXjXjXjXjXjXjXjXjXjX",
"jXjXjXjXjXjXjXjXjXjXjXjXjXjXjXjXjXjXjXjXjXjXjXjXjXjXjXjXjXjXjXjXjXjXjXjXjXjXjXjXjXjXjXjXjXjXjXjXjXjXjXjXjXjXjXjXjXjXjXjXjXjXjXjXjXjXjXjXjXjXjXjXjXjXjXjXjXjXjXjXjXjXjXjXjXjXjXjXjXjXjXjXjXjXjXjXjXjXjXjXjXjXjXjXjX",
"jXjXjXjXjXjXjXjXjXjXjXjXjXjXjXjXjXjXjXjXjXjXjXjXjXjXjXjXjXjXjXjXjXjXjXjXjXjXjXjXjXjXjXjXjXjXjXjXjXjXjXjXjXjXjXjXjXjXjXjXjXjXjXjXjXjXjXjXjXjXjXjXjXjXjXjXjXjXjXjXjXjXjXjXjXjXjXjXjXjXjXjXjXjXjXjXjXjXjXjXjXjXjXjXjX",
"jXjXjXjXjXjXjXjXjXjXjXjXjXjXjXjXjXjXjXjXjXjXjXjXjXjXjXjXjXjXjXjXjXjXjXjXjXjXjXjXjXjXjXjXjXjXjXjXjXjXjXjXjXjXjXjXjXjXjXjXjXjXjXjXjXjXjXjXjXjXjXjXjXjXjXjXjXjXjXjXjXjXjXjXjXjXjXjXjXjXjXjXjXjXjXjXjXjXjXjXjXjXjXjXjX",
"jXjXjXjXjXjXjXjXjXjXjXjXjXjXjXjXjXjXjXjXjXjXjXjXjXjXjXjXjXjXjXjXjXjXjXjXjXjXjXjXjXjXjXjXjXjXjXjXjXjXjXjXjXjXjXjXjXjXjXjXjXjXjXjXjXjXjXjXjXjXjXjXjXjXjXjXjXjXjXjXjXjXjXjXjXjXjXjXjXjXjXjXjXjXjXjXjXjXjXjXjXjXjXjXjX",
"jXjXjXjXjXjXjXjXjXjXjXjXjXjXjXjXjXjXjXjXjXjXjXjXjXjXjXjXjXjXjXjXjXjXjXjXjXjXjXjXjXjXjXjXjXjXjXjXjXjXjXjXjXjXjXjXjXjXjXjXjXjXjXjXjXjXjXjXjXjXjXjXjXjXjXjXjXjXjXjXjXjXjXjXjXjXjXjXjXjXjXjXjXjXjXjXjXjXjXjXjXjXjXjXjX",
"jXjXjXjXjXjXjXjXjXjXjXjXjXjXjXjXjXjXjXjXjXjXjXjXjXjXjXjXjXjXjXjXjXjXjXjXjXjXjXjXjXjXjXjXjXjXjXjXjXjXjXjXjXjXjXjXjXjXjXjXjXjXjXjXjXjXjXjXjXjXjXjXjXjXjXjXjXjXjXjXjXjXjXjXjXjXjXjXjXjXjXjXjXjXjXjXjXjXjXjXjXjXjXjXjX",
"jXjXjXjXjXjXjXjXjXjXjXjXjXjXjXjXjXjXjXjXjXjXjXjXjXjXjXjXjXjXjXjXjXjXjXjXjXjXjXjXjXjXjXjXjXjXjXjXjXjXjXjXjXjXjXjXjXjXjXjXjXjXjXjXjXjXjXjXjXjXjXjXjXjXjXjXjXjXjXjXjXjXjXjXjXjXjXjXjXjXjXjXjXjXjXjXjXjXjXjXjXjXjXjXjX",
"jXjXjXjXjXjXjXjXjXjXjXjXjXjXjXjXjXjXjXjXjXjXjXjXjXjXjXjXjXjXjXjXjXjXjXjXjXjXjXjXjXjXjXjXjXjXjXjXjXjXjXjXjXjXjXjXjXjXjXjXjXjXjXjXjXjXjXjXjXjXjXjXjXjXjXjXjXjXjXjXjXjXjXjXjXjXjXjXjXjXjXjXjXjXjXjXjXjXjXjXjXjXjXjXjX",
"jXjXjXjXjXjXjXjXjXjXjXjXjXjXjXjXjXjXjXjXjXjXjXjXjXjXjXjXjXjXjXjXjXjXjXjXjXjXjXjXjXjXjXjXjXjXjXjXjXjXjXjXjXjXjXjXjXjXjXjXjXjXjXjXjXjXjXjXjXjXjXjXjXjXjXjXjXjXjXjXjXjXjXjXjXjXjXjXjXjXjXjXjXjXjXjXjXjXjXjXjXjXjXjXjX",
"jXjXjXjXjXjXjXjXjXjXjXjXjXjXjXjXjXjXjXjXjXjXjXjXjXjXjXjXjXjXjXjXjXjXjXjXjXjXjXjXjXjXjXjXjXjXjXjXjXjXjXjXjXjXjXjXjXjXjXjXjXjXjXjXjXjXjXjXjXjXjXjXjXjXjXjXjXjXjXjXjXjXjXjXjXjXjXjXjXjXjXjXjXjXjXjXjXjXjXjXjXjXjXjXjX",
"jXjXjXjXjXjXjXjXjXjXjXjXjXjXjXjXjXjXjXjXjXjXjXjXjXjXjXjXjXjXjXjXjXjXjXjXjXjXjXjXjXjXjXjXjXjXjXjXjXjXjXjXjXjXjXjXjXjXjXjXjXjXjXjXjXjXjXjXjXjXjXjXjXjXjXjXjXjXjXjXjXjXjXjXjXjXjXjXjXjXjXjXjXjXjXjXjXjXjXjXjXjXjXjXjX"
};
