/* XPM */
static char *result[] = {
/* columns rows colors chars-per-pixel */
"90 105 227 2 ",
"   c #000001",
".  c #00000B",
"X  c #1A0000",
"o  c #19050B",
"O  c #000014",
"+  c #00001C",
"@  c #06081F",
"#  c #190914",
"$  c #160F1E",
"%  c #1A0C1A",
"&  c #190711",
"*  c #16101F",
"=  c #380000",
"-  c #2F1413",
";  c #000222",
":  c #030A23",
">  c #0B0D23",
",  c #00012B",
"<  c #000B2B",
"1  c #130E21",
"2  c #0D1226",
"3  c #161223",
"4  c #181425",
"5  c #1E1826",
"6  c #1A1629",
"7  c #1C1A2C",
"8  c #13162B",
"9  c #000233",
"0  c #000C34",
"q  c #051A39",
"w  c #1D1E32",
"e  c #141B35",
"r  c #221925",
"t  c #261D29",
"y  c #211F32",
"u  c #1F2035",
"i  c #19223C",
"p  c #2D2027",
"a  c #3C2B2A",
"s  c #332428",
"d  c #222135",
"f  c #22253C",
"g  c #24293E",
"h  c #2A2638",
"j  c #532F0E",
"k  c #442C2C",
"l  c #492F2D",
"z  c #45312E",
"x  c #4C352F",
"c  c #4B3631",
"v  c #4D3831",
"b  c #543C33",
"n  c #5B3B26",
"m  c #663E34",
"M  c #571C00",
"N  c #74440C",
"B  c #5A4136",
"V  c #6B4C3B",
"C  c #654637",
"Z  c #784D37",
"A  c #7A5239",
"S  c #6D4C35",
"D  c #182440",
"F  c #0C345A",
"G  c #15395A",
"H  c #262B44",
"J  c #282D46",
"K  c #292E49",
"L  c #272D48",
"P  c #2B304C",
"I  c #223346",
"U  c #3F3B43",
"Y  c #00006B",
"T  c #001A76",
"R  c #143C64",
"E  c #003176",
"W  c #314456",
"Q  c #034379",
"!  c #2F4C7D",
"~  c #7D5A43",
"^  c #775541",
"/  c #705950",
"(  c #4A5665",
")  c #566779",
"_  c #656770",
"`  c #8E5812",
"'  c #BF6300",
"]  c #875536",
"[  c #996538",
"{  c #9D6426",
"}  c #B57137",
"|  c #C86E09",
" . c #C57339",
".. c #C36F30",
"X. c #835C45",
"o. c #975B43",
"O. c #896348",
"+. c #95694C",
"@. c #9C7151",
"#. c #96745E",
"$. c #9A704F",
"%. c #A76746",
"&. c #B77647",
"*. c #A37654",
"=. c #A97956",
"-. c #B77856",
";. c #AD6F4D",
":. c #B2746C",
">. c #897D7B",
",. c #C3764C",
"<. c #C37C58",
"1. c #DB862D",
"2. c #DB851E",
"3. c #B3825B",
"4. c #BA865E",
"5. c #BE8858",
"6. c #BC8B63",
"7. c #C88649",
"8. c #CB875D",
"9. c #D58D55",
"0. c #E99A4F",
"q. c #F3A85D",
"w. c #C38D62",
"e. c #CB8863",
"r. c #CC9467",
"t. c #C99265",
"y. c #D49A6B",
"u. c #D99E6D",
"i. c #DA9867",
"p. c #CD9375",
"a. c #DDA06E",
"s. c #DFA474",
"d. c #E9A56A",
"f. c #F1AC64",
"g. c #F1AD6A",
"h. c #E3A573",
"j. c #EBAB75",
"k. c #E9AB78",
"l. c #F1AF76",
"z. c #F3B17A",
"x. c #F3B175",
"c. c #F5B16D",
"v. c #E59B62",
"b. c #003A8A",
"n. c #00548C",
"m. c #004998",
"M. c #005694",
"N. c #004786",
"B. c #00609F",
"V. c #0059AB",
"C. c #0057AA",
"Z. c #0068AE",
"A. c #006DB5",
"S. c #0068BB",
"D. c #0076BF",
"F. c #33619B",
"G. c #566A91",
"H. c #6A7685",
"J. c #007CCD",
"K. c #0073CB",
"L. c #0076D1",
"P. c #A47B90",
"I. c #798798",
"U. c #7286A8",
"Y. c #008ADE",
"T. c #0084DB",
"R. c #0080CE",
"E. c #3C8AD2",
"W. c #008CE4",
"Q. c #0093EC",
"!. c #0092E7",
"~. c #0094F2",
"^. c #0099F3",
"/. c #2B98EB",
"(. c #3799E8",
"). c #359EF0",
"_. c #38A3F8",
"`. c #7095D3",
"'. c #5897E3",
"]. c #69A7F4",
"[. c #76B3F6",
"{. c #71AAEF",
"}. c #74A0D9",
"|. c #8E8899",
" X c #B39193",
".X c #8F8FB1",
"XX c #A79BAD",
"oX c #97A3B9",
"OX c #B2AAB8",
"+X c #CE9683",
"@X c #DAA78B",
"#X c #D2AC96",
"$X c #E8B291",
"%X c #C7A5A7",
"&X c #CFB2AF",
"*X c #E8BBA1",
"=X c #F6D2B9",
"-X c #EDC8B1",
";X c #F2C19D",
":X c #8A9CCA",
">X c #8E9BD1",
",X c #B5AAC8",
"<X c #A8B6CA",
"1X c #ADB4D0",
"2X c #98B6EB",
"3X c #90AAE4",
"4X c #A2ACD5",
"5X c #B7C4D9",
"6X c #A2C9F9",
"7X c #B8CEEF",
"8X c #99C1F6",
"9X c #C5CAD9",
"0X c #D3CACD",
"qX c #EFD8CB",
"wX c #FCE6D5",
"eX c #D8DDE9",
"rX c #C4DCFB",
"tX c #C3CFE0",
"yX c #DAE8FB",
"uX c #DEF1FF",
"iX c #C5E0FF",
"pX c #FDF3E8",
"aX c #EDF6FD",
"sX c #FDFEFD",
"dX c #F7FAFB",
"fX c #E9E8ED",
"gX c None",
/* pixels */
"gXgXgXgXgXgXgXgXgXgXgXgXgXgXgXgXgXgXgXgXgXgXgXgXgXgXgXgXgXgXgXgXgXgXgXgXgXgXgXgXgXgXgXgXgXgXgXgXgXgXgXgXgXgXgXgXgXgXgXgXgXgXgXgXgXgXgXgXgXgXgXgXgXgXgXgXgXgXgXgXgXgXgXgXgXgXgXgXgXgX",
"gXgXgXgXgXgXgXgXgXgXgXgXgXgXgXgXgXgXgXgXgXgXgXgXgXgXgXgXgXgXgXgXgXgXgXgXgXgXgXgXgXgXgXgXgXgXgXgXgXgXgXgXgXgXgXgXgXgXgXgXgXgXgXgXgXgXgXgXgXgXgXgXgXgXgXgXgXgXgXgXgXgXgXgXgXgXgXgXgXgX",
"gXgXgXgXgXgXgXgXgXgXgXgXgXgXgXgXgXgXgXgXgXgXgXgXgXgXgXgXgXgXgXgXgXgXgXgXgXgXgXgXgXgXgXgXgXgXgXgXgXgXgXgXgXgXgXgXgXgXgXgXgXgXgXgXgXgXgXgXgXgXgXgXgXgXgXgXgXgXgXgXgXgXgXgXgXgXgXgXgXgX",
"gXgXgXgXgXgXgXgXgXgXgXgXgXgXgXgXgXgXgXgXgXgXgXgXgXgXgXgXgXgXgXgXgXgXgXgXgXgXgXgXgXgXgXgXgXgXgXgXgXgXgXgXgXgXgXgXgXgXgXgXgXgXgXgXgXgXgXgXgXgXgXgXgXgXgXgXgXgXgXgXgXgXgXgXgXgXgXgXgXgX",
"gXgXgXgXgXgXgXgXgXgXgXgXgXgXgXgXgXgXgXgXgXgXgXgXgXgXgXgXgXgXgXgXgXgXgXgXgXgXgXgXgXgXgXgXgXgXgXgXgXgXgXgXgXgXgXgXgXgXgXgXgXgXgXgXgXgXgXgXgXgXgXgXgXgXgXgXgXgXgXgXgXgXgXgXgXgXgXgXgXgX",
"gXgXgXgXgXgXgXgXgXgXgXgXgXgXgXgXgXgXgXgXgXgXgXgXgXgXgXgXgXgXgXgXgXgXgXgXgXgXgXgXgXgXgXgXgXgXgXgXgXgXgXgXgXgXgXgXgXgXgXgXgXgXgXgXgXgXgXgXgXgXgXgXgXgXgXgXgXgXgXgXgXgXgXgXgXgXgXgXgXgX",
"gXgXgXgXgXgXgXgXgXgXgXgXgXgXgXgXgXgXgXgXgXgXgXgXgXgXgXgXgXgXgXgXgXgXgXgXgXgXgXgXgXgXgXgXgXgXgXgXgXgXgXgXgXgXgXgXgXgXgXgXgXgXgXgXgXgXgXgXgXgXgXgXgXgXgXgXgXgXgXgXgXgXgXgXgXgXgXgXgXgX",
"gXgXgXgXgXgXgXgXgXgXgXgXgXgXgXgXgXgXgXgXgXgXgXgXgXgXgXgXgXgXgXgXgXgXgXgXgXgXgXgXgXgXgXgXgXgXgXgXgXgXgXgXgXgXgXgXgXgXgXgXgXgXgXgXgXgXgXgXgXgXgXgXgXgXgXgXgXgXgXgXgXgXgXgXgXgXgXgXgXgX",
"gXgXgXgXgXgXgXgXgXgXgXgXgXgXgXgXgXgXgXgXgXgXgXgXgXgXgXgXgXgXgXgXgXgXgXgXgXgXgXgXgXgXgXgXgXgXgXgXgXgXgXgXgXgXgXgXgXgXgXgXgXgXgXgXgXgXgXgXgXgXgXgXgXgXgXgXgXgXgXgXgXgXgXgXgXgXgXgXgXgX",
"gXgXgXgXgXgXgXgXgXgXgXgXgXgXgXgXgXgXgXgXgXgXgXgXgXgXgXgXgXgXgXgXgXgXgXgXgXgXgXgXgXgXgXgXgXgXgXgXgXgXgXgXgXgXgXgXgXgXgXgXgXgXgXgXgXgXgXgXgXgXgXgXgXgXgXgXgXgXgXgXgXgXgXgXgXgXgXgXgXgX",
"gXgXgXgXgXgXgXgXgXgXgXgXgXgXgXgXgXgXgXgXgXgXgXgXgXgXgXgXgXgXgXgXgXgXgXgXgXgXgXgXgXgXgXgXgXgXgXgXgXgXgXgXgXgXgXgXgXgXgXgXgXgXgXgXgXgXgXgXgXgXgXgXgXgXgXgXgXgXgXgXgXgXgXgXgXgXgXgXgXgX",
"gXgXgXgXgXgXgXgXgXgXgXgXgXgXgXgXgXgXgXgXgXgXgXgXgXgXgXgXgXgXgXgXgXgXgXgXgXgXgXgXgXgXgXgXgXgXgXgXgXgXgXgXgXgXgXgXgXgXgXgXgXgXgXgXgXgXgXgXgXgXgXgXgXgXgXgXgXgXgXgXgXgXgXgXgXgXgXgXgXgX",
"gXgXgXgXgXgXgXgXgXgXgXgXgXgXgXgXgXgXgXgXgXgXgXgXgXgXgXgXgXgXgXgXgXgXgXgXgXgXgXgXgXgXgXgXgXgXgXgXgXgXgXgXgXgXgXgXgXgXgXgXgXgXgXgXgXgXgXgXgXgXgXgXgXgXgXgXgXgXgXgXgXgXgXgXgXgXgXgXgXgX",
"gXgXgXgXgXgXgXgXgXgXgXgXgXgXgXgXgXgXgXgXgXgXgXgXgXgXgXgXgXgXgXgXgXgXgXgXgXgXgXgXgXgXgXgXgXgXgXgXgXgXgXgXgXgXgXgXgXgXgXgXgXgXgXgXgXgXgXgXgXgXgXgXgXgXgXgXgXgXgXgXgXgXgXgXgXgXgXgXgXgX",
"gXgXgXgXgXgXgXgXgXgXgXgXgXgXgXgXgXgXgXgXgXgXgXgXgXgXgXgXgXgXgXgXgXgXgXgXgXgXgXgXgXgXgXgXgXgXgXgXgXgXgXgXgXgXgXgXgXgXgXgXgXgXgXgXgXgXgXgXgXgXgXgXgXgXgXgXgXgXgXgXgXgXgXgXgXgXgXgXgXgX",
"gXgXgXgXgXgXgXgXgXgXgXgXgXgXgXgXgXgXgXgXgXgXgXgXgXgXgXgXgXgXgXgXgXgXgXgXgXgXgXgXgXgXgXgXgXgXgXgXgXgXgXgXgXgXgXgXgXgXgXgXgXgXgXgXgXgXgXgXgXgXgXgXgXgXgXgXgXgXgXgXgXgXgXgXgXgXgXgXgXgX",
"gXgXgXgXgXgXgXgXgXgXgXgXgXgXgXgXgXgXgXgXgXgXgXgXgXgXgXgXgXgXgXgXgXgXgXgXgXgXgXgXgXgXgXgXgXgXgXgXgXgXgXgXgXgXgXgXgXgXgXgXgXgXgXgXgXgXgXgXgXgXgXgXgXgXgXgXgXgXgXgXgXgXgXgXgXgXgXgXgXgX",
"gXgXgXgXgXgXgXgXgXgXgXgXgXgXgXgXgXgXgXgXgXgXgXgXgXgXgXgXgXgXgXgXgXgXgXgXgXgXgXgXgXgXgXgXgXgXgXgXgXgXgXgXgXgXgXgXgXgXgXgXgXgXgXgXgXgXgXgXgXgXgXgXgXgXgXgXgXgXgXgXgXgXgXgXgXgXgXgXgXgX",
"gXgXgXgXgXgXgXgXgXgXgXgXgXgXgXgXgXgXgXgXgXgXgXgXgXgXgXgXgXgXgXgXgXgXgXJ J L J J L J gXgXgXgXgXgXgXgXgXgXgXgXgXgXgXgXgXgXgXgXgXgXgXgXgXgXgXgXgXgXgXgXgXgXgXgXgXgXgXgXgXgXgXgXgXgXgXgX",
"gXgXgXgXgXgXgXgXgXgXgXgXgXgXgXgXgXgXgXgXgXgXgXgXgXgXgXgXgXgXgXgXgXJ J L J J J J L J J J gXgXgXgXgXgXgXgXgXgXgXgXgXgXgXgXgXgXgXgXgXgXgXgXgXgXgXgXgXgXgXgXgXgXgXgXgXgXgXgXgXgXgXgXgXgX",
"gXgXgXgXgXgXgXgXgXgXgXgXgXgXgXgXgXgXgXgXgXgXgXgXgXgXgXgXgXgXgXgXgXH L L J J J K L L H J J gXgXgXgXgXgXgXgXgXgXgXgXgXgXgXgXgXgXgXgXgXgXgXgXgXgXgXgXgXgXgXgXgXgXgXgXgXgXgXgXgXgXgXgXgX",
"gXgXgXgXgXgXgXgXgXgXgXgXgXgXgXgXgXgXgXgXgXgXgXgXgXgXgXgXgXgXgXgXL H H H P P K K J L H H H gXgXgXgXgXgXgXgXgXgXgXgXgXgXgXgXgXgXgXgXgXgXgXgXgXgXgXgXgXgXgXgXgXgXgXgXgXgXgXgXgXgXgXgXgX",
"gXgXgXgXgXgXgXgXgXgXgXgXgXgXgXgXgXgXgXgXgXgXgXgXgXgXgXgXgXgXgXgXD H g J P P P P P L H g H gXgXgXgXgXgXgXgXgXgXgXgXgXgXgXgXgXgXgXgXgXgXgXgXgXgXgXgXgXgXgXgXgXgXgXgXgXgXgXgXgXgXgXgXgX",
"gXgXgXgXgXgXgXgXgXgXgXgXgXgXgXgXgXgXgXgXgXgXgXgXgXgXgXgXgXgXgXgXq i f H P P P P L H f i q gXgXgXgXgXgXgXgXgXgXgXgXgXgXgXgXgXgXgXgXgXgXgXgXgXgXgXgXgXgXgXgXgXgXgXgXgXgXgXgXgXgXgXgXgX",
"gXgXgXgXgXgXgXgXgXgXgXgXgXgXgXgXgXgXgXgXgXgXgXgXgXgXgXgXgXgXgXgX9 q e H H K P J J g u q 9 gXgXgXgXgXgXgXgXgXgXgXgXgXgXgXgXgX6 7 gXgXgXgXgXgXgXgXgXgXgXgXgXgXgXgXgXgXgXgXgXgXgXgXgXgX",
"gXgXgXgXgXgXgXgXgXgXgXgXgXgXgXgXgXgXgXgXgXgXgXgXgXgXgXgXgXgXgXgX, 9 e u h h h h h d e 0 , gXgXgXgXgXgXgXgXgXgXgXgXgXgXgX$ 3 6 7 u f H H L L J H H H H H H gXgXgXgXgXgXgXgXgXgXgXgXgX",
"gXgXgXgXgXgXgXgXgXgXgXgXgXgXgXgXgXgXgXgXgXgXgXgXgXgXgXgXgXgXgXgX; , 2 7 y y h h d 7 8 , ; gXgXgXgXgXgXgXgXgXgXgXgXgXgX% * 3 6 w u f f H H J H H H H H H H H H gXgXgXgXgXgXgXgXgXgXgX",
"gXgXgXgXgXgXgXgXgXgXgXgXgXgXgXgXgXgXgXgXgXgXgXgXgXgXgXgXgXgXgXgX; : 6 4 t r t t 6 6 4 > ; gXgXgXgXgXgXgXgXgXgXgXgXgX* * 3 6 6 u d f H J H H L H H H H H H H H H gXgXgXgXgXgXgXgXgXgX",
"gXgXgXgXgXgXgXgXgXgXgXgXgXgXgXgXgXgXgXgXgXgXgXgXgXgXgXgXgXgXgXgXx s r 3 > > , : > 1 r p z gXgXgXgXgXgXgXgXgXgXgXgX; > 3 4 7 u f f H H J P P P P L K L J H H g H H gXgXgXgXgXgXgXgXgX",
"gXgXgXgXgXgXgXgXgXgXgXgXgXgXgXgXgXgXgXgXgXgXgXgXgXgXgXgXgXgXgXO.S v p $ ; ; + + + > p x V O.gXgXgXgXgXgXgXgXgXgXgX; < 8 7 u f f H H J L P P P P P K L H H H H H H H gXgXgXgXgXgXgXgX",
"gXgXgXgXgXgXgXgXgXgXgXgXgXgXgXgXgXgXgXgXgXgXgXgXgXgXgXgXgXgX4.@.~ B a @ + + O + + + a C X.*.t.gXgXgXgXgXgXgXgXgX; ; , 8 y f f H H H J L L P P P K L L J H H H H L H H gXgXgXgXgXgXgX",
"gXgXgXgXgXgXgXgXgXgXgXgXgXgXgXgXgXgXgXgXgXgXgXgXgXgXgXgXj.u.t.=.+.V z > O O . O O + z V +.4.y.j.z.j.u.w.$.V t + ; , 9 e f f f H H L L L L L L L L J J H H H H H H H L J gXgXgXgXgXgX",
"gXgXgXgXgXgXgXgXgXgXgXgXgXgXgXgXgXgXgXgXgXgXgXgXgXgXgXj.k.u.r.3.$.~ v : + . . . O + x ^ @.w.u.j.l.d.y.4.+.C p + + , 9 q H H H H H H H H H J H H H H H H H H H H H H H H H H gXgXgXgX",
"gXgXgXgXgXgXgXgXgXgXgXgXgXgXgXgXgXgXgXgXgXgXgXgXgXgXl.z.h.s.y.w.*.X.b : O       O ; c ~ *.6.u.h.h.h.r.3.+.C d + ; , 9 q H H H H H H H H H H H H H H H H J H H H H H H H H H J gXgXgX",
"gXgXgXgXgXgXgXgXgXgXgXgXgXgXgXgXgXgXgXgXgXgXgXgXgXl.z.k.j.l.h.y.=.O.b ; O       O + v ^ *.6.u.h.j.a.r.3.+.C t ; ; 9 9 D H H H L L H H H H H H H H H H H L J K J H H H H H H H H H H ",
"gXgXgXgXgXgXgXgXgXgXgXgXgXgXgXgXgXgXgXgXgXgXgXgXgXj.l.l.z.z.z.y.4.O.B ; .     . O ; c ^ @.4.r.a.s.a.t.=.O.C t ; , , 0 D H L L L H H H H H H H H H H H H L L K L H H H H H H H H H H ",
"gXgXgXgXgXgXgXgXgXgXgXgXgXgXgXgXgXgXgXgXgXgXgXgXc.l.l.l.z.z.k.y.3.O.B ; O     O + ; k V O.*.4.t.t.w.3.@.~ B t ; , 9 q D H H L L H H H H H H H H H H H H H H J K H H H H H H H g H H ",
"gXgXgXgXgXgXgXgXgXgXgXgXgXgXgX~.(.`.:XOX%X@Xj.g.g.c.x.l.z.z.h.r.=.O.B ; O   . O + : a B ^ O.@.*.*.*.+.X.C z r ; , 0 q D H H L L H H H H H H H H H H H H H H J J H H H g H H H H H H ",
"gXgXgXgXgXgXgXgXgXgXgXgXgXgX^.Q.(.'.>XoXOXs.k.g.f.c.x.x.j.h.u.w.*.~ b : O . O + ; > p a B V ^ ~ ~ ~ V B v s 5 : 0 0 e D H H L L H H H H H f H H H H H H H L L L H H H H H H H H I J ",
"gXgXgXgXgXgXgXgXgXgXgXgXgX~.^.Q.(.`.>XOX%X@Xh.f.q.g.c.j.j.h.y.6.*.~ B ; O . O + ; 3 y p a a z c c c z a s r 4 8 8 u u f H L H H H H H H H H H H H H H H H L L H H H H H H H H H gXgX",
"gXgXgXgXgXgXgXgXgXgXgXgXgX~.~.Q.).{.4X,X%X@X@Xq.q.f.c.c.h.a.r.4.@.~ b : O O O + > 3 3 > ; ; + ; ; ; + + @ 1 4 5 w u g g g H H L H H H H H H H H H H H H H H L L H H H H H g H g gXgX",
"gXgXgXgXgXgXgXgXgXgXgXgXY.W.Q.^._.].2X,X&X$Xl.q.q.q.f.d.a.i.w.-.@.^ v : + O + ; 3 4 > ; + + O O O O O + + + 3 7 d d d g H H L H H H H H H H H H H H H H J J H H H H H H H H H H gXgX",
"gXgXgXgXgXgXgXgXgXgXgXA.J.Y.!.^._.].3X,X%X@Xv.0.0.0.v.v.i.e.8.=.+.^ c : + O + ; 3 6 > ; + + O O O O O O + + 4 7 d d d g H H H J H H H H H H H H H H H H H L L J H H H H H H H H gXgX",
"gXgXgXgXgXgXgXgXgXX Q B.D.T.W.Q._.].3X>X Xv.,...2. .9.0.e.8.-.@.X.V c : + + + ; 3 6 2 ; ; + + + + + + + + : 3 7 d d h g g H L H H H H H H H H H H H H H H J L H H H H H H H g H gXgX",
"gXgXgXgXgXgXgXgXX o R n.A.J.W.Q.L.'.`.>XP.<...| | |  .,.<.-.;.+.X.m k > ; + ; ; 2 4 3 > : ; ; ; + + ; + @ 1 3 6 7 u u g H H L H J H H H H H H H H H H H J H L H H H H H H f H g gXgX",
"gXgXgXgXgXgXgXX X & F n.Z.K.W.W.'.'.`.P.P.:...' ' | ,.,.,.-.%.o.X.m k > ; + ; ; 2 3 4 4 3 3 3 2 3 > 3 3 $ 3 4 6 w u f g g L H L H H H H H H H H H H H H H H L J H H H H H H H H gXgX",
"gXgXgXgXgXgXX X X $ G n.A.R.~.~.).'.`..XP.P.,.,.,.,.,.,.-.;.%.o.] m k 1 + + ; ; 2 3 4 3 4 4 4 4 3 4 3 3 * 3 3 6 7 d u H H H H L H H f H H H H H H H H H H J L L H H H H H H H H gXgX",
"gXgXgXgXgXgXX X X $ W n.A.R.L.~./.'.>X>XP. X+X:.<.<.<.<.:.,.%.o.Z m k , ; + + ; > 6 4 4 4 4 4 4 4 4 3 3 3 3 4 6 w u f g g H J H H H H H H H H H H f H H H J L H H H H H H H H g gXgX",
"gXgXgXgXgXgXX X X % R M.A.J.W.!./.].}.4X<X&X&X#X@X@Xp.i.w.5.} [ ] S x : + + + ; > 4 4 4 3 4 4 4 4 4 3 3 3 3 4 6 7 u i H H L H L H H H H H H H H H H H H J H L H H H H H J J I g gXgX",
"gXgXgXgXgXgXX X X % R M.A.L.W.!.).].2X5XtX0X0X-X-X*X$X@Xy.9.5.} [ S x : + O + ; : 4 4 3 4 4 4 4 4 4 3 3 * 3 3 5 w u u f g H J H H H H H H H H H H H H H H H L J H H H H g g J H gXgX",
"gXgXgXgXgXgXX X X % R M.S.L.L.Q._.[.8X7XeXeXfXwX=X=X;X$Xs.y.5.} [ Z x : O O O ; : 4 4 4 4 4 4 4 4 4 3 4 * 3 4 6 7 u f H H H L H H H H H H H H H H H H H H J L H H H H H J g H H gXgX",
"gXgXgXgXgXgXX X X % R n.Z.K.L.Q._.[.6XiXyXaXpXpXwXqX=X*Xk.d.7.7.%.Z b : O O + + : 3 4 4 4 4 4 3 4 4 3 3 3 * 4 6 w u u g g H J H H H H H H H H H H H H f H J L H H H H H H H g H gXgX",
"gXgXgXgXgXgXX X X # F n.C.K.K.W.).[.6XiXuXdXsXsXpXwX=X;X@Xy.7.} [ A n ; O O O + : 4 4 4 4 4 4 4 4 4 3 * 3 4 4 6 7 u f g H H L H H H H H H H H H H H H H H H L J H H H H H H H H gXgX",
"gXgXgXgXgXgXgXX X # F Q M.V.K.L.(.3X6XyXuXdXsXsXpXwX=X;Xk.9.7.} [ S v ; + O + + : 4 4 4 4 4 4 4 4 4 3 4 * * 4 6 7 w f f H H L H H H H H g H H H H H H H H H L H H H H H H H g H gXgX",
"gXgXgXgXgXgXgXgXX & F Q m.V.S.L.(.{.6XiXuXaXdXdXpXqX-X#Xy.5.} { ` S x : + O + + 2 4 4 4 8 4 4 4 3 4 * * 3 * 4 6 w u f g H H L H H H H H H H H H H H H H H J H J H H H H H g H H gXgX",
"gXgXgXgXgXgXgXgXgX& F Q m.m.C.K.E.{.6X7XuXaXdXdXfXqX&X#X6.$.` N N n a > + + + + > 4 4 3 3 4 4 4 4 4 3 4 * 3 4 6 w u f g H H L L H H H H H H H H H H H H H H H L H H H H H H H H gXgX",
"gXgXgXgXgXgXgXgXgXgXgXE N.m.m.V.E.}.2XrXyXuXaXfXeX0XOX X@.] N N j k s 1 ; ; ; ; 3 4 4 4 4 4 3 4 4 4 * 4 3 * 3 7 7 u i H H L J J H H H H H H H H H H H H H H H L g H H H H H H g gXgX",
"gXgXgXgXgXgXgXgXgXgXgXgXb.b.b.C.F.`.3X5XrXeXuXeX0X<X X>./ j = = = - r 3 ; : : 2 3 4 4 3 4 4 4 4 4 4 3 4 * * 4 6 w u u H H L L J L H H H H H H H H H g H H L J H H H H H H H H H gXgX",
"gXgXgXgXgXgXgXgXgXgXgXgXgXT b.b.F.U.:X4X5X5XtX5X<XoX|._ U         . 1 4 3 3 4 3 4 4 4 4 4 3 4 4 4 4 3 * 3 * 4 6 7 u u g H J L H H H H H H H H g H H H H J J L L H H H H H H H g gXgX",
"gXgXgXgXgXgXgXgXgXgXgXgXgXY T E F.G.U.oX<X5X5X5X<X|.H.( q           @ 5 6 5 5 5 4 4 4 4 4 4 4 4 4 4 3 4 * 4 3 6 w u u H g g H H H H H H H H H H H H H H H L J L H H H H H H H L gXH ",
"gXgXgXgXgXgXgXgXgXgXgXgXgXgXY E ! G.U.oX<X5X5X5XoXI.H.W 9         . + 4 5 r 5 6 4 4 4 4 3 4 4 4 4 4 3 3 3 3 4 6 7 w u u f f H g g H H H H H H H H H H H L L H J H H H H H H H H H H ",
"gXgXgXgXgXgXgXgXgXgXgXgXgXgXgXE ! G.I.oX<X5X5X5XoXH.) G ,         O > 4 5 5 5 6 4 4 4 4 4 4 4 4 3 4 4 4 4 3 4 6 6 w w w u f f f H g H H L L H H H H H H H L J J H H H H H g H H H H ",
"gXgXgXgXgXgXgXgXgXgXgXgXgXgXgXgXgXgXgXgXgXgXgXgXI.H.( I , .     . + $ 4 5 5 4 4 3 4 4 4 4 4 4 3 4 4 4 * 4 3 4 4 6 6 7 7 w w u f f H H J L L H H H H H H L J J L L H H g H H H g H H ",
"gXgXgXgXgXgXgXgXgXgXgXgXgXgXgXgXgXgXgXgXgXgXgXgXgX( U I 8 + + + + > 3 4 4 4 4 4 4 4 4 4 4 4 4 4 4 4 4 4 3 3 4 8 6 4 6 6 6 w u u f g H H L H H H H H H H L J L L H H H H H H H I H H ",
"gXgXgXgXgXgXgXgXgXgXgXgXgXgXgXgXgXgXgXgXgXgXgXgXgXgXh t 6 3 4 4 3 3 4 4 4 4 4 4 4 3 4 4 4 4 4 4 4 3 4 4 4 4 4 4 4 4 * 3 6 6 7 u u H H H L L H L H H H H H J J J H H H H H H H H H H ",
"gXgXgXgXgXgXgXgXgXgXgXgXgXgXgXgXgXgXgXgXgXgXgXgXgXgX  O 1 5 7 6 7 4 3 4 4 4 4 4 4 4 4 4 4 4 4 4 4 4 3 4 4 4 4 4 3 3 * * * 4 6 w u u f H H H H H H H H H H H H H H H H H J H H gXgXgX",
"gXgXgXgXgXgXgXgXgXgXgXgXgXgXgXgXgXgXgXgXgXgXgXgXgXgXgX  3 6 7 7 7 6 4 4 4 4 4 4 4 4 4 4 3 4 4 4 4 4 4 4 4 4 4 3 4 * * * * 3 6 7 u u f g H H H H H H H H H H H H H H H H H gXgXgXgXgX",
"gXgXgXgXgXgXgXgXgXgXgXgXgXgXgXgXgXgXgXgXgXgXgXgXgXgXgXgX@ 6 t 7 5 6 4 4 6 6 6 4 3 4 4 4 4 4 4 4 4 4 4 4 4 4 4 4 3 3 * * * 3 6 6 7 w u f u f g H L J J L H H H H H H H H gXgXgXgXgXgX",
"gXgXgXgXgXgXgXgXgXgXgXgXgXgXgXgXgXgXgXgXgXgXgXgXgXgXgXgXgXgXr 7 6 4 4 6 6 6 6 4 8 4 4 * 4 4 4 4 4 3 4 4 4 4 3 4 3 * 4 * 3 3 3 6 8 7 w u u f H L L L L J L H H H H H H gXgXgXgXgXgXgX",
"gXgXgXgXgXgXgXgXgXgXgXgXgXgXgXgXgXgXgXgXgXgXgXgXgXgXgXgXgXgXgX7 4 6 4 6 6 6 6 6 4 4 4 4 4 4 4 4 4 4 4 4 4 4 4 4 4 4 3 4 4 4 4 4 6 6 6 7 u u f H J J P J H H H H H f gXgXgXgXgXgXgXgX",
"gXgXgXgXgXgXgXgXgXgXgXgXgXgXgXgXgXgXgXgXgXgXgXgXgXgXgXgXgXgXgXgX4 4 4 6 6 6 6 4 4 4 4 4 4 4 4 4 4 4 4 3 4 4 4 4 4 4 4 4 4 4 4 4 3 3 3 4 7 w u H H J H L J H H H H gXgXgXgXgXgXgXgXgX",
"gXgXgXgXgXgXgXgXgXgXgXgXgXgXgXgXgXgXgXgXgXgXgXgXgXgXgXgXgXgXgXgX4 3 4 3 6 6 6 4 4 4 4 4 4 4 4 3 4 4 4 4 4 3 4 4 4 4 3 4 4 4 4 4 * 3 3 4 6 7 w f g H H J H L L H gXgXgXgXgXgXgXgXgXgX",
"gXgXgXgXgXgXgXgXgXgXgXgXgXgXgXgXgXgXgXgXgXgXgXgXgXgXgXgXgXgXgXgXgX6 3 6 3 3 3 4 4 4 6 5 6 3 6 3 3 4 4 6 4 6 3 3 8 4 4 6 4 4 4 * 3 $ $ 3 6 7 w u H H H J L L H gXgXgXgXgXgXgXgXgXgXgX",
"gXgXgXgXgXgXgXgXgXgXgXgXgXgXgXgXgXgXgXgXgXgXgXgXgXgXgXgXgXgXgXgXgXgX3 4 4 6 4 4 4 4 6 6 6 6 4 6 8 4 4 6 4 4 6 6 4 5 6 3 6 4 4 4 3 3 4 3 4 6 w u i H J J gXgXgXgXgXgXgXgXgXgXgXgXgXgX",
"gXgXgXgXgXgXgXgXgXgXgXgXgXgXgXgXgXgXgXgXgXgXgXgXgXgXgXgXgXgXgXgXgXgXgXgX3 6 3 4 4 4 6 6 6 6 6 6 6 4 6 6 6 6 4 6 6 6 6 6 6 6 6 4 4 6 4 4 6 6 7 w f gXgXgXgXgXgXgXgXgXgXgXgXgXgXgXgXgX",
"gXgXgXgXgXgXgXgXgXgXgXgXgXgXgXgXgXgXgXgXgXgXgXgXgXgXgXgXgXgXgXgXgXgXgXgXgX4 4 6 3 6 6 6 6 6 6 6 6 6 6 6 6 6 6 6 6 6 6 6 4 6 6 6 6 6 r 4 3 6 7 w gXgXgXgXgXgXgXgXgXgXgXgXgXgXgXgXgXgX",
"gXgXgXgXgXgXgXgXgXgXgXgXgXgXgXgXgXgXgXgXgXgXgXgXgXgXgXgXgXgXgXgXgXgXgXgXgXgX4 4 4 6 6 6 6 6 6 6 4 6 6 4 6 4 4 6 4 4 6 4 6 4 4 6 6 6 6 4 4 4 6 gXgXgXgXgXgXgXgXgXgXgXgXgXgXgXgXgXgXgX",
"gXgXgXgXgXgXgXgXgXgXgXgXgXgXgXgXgXgXgXgXgXgXgXgXgXgXgXgXgXgXgXgXgXgXgXgXgXgXgX4 4 3 4 6 6 3 4 3 4 3 4 4 4 4 4 4 4 3 4 4 4 4 4 4 4 6 4 4 4 4 5 gXgXgXgXgXgXgXgXgXgXgXgXgXgXgXgXgXgXgX",
"gXgXgXgXgXgXgXgXgXgXgXgXgXgXgXgXgXgXgXgXgXgXgXgXgXgXgXgXgXgXgXgXgXgXgXgXgXgXgX4 4 4 4 4 3 6 3 4 4 4 4 4 4 4 4 4 4 4 4 4 4 4 4 4 4 4 4 4 4 4 gXgXgXgXgXgXgXgXgXgXgXgXgXgXgXgXgXgXgXgX",
"gXgXgXgXgXgXgXgXgXgXgXgXgXgXgXgXgXgXgXgXgXgXgXgXgXgXgXgXgXgXgXgXgXgXgXgXgXgXgXgX4 4 4 4 4 3 6 6 4 4 4 4 4 4 4 4 4 4 4 4 4 4 4 4 4 4 4 4 3 gXgXgXgXgXgXgXgXgXgXgXgXgXgXgXgXgXgXgXgXgX",
"gXgXgXgXgXgXgXgXgXgXgXgXgXgXgXgXgXgXgXgXgXgXgXgXgXgXgXgXgXgXgXgXgXgXgXgXgXgXgXgXgXgXgX6 gXgXgXgXgXgXgXgXgXgXgXgXgXgXgXgXgXgXgXgXgX6 gXgXgXgXgXgXgXgXgXgXgXgXgXgXgXgXgXgXgXgXgXgXgXgX",
"gXgXgXgXgXgXgXgXgXgXgXgXgXgXgXgXgXgXgXgXgXgXgXgXgXgXgXgXgXgXgXgXgXgXgXgXgXgXgXgXgXgXgXgXgXgXgXgXgXgXgXgXgXgXgXgXgXgXgXgXgXgXgXgXgXgXgXgXgXgXgXgXgXgXgXgXgXgXgXgXgXgXgXgXgXgXgXgXgXgX",
"gXgXgXgXgXgXgXgXgXgXgXgXgXgXgXgXgXgXgXgXgXgXgXgXgXgXgXgXgXgXgXgXgXgXgXgXgXgXgXgXgXgXgXgXgXgXgXgXgXgXgXgXgXgXgXgXgXgXgXgXgXgXgXgXgXgXgXgXgXgXgXgXgXgXgXgXgXgXgXgXgXgXgXgXgXgXgXgXgXgX",
"gXgXgXgXgXgXgXgXgXgXgXgXgXgXgXgXgXgXgXgXgXgXgXgXgXgXgXgXgXgXgXgXgXgXgXgXgXgXgXgXgXgXgXgXgXgXgXgXgXgXgXgXgXgXgXgXgXgXgXgXgXgXgXgXgXgXgXgXgXgXgXgXgXgXgXgXgXgXgXgXgXgXgXgXgXgXgXgXgXgX",
"gXgXgXgXgXgXgXgXgXgXgXgXgXgXgXgXgXgXgXgXgXgXgXgXgXgXgXgXgXgXgXgXgXgXgXgXgXgXgXgXgXgXgXgXgXgXgXgXgXgXgXgXgXgXgXgXgXgXgXgXgXgXgXgXgXgXgXgXgXgXgXgXgXgXgXgXgXgXgXgXgXgXgXgXgXgXgXgXgXgX",
"gXgXgXgXgXgXgXgXgXgXgXgXgXgXgXgXgXgXgXgXgXgXgXgXgXgXgXgXgXgXgXgXgXgXgXgXgXgXgXgXgXgXgXgXgXgXgXgXgXgXgXgXgXgXgXgXgXgXgXgXgXgXgXgXgXgXgXgXgXgXgXgXgXgXgXgXgXgXgXgXgXgXgXgXgXgXgXgXgXgX",
"gXgXgXgXgXgXgXgXgXgXgXgXgXgXgXgXgXgXgXgXgXgXgXgXgXgXgXgXgXgXgXgXgXgXgXgXgXgXgXgXgXgXgXgXgXgXgXgXgXgXgXgXgXgXgXgXgXgXgXgXgXgXgXgXgXgXgXgXgXgXgXgXgXgXgXgXgXgXgXgXgXgXgXgXgXgXgXgXgXgX",
"gXgXgXgXgXgXgXgXgXgXgXgXgXgXgXgXgXgXgXgXgXgXgXgXgXgXgXgXgXgXgXgXgXgXgXgXgXgXgXgXgXgXgXgXgXgXgXgXgXgXgXgXgXgXgXgXgXgXgXgXgXgXgXgXgXgXgXgXgXgXgXgXgXgXgXgXgXgXgXgXgXgXgXgXgXgXgXgXgXgX",
"gXgXgXgXgXgXgXgXgXgXgXgXgXgXgXgXgXgXgXgXgXgXgXgXgXgXgXgXgXgXgXgXgXgXgXgXgXgXgXgXgXgXgXgXgXgXgXgXgXgXgXgXgXgXgXgXgXgXgXgXgXgXgXgXgXgXgXgXgXgXgXgXgXgXgXgXgXgXgXgXgXgXgXgXgXgXgXgXgXgX",
"gXgXgXgXgXgXgXgXgXgXgXgXgXgXgXgXgXgXgXgXgXgXgXgXgXgXgXgXgXgXgXgXgXgXgXgXgXgXgXgXgXgXgXgXgXgXgXgXgXgXgXgXgXgXgXgXgXgXgXgXgXgXgXgXgXgXgXgXgXgXgXgXgXgXgXgXgXgXgXgXgXgXgXgXgXgXgXgXgXgX",
"gXgXgXgXgXgXgXgXgXgXgXgXgXgXgXgXgXgXgXgXgXgXgXgXgXgXgXgXgXgXgXgXgXgXgXgXgXgXgXgXgXgXgXgXgXgXgXgXgXgXgXgXgXgXgXgXgXgXgXgXgXgXgXgXgXgXgXgXgXgXgXgXgXgXgXgXgXgXgXgXgXgXgXgXgXgXgXgXgXgX",
"gXgXgXgXgXgXgXgXgXgXgXgXgXgXgXgXgXgXgXgXgXgXgXgXgXgXgXgXgXgXgXgXgXgXgXgXgXgXgXgXgXgXgXgXgXgXgXgXgXgXgXgXgXgXgXgXgXgXgXgXgXgXgXgXgXgXgXgXgXgXgXgXgXgXgXgXgXgXgXgXgXgXgXgXgXgXgXgXgXgX",
"gXgXgXgXgXgXgXgXgXgXgXgXgXgXgXgXgXgXgXgXgXgXgXgXgXgXgXgXgXgXgXgXgXgXgXgXgXgXgXgXgXgXgXgXgXgXgXgXgXgXgXgXgXgXgXgXgXgXgXgXgXgXgXgXgXgXgXgXgXgXgXgXgXgXgXgXgXgXgXgXgXgXgXgXgXgXgXgXgXgX",
"gXgXgXgXgXgXgXgXgXgXgXgXgXgXgXgXgXgXgXgXgXgXgXgXgXgXgXgXgXgXgXgXgXgXgXgXgXgXgXgXgXgXgXgXgXgXgXgXgXgXgXgXgXgXgXgXgXgXgXgXgXgXgXgXgXgXgXgXgXgXgXgXgXgXgXgXgXgXgXgXgXgXgXgXgXgXgXgXgXgX",
"gXgXgXgXgXgXgXgXgXgXgXgXgXgXgXgXgXgXgXgXgXgXgXgXgXgXgXgXgXgXgXgXgXgXgXgXgXgXgXgXgXgXgXgXgXgXgXgXgXgXgXgXgXgXgXgXgXgXgXgXgXgXgXgXgXgXgXgXgXgXgXgXgXgXgXgXgXgXgXgXgXgXgXgXgXgXgXgXgXgX",
"gXgXgXgXgXgXgXgXgXgXgXgXgXgXgXgXgXgXgXgXgXgXgXgXgXgXgXgXgXgXgXgXgXgXgXgXgXgXgXgXgXgXgXgXgXgXgXgXgXgXgXgXgXgXgXgXgXgXgXgXgXgXgXgXgXgXgXgXgXgXgXgXgXgXgXgXgXgXgXgXgXgXgXgXgXgXgXgXgXgX",
"gXgXgXgXgXgXgXgXgXgXgXgXgXgXgXgXgXgXgXgXgXgXgXgXgXgXgXgXgXgXgXgXgXgXgXgXgXgXgXgXgXgXgXgXgXgXgXgXgXgXgXgXgXgXgXgXgXgXgXgXgXgXgXgXgXgXgXgXgXgXgXgXgXgXgXgXgXgXgXgXgXgXgXgXgXgXgXgXgXgX",
"gXgXgXgXgXgXgXgXgXgXgXgXgXgXgXgXgXgXgXgXgXgXgXgXgXgXgXgXgXgXgXgXgXgXgXgXgXgXgXgXgXgXgXgXgXgXgXgXgXgXgXgXgXgXgXgXgXgXgXgXgXgXgXgXgXgXgXgXgXgXgXgXgXgXgXgXgXgXgXgXgXgXgXgXgXgXgXgXgXgX",
"gXgXgXgXgXgXgXgXgXgXgXgXgXgXgXgXgXgXgXgXgXgXgXgXgXgXgXgXgXgXgXgXgXgXgXgXgXgXgXgXgXgXgXgXgXgXgXgXgXgXgXgXgXgXgXgXgXgXgXgXgXgXgXgXgXgXgXgXgXgXgXgXgXgXgXgXgXgXgXgXgXgXgXgXgXgXgXgXgXgX",
"gXgXgXgXgXgXgXgXgXgXgXgXgXgXgXgXgXgXgXgXgXgXgXgXgXgXgXgXgXgXgXgXgXgXgXgXgXgXgXgXgXgXgXgXgXgXgXgXgXgXgXgXgXgXgXgXgXgXgXgXgXgXgXgXgXgXgXgXgXgXgXgXgXgXgXgXgXgXgXgXgXgXgXgXgXgXgXgXgXgX",
"gXgXgXgXgXgXgXgXgXgXgXgXgXgXgXgXgXgXgXgXgXgXgXgXgXgXgXgXgXgXgXgXgXgXgXgXgXgXgXgXgXgXgXgXgXgXgXgXgXgXgXgXgXgXgXgXgXgXgXgXgXgXgXgXgXgXgXgXgXgXgXgXgXgXgXgXgXgXgXgXgXgXgXgXgXgXgXgXgXgX",
"gXgXgXgXgXgXgXgXgXgXgXgXgXgXgXgXgXgXgXgXgXgXgXgXgXgXgXgXgXgXgXgXgXgXgXgXgXgXgXgXgXgXgXgXgXgXgXgXgXgXgXgXgXgXgXgXgXgXgXgXgXgXgXgXgXgXgXgXgXgXgXgXgXgXgXgXgXgXgXgXgXgXgXgXgXgXgXgXgXgX",
"gXgXgXgXgXgXgXgXgXgXgXgXgXgXgXgXgXgXgXgXgXgXgXgXgXgXgXgXgXgXgXgXgXgXgXgXgXgXgXgXgXgXgXgXgXgXgXgXgXgXgXgXgXgXgXgXgXgXgXgXgXgXgXgXgXgXgXgXgXgXgXgXgXgXgXgXgXgXgXgXgXgXgXgXgXgXgXgXgXgX",
"gXgXgXgXgXgXgXgXgXgXgXgXgXgXgXgXgXgXgXgXgXgXgXgXgXgXgXgXgXgXgXgXgXgXgXgXgXgXgXgXgXgXgXgXgXgXgXgXgXgXgXgXgXgXgXgXgXgXgXgXgXgXgXgXgXgXgXgXgXgXgXgXgXgXgXgXgXgXgXgXgXgXgXgXgXgXgXgXgXgX",
"gXgXgXgXgXgXgXgXgXgXgXgXgXgXgXgXgXgXgXgXgXgXgXgXgXgXgXgXgXgXgXgXgXgXgXgXgXgXgXgXgXgXgXgXgXgXgXgXgXgXgXgXgXgXgXgXgXgXgXgXgXgXgXgXgXgXgXgXgXgXgXgXgXgXgXgXgXgXgXgXgXgXgXgXgXgXgXgXgXgX"
};
