/* XPM */
static char *result[] = {
/* columns rows colors chars-per-pixel */
"90 105 225 2 ",
"   c #000001",
".  c #00000B",
"X  c #1A0000",
"o  c #19050B",
"O  c #000014",
"+  c #00001C",
"@  c #06081F",
"#  c #190914",
"$  c #160F1E",
"%  c #1A0C1A",
"&  c #16101F",
"*  c #380000",
"=  c #2F1513",
"-  c #000222",
";  c #030A23",
":  c #0B0D23",
">  c #00012B",
",  c #000B2B",
"<  c #130E21",
"1  c #0D1227",
"2  c #161223",
"3  c #181425",
"4  c #1F1826",
"5  c #1A1629",
"6  c #1C1A2C",
"7  c #13162B",
"8  c #000233",
"9  c #000B34",
"0  c #041A39",
"q  c #1D1E32",
"w  c #131B35",
"e  c #221925",
"r  c #261D29",
"t  c #211F32",
"y  c #1F2035",
"u  c #19223C",
"i  c #2D2027",
"p  c #3C2B2A",
"a  c #332428",
"s  c #222135",
"d  c #22253C",
"f  c #25293E",
"g  c #2A2638",
"h  c #532F0F",
"j  c #452C2C",
"k  c #44312E",
"l  c #4B342F",
"z  c #4B3631",
"x  c #4F3831",
"c  c #543C33",
"v  c #5C3B26",
"b  c #663E34",
"n  c #581C00",
"m  c #74450C",
"M  c #5A4136",
"N  c #6B4C3B",
"B  c #654637",
"V  c #784D37",
"C  c #7A5239",
"Z  c #6D4C36",
"A  c #192440",
"S  c #0A335A",
"D  c #16395A",
"F  c #262B44",
"G  c #282D46",
"H  c #292E49",
"J  c #272D48",
"K  c #2B304C",
"L  c #223346",
"P  c #3F3B43",
"I  c #00006B",
"U  c #001A76",
"Y  c #133B63",
"T  c #033373",
"R  c #314456",
"E  c #024379",
"W  c #2F4C7D",
"Q  c #7D5A43",
"!  c #775541",
"~  c #705950",
"^  c #4A5665",
"/  c #566779",
"(  c #656770",
")  c #8E5812",
"_  c #BF6300",
"`  c #875536",
"'  c #996538",
"]  c #9C6425",
"[  c #B57137",
"{  c #C86E08",
"}  c #C57339",
"|  c #C36F31",
" . c #835C45",
".. c #965B43",
"X. c #896348",
"o. c #95694C",
"O. c #9C7151",
"+. c #96745E",
"@. c #9A704F",
"#. c #A76746",
"$. c #B77547",
"%. c #A27553",
"&. c #A97956",
"*. c #B77856",
"=. c #AD6F4D",
"-. c #B1736C",
";. c #897D7B",
":. c #C1734B",
">. c #C47C57",
",. c #DB862D",
"<. c #DB851E",
"1. c #B3825B",
"2. c #BA875C",
"3. c #BC8B63",
"4. c #C8874A",
"5. c #C8875D",
"6. c #D48C53",
"7. c #EA9A4A",
"8. c #E59B5C",
"9. c #F3A85D",
"0. c #C38D62",
"q. c #CB8863",
"w. c #CB9467",
"e. c #C99265",
"r. c #D49A6B",
"t. c #D99E6D",
"y. c #DA9766",
"u. c #CD9375",
"i. c #DDA06E",
"p. c #DFA474",
"a. c #EAA76A",
"s. c #F1AC67",
"d. c #E3A573",
"f. c #EBAB75",
"g. c #E9AB78",
"h. c #F1AF73",
"j. c #F0AF78",
"k. c #F3B179",
"l. c #F3B276",
"z. c #F5B16D",
"x. c #E59B62",
"c. c #00388A",
"v. c #004588",
"b. c #00548C",
"n. c #004A97",
"m. c #005694",
"M. c #00609F",
"N. c #005AAB",
"B. c #0057AA",
"V. c #0068AE",
"C. c #006DB5",
"Z. c #0068BB",
"A. c #0076BF",
"S. c #33619A",
"D. c #566B92",
"F. c #6A7685",
"G. c #007CCD",
"H. c #0074CB",
"J. c #0076D1",
"K. c #A47B90",
"L. c #798798",
"P. c #7286A8",
"I. c #008ADE",
"U. c #0084DB",
"Y. c #0080CE",
"T. c #3C8AD2",
"R. c #008CE4",
"E. c #0093EC",
"W. c #0092E7",
"Q. c #0094F2",
"!. c #0099F3",
"~. c #2B98EB",
"^. c #3799E8",
"/. c #359EF0",
"(. c #37A3F8",
"). c #7895D3",
"_. c #6A95D4",
"`. c #5897E3",
"'. c #69A7F4",
"]. c #76B3F6",
"[. c #71AAEF",
"{. c #74A0D9",
"}. c #8E8899",
"|. c #B39193",
" X c #8F8FB1",
".X c #A79BAD",
"XX c #96A3B9",
"oX c #B2AAB8",
"OX c #CE9683",
"+X c #DAA78B",
"@X c #D2AC96",
"#X c #E8B291",
"$X c #C7A5A7",
"%X c #CFB2AF",
"&X c #E8BAA0",
"*X c #F1CCB4",
"=X c #F2C19D",
"-X c #8A9CCA",
";X c #8E9BD1",
":X c #B5AAC8",
">X c #A8B6CA",
",X c #ADB4D0",
"<X c #98B6EB",
"1X c #90AAE4",
"2X c #A2ACD5",
"3X c #B7C4D9",
"4X c #A2C9F9",
"5X c #B8CEEF",
"6X c #99C1F6",
"7X c #C5CAD9",
"8X c #D3CACD",
"9X c #EFD8CB",
"0X c #FCE6D5",
"qX c #D8DDE9",
"wX c #C4DCFB",
"eX c #C3CFE0",
"rX c #DAE8FB",
"tX c #DEF1FF",
"yX c #C5E0FF",
"uX c #FDF3E8",
"iX c #EDF6FD",
"pX c #FDFEFD",
"aX c #F6FAFB",
"sX c #E9E8ED",
"dX c None",
/* pixels */
"dXdXdXdXdXdXdXdXdXdXdXdXdXdXdXdXdXdXdXdXdXdXdXdXdXdXdXdXdXdXdXdXdXdXdXdXdXdXdXdXdXdXdXdXdXdXdXdXdXdXdXdXdXdXdXdXdXdXdXdXdXdXdXdXdXdXdXdXdXdXdXdXdXdXdXdXdXdXdXdXdXdXdXdXdXdXdXdXdXdX",
"dXdXdXdXdXdXdXdXdXdXdXdXdXdXdXdXdXdXdXdXdXdXdXdXdXdXdXdXdXdXdXdXdXdXdXdXdXdXdXdXdXdXdXdXdXdXdXdXdXdXdXdXdXdXdXdXdXdXdXdXdXdXdXdXdXdXdXdXdXdXdXdXdXdXdXdXdXdXdXdXdXdXdXdXdXdXdXdXdXdX",
"dXdXdXdXdXdXdXdXdXdXdXdXdXdXdXdXdXdXdXdXdXdXdXdXdXdXdXdXdXdXdXdXdXdXdXdXdXdXdXdXdXdXdXdXdXdXdXdXdXdXdXdXdXdXdXdXdXdXdXdXdXdXdXdXdXdXdXdXdXdXdXdXdXdXdXdXdXdXdXdXdXdXdXdXdXdXdXdXdXdX",
"dXdXdXdXdXdXdXdXdXdXdXdXdXdXdXdXdXdXdXdXdXdXdXdXdXdXdXdXdXdXdXdXdXdXdXdXdXdXdXdXdXdXdXdXdXdXdXdXdXdXdXdXdXdXdXdXdXdXdXdXdXdXdXdXdXdXdXdXdXdXdXdXdXdXdXdXdXdXdXdXdXdXdXdXdXdXdXdXdXdX",
"dXdXdXdXdXdXdXdXdXdXdXdXdXdXdXdXdXdXdXdXdXdXdXdXdXdXdXdXdXdXdXdXdXdXdXdXdXdXdXdXdXdXdXdXdXdXdXdXdXdXdXdXdXdXdXdXdXdXdXdXdXdXdXdXdXdXdXdXdXdXdXdXdXdXdXdXdXdXdXdXdXdXdXdXdXdXdXdXdXdX",
"dXdXdXdXdXdXdXdXdXdXdXdXdXdXdXdXdXdXdXdXdXdXdXdXdXdXdXdXdXdXdXdXdXdXdXdXdXdXdXdXdXdXdXdXdXdXdXdXdXdXdXdXdXdXdXdXdXdXdXdXdXdXdXdXdXdXdXdXdXdXdXdXdXdXdXdXdXdXdXdXdXdXdXdXdXdXdXdXdXdX",
"dXdXdXdXdXdXdXdXdXdXdXdXdXdXdXdXdXdXdXdXdXdXdXdXdXdXdXdXdXdXdXdXdXdXdXdXdXdXdXdXdXdXdXdXdXdXdXdXdXdXdXdXdXdXdXdXdXdXdXdXdXdXdXdXdXdXdXdXdXdXdXdXdXdXdXdXdXdXdXdXdXdXdXdXdXdXdXdXdXdX",
"dXdXdXdXdXdXdXdXdXdXdXdXdXdXdXdXdXdXdXdXdXdXdXdXdXdXdXdXdXdXdXdXdXdXdXdXdXdXdXdXdXdXdXdXdXdXdXdXdXdXdXdXdXdXdXdXdXdXdXdXdXdXdXdXdXdXdXdXdXdXdXdXdXdXdXdXdXdXdXdXdXdXdXdXdXdXdXdXdXdX",
"dXdXdXdXdXdXdXdXdXdXdXdXdXdXdXdXdXdXdXdXdXdXdXdXdXdXdXdXdXdXdXdXdXdXdXdXdXdXdXdXdXdXdXdXdXdXdXdXdXdXdXdXdXdXdXdXdXdXdXdXdXdXdXdXdXdXdXdXdXdXdXdXdXdXdXdXdXdXdXdXdXdXdXdXdXdXdXdXdXdX",
"dXdXdXdXdXdXdXdXdXdXdXdXdXdXdXdXdXdXdXdXdXdXdXdXdXdXdXdXdXdXdXdXdXdXdXdXdXdXdXdXdXdXdXdXdXdXdXdXdXdXdXdXdXdXdXdXdXdXdXdXdXdXdXdXdXdXdXdXdXdXdXdXdXdXdXdXdXdXdXdXdXdXdXdXdXdXdXdXdXdX",
"dXdXdXdXdXdXdXdXdXdXdXdXdXdXdXdXdXdXdXdXdXdXdXdXdXdXdXdXdXdXdXdXdXdXdXdXdXdXdXdXdXdXdXdXdXdXdXdXdXdXdXdXdXdXdXdXdXdXdXdXdXdXdXdXdXdXdXdXdXdXdXdXdXdXdXdXdXdXdXdXdXdXdXdXdXdXdXdXdXdX",
"dXdXdXdXdXdXdXdXdXdXdXdXdXdXdXdXdXdXdXdXdXdXdXdXdXdXdXdXdXdXdXdXdXdXdXdXdXdXdXdXdXdXdXdXdXdXdXdXdXdXdXdXdXdXdXdXdXdXdXdXdXdXdXdXdXdXdXdXdXdXdXdXdXdXdXdXdXdXdXdXdXdXdXdXdXdXdXdXdXdX",
"dXdXdXdXdXdXdXdXdXdXdXdXdXdXdXdXdXdXdXdXdXdXdXdXdXdXdXdXdXdXdXdXdXdXdXdXdXdXdXdXdXdXdXdXdXdXdXdXdXdXdXdXdXdXdXdXdXdXdXdXdXdXdXdXdXdXdXdXdXdXdXdXdXdXdXdXdXdXdXdXdXdXdXdXdXdXdXdXdXdX",
"dXdXdXdXdXdXdXdXdXdXdXdXdXdXdXdXdXdXdXdXdXdXdXdXdXdXdXdXdXdXdXdXdXdXdXdXdXdXdXdXdXdXdXdXdXdXdXdXdXdXdXdXdXdXdXdXdXdXdXdXdXdXdXdXdXdXdXdXdXdXdXdXdXdXdXdXdXdXdXdXdXdXdXdXdXdXdXdXdXdX",
"dXdXdXdXdXdXdXdXdXdXdXdXdXdXdXdXdXdXdXdXdXdXdXdXdXdXdXdXdXdXdXdXdXdXdXdXdXdXdXdXdXdXdXdXdXdXdXdXdXdXdXdXdXdXdXdXdXdXdXdXdXdXdXdXdXdXdXdXdXdXdXdXdXdXdXdXdXdXdXdXdXdXdXdXdXdXdXdXdXdX",
"dXdXdXdXdXdXdXdXdXdXdXdXdXdXdXdXdXdXdXdXdXdXdXdXdXdXdXdXdXdXdXdXdXdXdXdXdXdXdXdXdXdXdXdXdXdXdXdXdXdXdXdXdXdXdXdXdXdXdXdXdXdXdXdXdXdXdXdXdXdXdXdXdXdXdXdXdXdXdXdXdXdXdXdXdXdXdXdXdXdX",
"dXdXdXdXdXdXdXdXdXdXdXdXdXdXdXdXdXdXdXdXdXdXdXdXdXdXdXdXdXdXdXdXdXdXdXdXdXdXdXdXdXdXdXdXdXdXdXdXdXdXdXdXdXdXdXdXdXdXdXdXdXdXdXdXdXdXdXdXdXdXdXdXdXdXdXdXdXdXdXdXdXdXdXdXdXdXdXdXdXdX",
"dXdXdXdXdXdXdXdXdXdXdXdXdXdXdXdXdXdXdXdXdXdXdXdXdXdXdXdXdXdXdXdXdXdXdXdXdXdXdXdXdXdXdXdXdXdXdXdXdXdXdXdXdXdXdXdXdXdXdXdXdXdXdXdXdXdXdXdXdXdXdXdXdXdXdXdXdXdXdXdXdXdXdXdXdXdXdXdXdXdX",
"dXdXdXdXdXdXdXdXdXdXdXdXdXdXdXdXdXdXdXdXdXdXdXdXdXdXdXdXdXdXdXdXdXdXdXdXdXdXdXdXdXdXdXdXdXdXdXdXH J G G G F G dXdXdXdXdXdXdXdXdXdXdXdXdXdXdXdXdXdXdXdXdXdXdXdXdXdXdXdXdXdXdXdXdXdXdX",
"dXdXdXdXdXdXdXdXdXdXdXdXdXdXdXdXdXdXdXdXdXdXdXdXdXdXdXdXdXdXdXdXdXdXdXdXdXdXdXdXdXdXdXdXdXdXG G G F J F J J F G H dXdXdXdXdXdXdXdXdXdXdXdXdXdXdXdXdXdXdXdXdXdXdXdXdXdXdXdXdXdXdXdXdX",
"dXdXdXdXdXdXdXdXdXdXdXdXdXdXdXdXdXdXdXdXdXdXdXdXdXdXdXdXdXdXdXdXdXdXdXdXdXdXdXdXdXdXdXdXdXG G G F F H G G G G F F dXdXdXdXdXdXdXdXdXdXdXdXdXdXdXdXdXdXdXdXdXdXdXdXdXdXdXdXdXdXdXdXdX",
"dXdXdXdXdXdXdXdXdXdXdXdXdXdXdXdXdXdXdXdXdXdXdXdXdXdXdXdXdXdXdXdXdXdXdXdXdXdXdXdXdXdXdXdXdXF F F F K K K H H F F F F dXdXdXdXdXdXdXdXdXdXdXdXdXdXdXdXdXdXdXdXdXdXdXdXdXdXdXdXdXdXdXdX",
"dXdXdXdXdXdXdXdXdXdXdXdXdXdXdXdXdXdXdXdXdXdXdXdXdXdXdXdXdXdXdXdXdXdXdXdXdXdXdXdXdXdXdXdXdXF A F H K K K K K H F F F dXdXdXdXdXdXdXdXdXdXdXdXdXdXdXdXdXdXdXdXdXdXdXdXdXdXdXdXdXdXdXdX",
"dXdXdXdXdXdXdXdXdXdXdXdXdXdXdXdXdXdXdXdXdXdXdXdXdXdXdXdXdXdXdXdXdXdXdXdXdXdXdXdXdXdXdXdXdX0 u F G H K K K H G d u 0 dXdXdXdXdXdXdXdXdXdXdXdXdXdXdXdXdXdXdXdXdXdXdXdXdXdXdXdXdXdXdXdX",
"dXdXdXdXdXdXdXdXdXdXdXdXdXdXdXdXdXdXdXdXdXdXdXdXdXdX6 5 dXdXdXdXdXdXdXdXdXdXdXdXdXdXdXdXdX8 0 q F G G K G G F w 0 8 dXdXdXdXdXdXdXdXdXdXdXdXdXdXdXdXdXdXdXdXdXdXdXdXdXdXdXdXdXdXdXdX",
"dXdXdXdXdXdXdXdXdXdXdXdXdXF F F F F F F F L F F d y 6 5 2 $ dXdXdXdXdXdXdXdXdXdXdXdXdXdXdX> , w t g g g g f t w > > dXdXdXdXdXdXdXdXdXdXdXdXdXdXdXdXdXdXdXdXdXdXdXdXdXdXdXdXdXdXdXdX",
"dXdXdXdXdXdXdXdXdXdXdXF F F F F F F F F F F F F d y q 5 2 $ % dXdXdXdXdXdXdXdXdXdXdXdXdXdX- > 7 r t t g g t 6 1 > - dXdXdXdXdXdXdXdXdXdXdXdXdXdXdXdXdXdXdXdXdXdXdXdXdXdXdXdXdXdXdXdX",
"dXdXdXdXdXdXdXdXdXdXF F F F F F F F F J F F F F d y q 6 3 2 2 % dXdXdXdXdXdXdXdXdXdXdXdXdX- : 7 5 r 5 t r e 5 2 ; - dXdXdXdXdXdXdXdXdXdXdXdXdXdXdXdXdXdXdXdXdXdXdXdXdXdXdXdXdXdXdXdX",
"dXdXdXdXdXdXdXdXdXF F F F F F F K K K K H H H F F F t t q 7 2 : - dXdXdXdXdXdXdXdXdXdXdXdXj a e 2 : ; ; ; : 2 e a k dXdXdXdXdXdXdXdXdXdXdXdXdXdXdXdXdXdXdXdXdXdXdXdXdXdXdXdXdXdXdXdX",
"dXdXdXdXdXdXdXdXF F F F F F F J H K K K K K H F F F F t t 6 7 , - dXdXdXdXdXdXdXdXdXdXdXX.Z l r : - - + + - < a l N X.dXdXdXdXdXdXdXdXdXdXdXdXdXdXdXdXdXdXdXdXdXdXdXdXdXdXdXdXdXdXdX",
"dXdXdXdXdXdXdXF F F F F F F F F H K K K K H H H F F d d t q w 8 - - dXdXdXdXdXdXdXdXdXe.%.X.B p @ + O + O + $ p B Q %.3.dXdXdXdXdXdXdXdXdXdXdXdXdXdXdXdXdXdXdXdXdXdXdXdXdXdXdXdXdXdX",
"dXdXdXdXdXdXF F F F F F F F F F J H F H H J H F F F F F F q w 8 > - + i N @.3.t.f.j.f.r.1.o.N j - O O . O O ; k N o.&.0.i.f.dXdXdXdXdXdXdXdXdXdXdXdXdXdXdXdXdXdXdXdXdXdXdXdXdXdXdXdX",
"dXdXdXdXF F F g F F F F F F F F F F F F F F F F F F F F F A 0 8 > - + r N o.2.r.d.h.f.t.0.O.! z - O . . . O ; z ! O.1.w.i.f.f.dXdXdXdXdXdXdXdXdXdXdXdXdXdXdXdXdXdXdXdXdXdXdXdXdXdXdX",
"dXdXdXF F F F F F F F F F F F F F F F F F F F F F F F F F F A 8 > - - r B o.1.w.d.d.d.r.0.%.Q z + O     . O ; c  .%.0.r.p.g.f.k.dXdXdXdXdXdXdXdXdXdXdXdXdXdXdXdXdXdXdXdXdXdXdXdXdXdX",
"F F F F F F F F F F H H J F F F F F F F F F F F F F F J F F A 8 > - - r B o.1.w.i.f.d.r.3.%.Q z + O       . - M X.1.w.g.k.f.f.j.j.dXdXdXdXdXdXdXdXdXdXdXdXdXdXdXdXdXdXdXdXdXdXdXdXdX",
"F F F F F F F F F F J H H F F F F F F F F F F F F G J J J F A 9 8 - - r B X.&.e.t.p.i.w.2.@.! z - . .   . . - M X.1.r.j.k.k.f.j.j.dXdXdXdXdXdXdXdXdXdXdXdXdXdXdXdXdXdXdXdXdXdXdXdXdX",
"F F F F F F F F F F H H J J F F F F F F F F F F F F J J F F A 0 8 > - r M Q @.1.0.e.0.3.%. .! k - O . .   O - M Q 1.r.g.k.k.k.j.h.s.dXdXdXdXdXdXdXdXdXdXdXdXdXdXdXdXdXdXdXdXdXdXdXdX",
"F F F F F F F F F F G G J F F F F F F F F F F F F J F J F F A 0 8 > - e k N Q o.%.&.&.O.X.! c p ; + O . . O - M X.1.w.p.k.k.j.l.z.s.s.g.+X$X:X;X_.^.E.dXdXdXdXdXdXdXdXdXdXdXdXdXdXdX",
"F F F F F F F F F F F H F J F F F F f F F F F F F F J G F F F w 0 , ; 5 a x B N ~ Q Q ! ! c k i : - O O . O + M Q 1.0.i.g.j.h.z.z.s.s.f.+X$X.X;X_.^.E.!.dXdXdXdXdXdXdXdXdXdXdXdXdXdX",
"dXdXF F F F F F F F F J F F F F F F F F F F F F F G J F F F d d w 7 7 4 e i p k z z z k p a r 4 2 - - O . O - M Q @.2.r.i.f.h.h.s.9.a.f.+X$X:X;X`.^.E.Q.Q.dXdXdXdXdXdXdXdXdXdXdXdXdX",
"dXdXF F f F F F F F F F J F F F F F F F F F F F F F J F F F f s s t 4 2 2 + - - - + - - - - : 2 2 : - O O O - c Q @.1.w.i.d.f.s.9.9.z.h.+X%X:X1X].(.W.Q.!.dXdXdXdXdXdXdXdXdXdXdXdXdX",
"dXdXF F F F F F F F F J F G F F F F F F F F F F F G F H F F f d s s 6 3 + + O O O O O O O - - 1 3 2 - + O O ; x ! @.*.0.r.d.a.a.9.9.9.z.+X%X:X<X].(.!.E.W.I.dXdXdXdXdXdXdXdXdXdXdXdX",
"dXdXF F F F F F F F G J G G F F F d F F F d F F F F F H F F d d s t 6 2 + + + O O O O O O - - : 3 3 - + + + ; z ! o.&.3.q.y.y.8.7.7.7.8.+X$X:X1X'.(.!.W.I.Y.V.dXdXdXdXdXdXdXdXdXdXdX",
"dXdXF F f F F F F F F J F F F F F F F F F F F F F F J F F F f d s s e 2 ; + + O + + O + + - - < 5 2 - + + + ; z N  .=.*.5.q.6.6.,.<.| >.>.$X;X;X'.(.E.R.U.A.M.E X dXdXdXdXdXdXdXdXdX",
"dXdXf F F F F F F F F F G F F F F F F F F F F F F F J J F F d d s t 6 2 2 @ + - - - - - - ; : 7 2 1 - + + - : j b  .#.=.>.>.>.} { { { | -.K.K.).`.~.Q.R.Y.V.b.Y o X dXdXdXdXdXdXdXdX",
"dXdXJ F F F F F F F F J F F d F F F F F F F F F J F F F F F d d y 6 5 3 & < 2 2 2 < 2 1 2 2 3 2 7 2 - - + + : j b  ...#.=.:.:.} { { _ | -.K. X).`.~.W.U.Y.V.b.D # X X dXdXdXdXdXdXdX",
"dXdXF F F F F F F F J F G F F F F F d F F F F F F F F F F F F y y 6 5 2 2 2 2 2 2 3 3 3 7 3 3 3 2 1 - - @ @ 8 j b V ..#.=.>.>.:.:.| $.=.K.K. X).`.~.W.I.Y.C.b.Y % X X X dXdXdXdXdXdX",
"dXdXf F F F f F F F G J G F F F F F F F F F F F F F F F F F d d y 6 5 3 & 2 & 2 3 3 2 3 2 2 3 3 3 1 - + - > < j b V ..#.*.>.>.>.q.q.-.OX|..X-X).`.~.W.I.Y.C.m.Y % X X X dXdXdXdXdXdX",
"dXdXJ F F F F F F F G F G G F F F F F F F d F F F F F F F d d d y 6 4 2 & 2 & 2 3 3 3 3 3 3 3 3 3 1 - + - + ; j Z ` ' $.>.q.u.u.+X+X@X$X%X:X2X1X`./.E.R.J.C.m.Y % X X X dXdXdXdXdXdX",
"dXdXF F F F F F F F G G F F F F F F F F F F F F F F F F F F F y y 6 5 3 & & 3 3 3 2 3 3 3 3 2 3 2 : - O O O ; z V ' #.:.6.t.+X#X&X=X*X9X8X7X4X<X'./.E.U.G.C.m.Y % X X X dXdXdXdXdXdX",
"dXdXF F f F F F F F J G F F F F F F F F F F F F F F F J F F F y y 6 5 3 & & & 3 2 3 3 3 3 3 3 3 5 ; - O O O - c V o.[ 4.x.f.#X=X*X9X0XsXqXqX5X<X].(.R.R.H.Z.m.Y % X X X dXdXdXdXdXdX",
"dXdXF F F F F F F f F L G F F F F F F F F F F F F F J F F F d d y y 5 2 2 4 2 2 2 3 2 3 3 3 3 3 2 ; - O O O ; c C ' $.6.x.l.&X*X0X0XuXuXiXrXwX4X].(.R.J.H.V.m.Y # X X X dXdXdXdXdXdX",
"dXdXF F F F F F F F H F F F F F F d F F F F F F F F J F F F f d y 6 6 2 2 2 2 2 3 3 3 3 3 2 3 3 3 ; - O O O - c Q ' $.,.y.#X=X*X0XuXaXpXaXtXyX4X]./.R.J.H.B.v.S # X X X dXdXdXdXdXdX",
"dXdXJ f f F F F F F F J F G F F F F F F F F F F F J F G F F d d y 6 5 7 2 & 2 2 3 3 3 3 3 3 3 3 2 : - O O O - x Z ] ' 4.6.p.=X*X0XuXpXpXiXtXyX4X].`.J.H.N.n.E S # X X dXdXdXdXdXdXdX",
"dXdXJ F L F F F F F F J F F F F F F F F f F F F F G F F F F F d y 6 5 3 2 2 & 3 3 3 3 2 3 3 3 3 5 : - + + O ; z Z C ] [ 2.u.@X*X9XuXaXaXiXtXwX4X[.T.G.Z.N.n.E S # X dXdXdXdXdXdXdXdX",
"dXdXF F f G F F F F H F G F F F F F F F F F F F F J J J F F d d y 6 5 3 2 & 2 2 3 3 3 3 3 3 3 3 2 : - + + + 1 p v m m ) 1.3.@X%X9XsXaXaXiXtXwX6X[.T.A.N.B.v.E S o dXdXdXdXdXdXdXdXdX",
"dXdXF F F F F F F F F H F F F F F F F F F F F F F J J J F F F d y y 6 2 & 2 2 2 3 3 3 3 3 3 3 2 3 2 ; - - + 2 a h h h m ` +.|.$X8XsXsXtXtXrX5X6X{.T.N.B.n.v.T dXdXdXdXdXdXdXdXdXdXdX",
"dXdXF F F F F F F F J F F G F F F F F F F F f F F F J F J F f f y 6 6 2 2 & & 3 2 3 3 3 3 3 3 3 3 2 : ; - ; 2 e = = * n h Q ;..X>X8XqXsXrXeX5X>X_.S.m.c.c.c.dXdXdXdXdXdXdXdXdXdXdXdX",
"dXdXF F F F F F F F F J G F F F F F F F F F F F F J F F F F f y y 6 6 2 2 & 2 3 2 3 3 3 2 3 3 3 2 7 3 3 3 3 3 2           P ( L.XX>X7XeX3X3X>X).P.S.c.T c.dXdXdXdXdXdXdXdXdXdXdXdXdX",
"dXdXF f F F F F F F F G F F F F F F F F F F F F F F F F f F f y y 6 6 2 2 2 2 2 3 3 3 3 3 3 3 3 3 3 3 4 4 3 3 @           1 ^ F. XoX3X3X3X3XXXP.D.S.T U I dXdXdXdXdXdXdXdXdXdXdXdXdX",
"F F F F F F F F F F J G J F F F F F F F F F F F F F F f f u d y y 6 3 3 2 2 2 4 2 3 3 3 3 3 3 3 3 3 4 e 4 4 3 ; .         9 R / L.XX>X3X3X>XXXP.D.W U I dXdXdXdXdXdXdXdXdXdXdXdXdXdX",
"F F F F F F F F F F G J H F F F F F F F F F F F F f F y y y y q 6 6 3 3 2 2 2 2 3 3 3 3 3 3 3 3 3 3 3 4 4 4 2 : O         , D / L.XX>X3X3X>XXXP.D.W T dXdXdXdXdXdXdXdXdXdXdXdXdXdXdX",
"F F F F F F F F F F J H H F F F F F F F J J F F d F y y y y 6 6 7 5 3 3 2 & 2 3 3 3 3 3 3 2 3 3 3 3 3 4 3 4 3 2 + .     . , L ^ F.}.dXdXdXdXdXdXdXdXdXdXdXdXdXdXdXdXdXdXdXdXdXdXdXdX",
"F F F F F F F F F F H H H J F F F F F J F J F F F f y y 6 6 3 5 3 3 3 3 3 4 2 3 3 3 3 3 3 3 2 3 3 3 3 2 3 3 3 3 : - + + + 1 g R ^ dXdXdXdXdXdXdXdXdXdXdXdXdXdXdXdXdXdXdXdXdXdXdXdXdX",
"F F F F F F F F F F G G F F F F F F F F F F F F y y q 6 5 2 2 2 2 2 4 3 3 3 3 3 < 3 3 2 3 3 3 3 3 3 3 3 3 2 5 2 2 7 2 7 2 3 t g dXdXdXdXdXdXdXdXdXdXdXdXdXdXdXdXdXdXdXdXdXdXdXdXdXdX",
"dXdXdXF F F F F F F F F G F F F F F F F F F F F d y q 6 2 2 % 2 < 3 3 3 3 3 3 3 2 3 2 5 3 3 3 3 3 2 3 2 2 5 3 3 5 5 4 4 3 2 O   dXdXdXdXdXdXdXdXdXdXdXdXdXdXdXdXdXdXdXdXdXdXdXdXdXdX",
"dXdXdXdXdXF F F F F F F F F F F F F F F F d F d y q q 3 2 $ 2 $ < 5 3 3 3 3 3 3 2 5 3 3 2 2 7 3 3 3 3 5 3 5 5 2 5 4 4 s 6 <   dXdXdXdXdXdXdXdXdXdXdXdXdXdXdXdXdXdXdXdXdXdXdXdXdXdXdX",
"dXdXdXdXdXdXF F F F F F F F F H G F F F F d t q q q 5 7 2 $ $ 2 < 3 2 3 3 3 3 3 5 2 3 3 4 2 2 3 3 3 5 3 5 5 5 2 5 4 4 6 6 $ dXdXdXdXdXdXdXdXdXdXdXdXdXdXdXdXdXdXdXdXdXdXdXdXdXdXdXdX",
"dXdXdXdXdXdXdXF F F F F F F F H H J F d d t q q 6 6 6 3 3 2 2 2 2 3 5 2 3 3 2 3 2 2 3 3 3 3 3 3 3 3 3 5 4 5 5 3 5 5 4 6 dXdXdXdXdXdXdXdXdXdXdXdXdXdXdXdXdXdXdXdXdXdXdXdXdXdXdXdXdXdX",
"dXdXdXdXdXdXdXdXF F F F F F J K H G F F d q q 4 5 3 3 3 3 2 2 2 2 2 2 5 3 3 3 3 2 5 3 2 3 3 3 3 3 3 3 5 5 5 5 3 3 3 5 dXdXdXdXdXdXdXdXdXdXdXdXdXdXdXdXdXdXdXdXdXdXdXdXdXdXdXdXdXdXdX",
"dXdXdXdXdXdXdXdXdXF F G L G H F J F F d q 5 5 2 2 2 2 3 3 3 4 2 2 5 3 3 3 2 3 3 4 3 3 3 3 3 2 3 3 3 5 5 5 5 5 7 3 3 dXdXdXdXdXdXdXdXdXdXdXdXdXdXdXdXdXdXdXdXdXdXdXdXdXdXdXdXdXdXdXdX",
"dXdXdXdXdXdXdXdXdXdXF G G G F F F f t q q 7 2 2 < 2 2 2 3 3 3 3 5 2 3 3 3 3 3 3 2 3 3 3 3 3 3 3 3 3 3 3 3 4 2 2 3 3 dXdXdXdXdXdXdXdXdXdXdXdXdXdXdXdXdXdXdXdXdXdXdXdXdXdXdXdXdXdXdXdX",
"dXdXdXdXdXdXdXdXdXdXdXF F J H F F F d q r 5 3 < $ 2 2 4 3 3 3 3 3 3 3 3 3 3 3 3 5 3 3 3 2 3 5 5 3 3 3 3 3 3 3 3 3 dXdXdXdXdXdXdXdXdXdXdXdXdXdXdXdXdXdXdXdXdXdXdXdXdXdXdXdXdXdXdXdXdX",
"dXdXdXdXdXdXdXdXdXdXdXdXdXdXH G F F q q 5 2 2 3 2 2 2 2 3 3 3 5 5 3 5 5 3 5 3 5 3 3 5 5 4 5 5 5 3 3 3 3 3 5 3 2 dXdXdXdXdXdXdXdXdXdXdXdXdXdXdXdXdXdXdXdXdXdXdXdXdXdXdXdXdXdXdXdXdXdX",
"dXdXdXdXdXdXdXdXdXdXdXdXdXdXdXdXdXt t 6 5 7 3 3 4 4 2 5 5 3 5 5 3 5 5 5 5 5 3 3 5 5 5 5 5 5 5 5 5 3 3 3 5 2 dXdXdXdXdXdXdXdXdXdXdXdXdXdXdXdXdXdXdXdXdXdXdXdXdXdXdXdXdXdXdXdXdXdXdXdX",
"dXdXdXdXdXdXdXdXdXdXdXdXdXdXdXdXdXdXq 5 3 3 3 5 5 5 5 5 5 5 5 5 5 5 5 5 5 5 5 5 5 5 5 5 5 5 5 5 3 3 3 3 2 dXdXdXdXdXdXdXdXdXdXdXdXdXdXdXdXdXdXdXdXdXdXdXdXdXdXdXdXdXdXdXdXdXdXdXdXdX",
"dXdXdXdXdXdXdXdXdXdXdXdXdXdXdXdXdXdXdX5 3 3 5 5 5 5 3 3 3 5 3 5 3 3 5 3 3 3 5 5 3 5 7 5 5 5 5 5 3 3 2 3 dXdXdXdXdXdXdXdXdXdXdXdXdXdXdXdXdXdXdXdXdXdXdXdXdXdXdXdXdXdXdXdXdXdXdXdXdXdX",
"dXdXdXdXdXdXdXdXdXdXdXdXdXdXdXdXdXdXdX3 3 3 3 3 5 3 3 3 3 3 3 3 3 3 3 3 3 4 2 2 3 3 3 3 3 5 5 3 3 3 5 dXdXdXdXdXdXdXdXdXdXdXdXdXdXdXdXdXdXdXdXdXdXdXdXdXdXdXdXdXdXdXdXdXdXdXdXdXdXdX",
"dXdXdXdXdXdXdXdXdXdXdXdXdXdXdXdXdXdXdXdX2 2 3 3 3 3 3 3 3 3 3 3 3 3 3 3 3 3 3 2 3 3 3 3 3 3 2 2 3 3 3 dXdXdXdXdXdXdXdXdXdXdXdXdXdXdXdXdXdXdXdXdXdXdXdXdXdXdXdXdXdXdXdXdXdXdXdXdXdXdX",
"dXdXdXdXdXdXdXdXdXdXdXdXdXdXdXdXdXdXdXdXdX3 3 3 5 3 3 3 3 3 3 3 3 3 3 3 3 3 3 3 3 3 3 3 3 3 3 5 3 3 dXdXdXdXdXdXdXdXdXdXdXdXdXdXdXdXdXdXdXdXdXdXdXdXdXdXdXdXdXdXdXdXdXdXdXdXdXdXdXdX",
"dXdXdXdXdXdXdXdXdXdXdXdXdXdXdXdXdXdXdXdXdXdXdXdX3 dXdXdXdXdXdXdXdXdXdXdXdXdXdXdXdXdXdXdXdX3 3 dXdXdXdXdXdXdXdXdXdXdXdXdXdXdXdXdXdXdXdXdXdXdXdXdXdXdXdXdXdXdXdXdXdXdXdXdXdXdXdXdXdXdX",
"dXdXdXdXdXdXdXdXdXdXdXdXdXdXdXdXdXdXdXdXdXdXdXdXdXdXdXdXdXdXdXdXdXdXdXdXdXdXdXdXdXdXdXdXdXdXdXdXdXdXdXdXdXdXdXdXdXdXdXdXdXdXdXdXdXdXdXdXdXdXdXdXdXdXdXdXdXdXdXdXdXdXdXdXdXdXdXdXdXdX",
"dXdXdXdXdXdXdXdXdXdXdXdXdXdXdXdXdXdXdXdXdXdXdXdXdXdXdXdXdXdXdXdXdXdXdXdXdXdXdXdXdXdXdXdXdXdXdXdXdXdXdXdXdXdXdXdXdXdXdXdXdXdXdXdXdXdXdXdXdXdXdXdXdXdXdXdXdXdXdXdXdXdXdXdXdXdXdXdXdXdX",
"dXdXdXdXdXdXdXdXdXdXdXdXdXdXdXdXdXdXdXdXdXdXdXdXdXdXdXdXdXdXdXdXdXdXdXdXdXdXdXdXdXdXdXdXdXdXdXdXdXdXdXdXdXdXdXdXdXdXdXdXdXdXdXdXdXdXdXdXdXdXdXdXdXdXdXdXdXdXdXdXdXdXdXdXdXdXdXdXdXdX",
"dXdXdXdXdXdXdXdXdXdXdXdXdXdXdXdXdXdXdXdXdXdXdXdXdXdXdXdXdXdXdXdXdXdXdXdXdXdXdXdXdXdXdXdXdXdXdXdXdXdXdXdXdXdXdXdXdXdXdXdXdXdXdXdXdXdXdXdXdXdXdXdXdXdXdXdXdXdXdXdXdXdXdXdXdXdXdXdXdXdX",
"dXdXdXdXdXdXdXdXdXdXdXdXdXdXdXdXdXdXdXdXdXdXdXdXdXdXdXdXdXdXdXdXdXdXdXdXdXdXdXdXdXdXdXdXdXdXdXdXdXdXdXdXdXdXdXdXdXdXdXdXdXdXdXdXdXdXdXdXdXdXdXdXdXdXdXdXdXdXdXdXdXdXdXdXdXdXdXdXdXdX",
"dXdXdXdXdXdXdXdXdXdXdXdXdXdXdXdXdXdXdXdXdXdXdXdXdXdXdXdXdXdXdXdXdXdXdXdXdXdXdXdXdXdXdXdXdXdXdXdXdXdXdXdXdXdXdXdXdXdXdXdXdXdXdXdXdXdXdXdXdXdXdXdXdXdXdXdXdXdXdXdXdXdXdXdXdXdXdXdXdXdX",
"dXdXdXdXdXdXdXdXdXdXdXdXdXdXdXdXdXdXdXdXdXdXdXdXdXdXdXdXdXdXdXdXdXdXdXdXdXdXdXdXdXdXdXdXdXdXdXdXdXdXdXdXdXdXdXdXdXdXdXdXdXdXdXdXdXdXdXdXdXdXdXdXdXdXdXdXdXdXdXdXdXdXdXdXdXdXdXdXdXdX",
"dXdXdXdXdXdXdXdXdXdXdXdXdXdXdXdXdXdXdXdXdXdXdXdXdXdXdXdXdXdXdXdXdXdXdXdXdXdXdXdXdXdXdXdXdXdXdXdXdXdXdXdXdXdXdXdXdXdXdXdXdXdXdXdXdXdXdXdXdXdXdXdXdXdXdXdXdXdXdXdXdXdXdXdXdXdXdXdXdXdX",
"dXdXdXdXdXdXdXdXdXdXdXdXdXdXdXdXdXdXdXdXdXdXdXdXdXdXdXdXdXdXdXdXdXdXdXdXdXdXdXdXdXdXdXdXdXdXdXdXdXdXdXdXdXdXdXdXdXdXdXdXdXdXdXdXdXdXdXdXdXdXdXdXdXdXdXdXdXdXdXdXdXdXdXdXdXdXdXdXdXdX",
"dXdXdXdXdXdXdXdXdXdXdXdXdXdXdXdXdXdXdXdXdXdXdXdXdXdXdXdXdXdXdXdXdXdXdXdXdXdXdXdXdXdXdXdXdXdXdXdXdXdXdXdXdXdXdXdXdXdXdXdXdXdXdXdXdXdXdXdXdXdXdXdXdXdXdXdXdXdXdXdXdXdXdXdXdXdXdXdXdXdX",
"dXdXdXdXdXdXdXdXdXdXdXdXdXdXdXdXdXdXdXdXdXdXdXdXdXdXdXdXdXdXdXdXdXdXdXdXdXdXdXdXdXdXdXdXdXdXdXdXdXdXdXdXdXdXdXdXdXdXdXdXdXdXdXdXdXdXdXdXdXdXdXdXdXdXdXdXdXdXdXdXdXdXdXdXdXdXdXdXdXdX",
"dXdXdXdXdXdXdXdXdXdXdXdXdXdXdXdXdXdXdXdXdXdXdXdXdXdXdXdXdXdXdXdXdXdXdXdXdXdXdXdXdXdXdXdXdXdXdXdXdXdXdXdXdXdXdXdXdXdXdXdXdXdXdXdXdXdXdXdXdXdXdXdXdXdXdXdXdXdXdXdXdXdXdXdXdXdXdXdXdXdX",
"dXdXdXdXdXdXdXdXdXdXdXdXdXdXdXdXdXdXdXdXdXdXdXdXdXdXdXdXdXdXdXdXdXdXdXdXdXdXdXdXdXdXdXdXdXdXdXdXdXdXdXdXdXdXdXdXdXdXdXdXdXdXdXdXdXdXdXdXdXdXdXdXdXdXdXdXdXdXdXdXdXdXdXdXdXdXdXdXdXdX",
"dXdXdXdXdXdXdXdXdXdXdXdXdXdXdXdXdXdXdXdXdXdXdXdXdXdXdXdXdXdXdXdXdXdXdXdXdXdXdXdXdXdXdXdXdXdXdXdXdXdXdXdXdXdXdXdXdXdXdXdXdXdXdXdXdXdXdXdXdXdXdXdXdXdXdXdXdXdXdXdXdXdXdXdXdXdXdXdXdXdX",
"dXdXdXdXdXdXdXdXdXdXdXdXdXdXdXdXdXdXdXdXdXdXdXdXdXdXdXdXdXdXdXdXdXdXdXdXdXdXdXdXdXdXdXdXdXdXdXdXdXdXdXdXdXdXdXdXdXdXdXdXdXdXdXdXdXdXdXdXdXdXdXdXdXdXdXdXdXdXdXdXdXdXdXdXdXdXdXdXdXdX",
"dXdXdXdXdXdXdXdXdXdXdXdXdXdXdXdXdXdXdXdXdXdXdXdXdXdXdXdXdXdXdXdXdXdXdXdXdXdXdXdXdXdXdXdXdXdXdXdXdXdXdXdXdXdXdXdXdXdXdXdXdXdXdXdXdXdXdXdXdXdXdXdXdXdXdXdXdXdXdXdXdXdXdXdXdXdXdXdXdXdX",
"dXdXdXdXdXdXdXdXdXdXdXdXdXdXdXdXdXdXdXdXdXdXdXdXdXdXdXdXdXdXdXdXdXdXdXdXdXdXdXdXdXdXdXdXdXdXdXdXdXdXdXdXdXdXdXdXdXdXdXdXdXdXdXdXdXdXdXdXdXdXdXdXdXdXdXdXdXdXdXdXdXdXdXdXdXdXdXdXdXdX",
"dXdXdXdXdXdXdXdXdXdXdXdXdXdXdXdXdXdXdXdXdXdXdXdXdXdXdXdXdXdXdXdXdXdXdXdXdXdXdXdXdXdXdXdXdXdXdXdXdXdXdXdXdXdXdXdXdXdXdXdXdXdXdXdXdXdXdXdXdXdXdXdXdXdXdXdXdXdXdXdXdXdXdXdXdXdXdXdXdXdX",
"dXdXdXdXdXdXdXdXdXdXdXdXdXdXdXdXdXdXdXdXdXdXdXdXdXdXdXdXdXdXdXdXdXdXdXdXdXdXdXdXdXdXdXdXdXdXdXdXdXdXdXdXdXdXdXdXdXdXdXdXdXdXdXdXdXdXdXdXdXdXdXdXdXdXdXdXdXdXdXdXdXdXdXdXdXdXdXdXdXdX",
"dXdXdXdXdXdXdXdXdXdXdXdXdXdXdXdXdXdXdXdXdXdXdXdXdXdXdXdXdXdXdXdXdXdXdXdXdXdXdXdXdXdXdXdXdXdXdXdXdXdXdXdXdXdXdXdXdXdXdXdXdXdXdXdXdXdXdXdXdXdXdXdXdXdXdXdXdXdXdXdXdXdXdXdXdXdXdXdXdXdX",
"dXdXdXdXdXdXdXdXdXdXdXdXdXdXdXdXdXdXdXdXdXdXdXdXdXdXdXdXdXdXdXdXdXdXdXdXdXdXdXdXdXdXdXdXdXdXdXdXdXdXdXdXdXdXdXdXdXdXdXdXdXdXdXdXdXdXdXdXdXdXdXdXdXdXdXdXdXdXdXdXdXdXdXdXdXdXdXdXdXdX",
"dXdXdXdXdXdXdXdXdXdXdXdXdXdXdXdXdXdXdXdXdXdXdXdXdXdXdXdXdXdXdXdXdXdXdXdXdXdXdXdXdXdXdXdXdXdXdXdXdXdXdXdXdXdXdXdXdXdXdXdXdXdXdXdXdXdXdXdXdXdXdXdXdXdXdXdXdXdXdXdXdXdXdXdXdXdXdXdXdXdX",
"dXdXdXdXdXdXdXdXdXdXdXdXdXdXdXdXdXdXdXdXdXdXdXdXdXdXdXdXdXdXdXdXdXdXdXdXdXdXdXdXdXdXdXdXdXdXdXdXdXdXdXdXdXdXdXdXdXdXdXdXdXdXdXdXdXdXdXdXdXdXdXdXdXdXdXdXdXdXdXdXdXdXdXdXdXdXdXdXdXdX",
"dXdXdXdXdXdXdXdXdXdXdXdXdXdXdXdXdXdXdXdXdXdXdXdXdXdXdXdXdXdXdXdXdXdXdXdXdXdXdXdXdXdXdXdXdXdXdXdXdXdXdXdXdXdXdXdXdXdXdXdXdXdXdXdXdXdXdXdXdXdXdXdXdXdXdXdXdXdXdXdXdXdXdXdXdXdXdXdXdXdX"
};
