/* XPM */
static char *result[] = {
/* columns rows colors chars-per-pixel */
"90 105 230 2 ",
"   c #000001",
".  c #00000D",
"X  c #190000",
"o  c #000015",
"O  c #00001C",
"+  c #07091F",
"@  c #170E1C",
"#  c #16111F",
"$  c #000123",
"%  c #020922",
"&  c #0B0C23",
"*  c #00002C",
"=  c #060C29",
"-  c #140221",
";  c #160C20",
":  c #09132A",
">  c #161224",
",  c #191425",
"<  c #1E1926",
"1  c #1A1628",
"2  c #1B192C",
"3  c #141528",
"4  c #000032",
"5  c #00043A",
"6  c #000B37",
"7  c #00143A",
"8  c #011A3C",
"9  c #061836",
"0  c #1D1E33",
"q  c #151C35",
"w  c #2B0423",
"e  c #251B27",
"r  c #28142C",
"t  c #1F2136",
"y  c #1B223A",
"u  c #152134",
"i  c #2B2028",
"p  c #2F2426",
"a  c #37292B",
"s  c #3E312E",
"d  c #22253B",
"f  c #252336",
"g  c #352E3E",
"h  c #4E0B00",
"j  c #572A01",
"k  c #713000",
"l  c #421726",
"z  c #442D2C",
"x  c #48252A",
"c  c #57292C",
"v  c #49342E",
"b  c #59382E",
"n  c #4B3631",
"m  c #4D3831",
"M  c #463539",
"N  c #533B33",
"B  c #583733",
"V  c #693A33",
"C  c #5A4237",
"Z  c #664A3B",
"A  c #6A4C3B",
"S  c #674437",
"D  c #79483A",
"F  c #6E513D",
"G  c #75533D",
"H  c #7A4200",
"J  c #001D45",
"K  c #001543",
"L  c #000541",
"P  c #012445",
"I  c #022748",
"U  c #162642",
"Y  c #1D2641",
"T  c #192A47",
"R  c #202741",
"E  c #262B44",
"W  c #292D46",
"Q  c #292E49",
"!  c #252D48",
"~  c #322F44",
"^  c #2B314C",
"/  c #293047",
"(  c #3C3544",
")  c #003E6D",
"_  c #003769",
"`  c #00336C",
"'  c #533B47",
"]  c #4E3E44",
"[  c #074271",
"{  c #5A4347",
"}  c #694945",
"|  c #745541",
" . c #7A5741",
".. c #7D5A43",
"X. c #7E534D",
"o. c #704B49",
"O. c #63607A",
"+. c #924D08",
"@. c #B25619",
"#. c #AD5302",
"$. c #834B3B",
"%. c #89563F",
"&. c #96543B",
"*. c #815328",
"=. c #AC5725",
"-. c #B45927",
";. c #A95A36",
":. c #B15D37",
">. c #B86338",
",. c #B36B32",
"<. c #B26318",
"1. c #C4703B",
"2. c #835D44",
"3. c #885848",
"4. c #945541",
"5. c #995B47",
"6. c #864F48",
"7. c #A35E45",
"8. c #8B654A",
"9. c #886349",
"0. c #946B4E",
"q. c #9A644A",
"w. c #9A6651",
"e. c #9C7151",
"r. c #946C50",
"t. c #A56249",
"y. c #AA664B",
"u. c #AC674A",
"i. c #B36444",
"p. c #B1664A",
"a. c #B56B4D",
"s. c #B96D4E",
"d. c #A96E52",
"f. c #B66E50",
"g. c #B86F50",
"h. c #A37553",
"j. c #AA7B56",
"k. c #AC7D58",
"l. c #A77754",
"z. c #BC7352",
"x. c #B97857",
"c. c #B07A4D",
"v. c #C5754A",
"b. c #C27553",
"n. c #C47956",
"m. c #C37E59",
"M. c #C87B58",
"N. c #CC7954",
"B. c #C57F63",
"V. c #B4835C",
"C. c #BA855D",
"Z. c #BC895F",
"A. c #AD815A",
"S. c #BE8B61",
"D. c #BF8760",
"F. c #CC855D",
"G. c #C6875C",
"H. c #D4835D",
"J. c #D7885B",
"K. c #D78C55",
"L. c #C28D62",
"P. c #CC8B61",
"I. c #CB876D",
"U. c #D48D63",
"Y. c #DB8B62",
"T. c #CB9366",
"R. c #CD9668",
"E. c #C99366",
"W. c #D49366",
"Q. c #D59B6B",
"!. c #DB9C6C",
"~. c #D69466",
"^. c #C68B76",
"/. c #CE9079",
"(. c #E38D64",
"). c #E5986A",
"_. c #DDA16F",
"`. c #DFA371",
"'. c #E3A16E",
"]. c #E8A06F",
"[. c #E3A572",
"{. c #E7A974",
"}. c #EBAC76",
"|. c #EEAF78",
" X c #E8A672",
".X c #F5AA76",
"XX c #F2B17A",
"oX c #FEB77E",
"OX c #EEB079",
"+X c #004887",
"@X c #005192",
"#X c #00559A",
"$X c #004F95",
"%X c #005AA6",
"&X c #0061B2",
"*X c #086EB6",
"=X c #136099",
"-X c #5776A5",
";X c #0072CC",
":X c #006FC9",
">X c #917781",
",X c #0385DC",
"<X c #0085E2",
"1X c #009CF4",
"2X c #0396EB",
"3X c #66B4FE",
"4X c #65ABF1",
"5X c #5F90CC",
"6X c #AE8784",
"7X c #9D99AF",
"8X c #CD9785",
"9X c #D8AA9A",
"0X c #D5B2AA",
"qX c #E1B1A0",
"wX c #E9C7BA",
"eX c #9CB4DF",
"rX c #98C9FE",
"tX c #BCD5FB",
"yX c #BFE2FF",
"uX c #D5CEDA",
"iX c #EFD7CE",
"pX c #F9E4DA",
"aX c #D5ECFE",
"sX c #FEF4ED",
"dX c #E5F5FF",
"fX c #FFFFFE",
"gX c #FAFCFA",
"hX c #F7EBE9",
"jX c #C2DDFF",
"kX c None",
/* pixels */
"kXkXkXkXkXkXkXkXkXkXkXkXkXkXkXkXkXkXkXkXkXkXkXkXkXkXE E E W Q Q ! W E E E E E E E E E E E E E d W E E E E E E E W W Q ^ ! E E E kXkXkXkXkXkXkXkXkXkXkXkXkXkXkXkXkXkXkXkXkXkXkXkXkXkX",
"kXkXkXkXkXkXkXkXkXkXkXkXkXkXkXkXkXkXkXkXkXkXkXkXkXkXE E E W Q Q Q E E E E E E E E E E E E E E E E E E E E E E E W E Q Q Q E E E kXkXkXkXkXkXkXkXkXkXkXkXkXkXkXkXkXkXkXkXkXkXkXkXkXkX",
"kXkXkXkXkXkXkXkXkXkXkXkXkXkXkXkXkXkXkXkXkXkXkXkXkXkXE E E W Q / Q E E E E E E E W E E E E E E E E E E E E E E E E Q Q Q W E E E kXkXkXkXkXkXkXkXkXkXkXkXkXkXkXkXkXkXkXkXkXkXkXkXkXkX",
"kXkXkXkXkXkXkXkXkXkXkXkXkXkXkXkXkXkXkXkXkXkXkXkXkXkXE E E Q Q Q ! W E E E E E E d E E E E E E E E E E E E d E E E Q Q Q W E E E kXkXkXkXkXkXkXkXkXkXkXkXkXkXkXkXkXkXkXkXkXkXkXkXkXkX",
"kXkXkXkXkXkXkXkXkXkXkXkXkXkXkXkXkXkXkXkXkXkXkXkXkXE E E E ! Q ! W E E E E E E E E E E E E E E E E E E E E E E E E Q Q Q E E E E E kXkXkXkXkXkXkXkXkXkXkXkXkXkXkXkXkXkXkXkXkXkXkXkXkX",
"kXkXkXkXkXkXkXkXkXkXkXkXkXkXkXkXkXkXkXkXkXkXkXkXE E E E E W Q Q W E E E E E E E E E E E E E E E E E E E E E E E E E W Q E E E E E E kXkXkXkXkXkXkXkXkXkXkXkXkXkXkXkXkXkXkXkXkXkXkXkX",
"kXkXkXkXkXkXkXkXkXkXkXkXkXkXkXkXkXkXkXkXkXkXE ! W E E E E E E E E E E E E E E R E E E E E E E E E E E W E E E E E W E E E E E E E E E E kXkXkXkXkXkXkXkXkXkXkXkXkXkXkXkXkXkXkXkXkXkX",
"kXkXkXkXkXkXkXkXkXkXkXkXkXkXkXkXkXkXkXkXkXQ E W E E E E E E E W E E E E E E E E E E E E R E E E E E E d E E E E E E E W E E E E E E E E E E kXkXkXkXkXkXkXkXkXkXkXkXkXkXkXkXkXkXkXkX",
"kXkXkXkXkXkXkXkXkXkXkXkXkXkXkXkXkXkXkXkXE E E W E E E E E E E E E E E E E E E E E E E E E E E E E E E E E E E E E E E E E E E E ! ! E E ! E kXkXkXkXkXkXkXkXkXkXkXkXkXkXkXkXkXkXkXkX",
"kXkXkXkXkXkXkXkXkXkXkXkXkXkXkXkXkXkXkXE E E E Q ^ Q W E E E E E E E E E E E E E E E E E E E E E E E E E E E E E E E E E E E E E ^ ^ Q W E R E kXkXkXkXkXkXkXkXkXkXkXkXkXkXkXkXkXkXkX",
"kXkXkXkXkXkXkXkXkXkXkXkXkXkXkXkXkXkXd d R d W Q / Q Q W E E E E E E E E E E E E E E R E E E E E E E E E E E R W E E E E E E W Q ^ ^ ^ ^ E E E kXkXkXkXkXkXkXkXkXkXkXkXkXkXkXkXkXkXkX",
"kXkXkXkXkXkXkXkXkXkXkXkXkXkXkXkXkX0 0 t d d E E W Q ! E E E E ! E E E E E E E E E E E E E E E E E R W R E E E E E E E E E E W Q ^ ^ ^ Q E W W kXkXkXkXkXkXkXkXkXkXkXkXkXkXkXkXkXkXkX",
"kXkXkXkXkXkXkXkXkXkXkXkXkXkXkXkX1 1 0 0 0 t d d R E E W E W E E W E E Q E E W ! ! E E W E E E E E E E E E E E E E E E E E E E W ^ ^ ^ Q E W E kXkXkXkXkXkXkXkXkXkXkXkXkXkXkXkXkXkXkX",
"kXkXkXkXkXkXkXkXkXkXkXkXkXkX> , , 1 1 1 1 2 t t d d E R E ! / Q W E E Q E Q W W W ! E W ! E E E E E E E E E E E E E R E E E W ! ^ ^ ^ Q E E W kXkXkXkXkXkXkXkXkXkXkXkXkXkXkXkXkXkXkX",
"kXkXkXkXkXkXkXkXkXkXkXkXkX, > , , , , , 1 1 2 2 0 d d E E ! / E E Q E E W E W E E W E E E E E E E E E E E E E E E E E E E E E W Q ^ ^ E W E W kXkXkXkXkXkXkXkXkXkXkXkXkXkXkXkXkXkXkX",
"kXkXkXkXkXkXkXkXkXkXkXkXkX, > , , , , , , ; , 2 2 t d d E E E E E E E E E E E E E E E E E E E E E E E E E E E E E E E E E E W W Q / ! E E E W kXkXkXkXkXkXkXkXkXkXkXkXkXkXkXkXkXkXkX",
"kXkXkXkXkXkXkXkXkXkXkXkXkX, , , 1 1 1 ; ; ; , , 2 t t d R E E E E E E E R E R y Y y Y Y Y Y E E E E E E E E E E E E E E E E E E ~ E E E R R E kXkXkXkXkXkXkXkXkXkXkXkXkXkXkXkXkXkXkX",
"kXkXkXkXkXkXkXkXkXkXkXkXkX, , , 1 1 1 > , @ > , 1 0 t t d d d d d d d d y y 9 8 8 7 7 8 P y T E E W W W E W E E E E E W E E E W E E E d d d d kXkXkXkXkXkXkXkXkXkXkXkXkXkXkXkXkXkXkX",
"kXkXkXkXkXkXkXkXkXkXkXkXkX3 , , 1 1 1 , , @ # , 1 2 0 f t t d f f f f 0 q 7 = 4 * 4 4 4 6 8 y Y E Q W W E E E E ! Q E E E E E E E E R d 0 t t kXkXkXkXkXkXkXkXkXkXkXkXkXkXkXkXkXkXkX",
"kXkXkXkXkXkXkXkXkXkXkXkXkX, , , 1 1 1 1 , > , , 3 1 2 2 t 0 0 f f f 0 0 9 = * * O * * 4 4 7 P E Q ~ ~ ~ Q W W Q W E / ! ! E E E E d d t 2 2 2 kXkXkXkXkXkXkXkXkXkXkXkXkXkXkXkXkXkXkX",
"kXkXkXkXkXkXkXkXkXkXkXkXkX3 > , , 1 1 , , > , , , , , 1 1 2 2 < e e 2 2 : $ O O O O * * 4 7 u T W / ^ W W W E E E Q ! ! W E E E d d t 2 , , , kXkXkXkXkXkXkXkXkXkXkXkXkXkXkXkXkXkXkX",
"kXkXkXkXkXkXkXkXkXkXkXkXkX> , , , 1 1 1 , , , , , , , , 3 , 1 , > , 1 3 # # & + O % = 3 u d Y E E W W E W E E E E E W ! E E E d d 0 2 , > > # kXkXkXkXkXkXkXkXkXkXkXkXkXkXkXkXkXkXkX",
"kXkXkXkXkXkXkXkXkXkXkXkXkX, , , , 1 1 , , , > , , , , > , > # & + + $ > e p z v N C C m M g g E Y U U T y Y R R R R Y E E y y t 0 1 , > @ @ kXkXkXkXkXkXkXkXkXkXkXkXkXkXkXkXkXkXkXkX",
"kXkXkXkXkXkXkXkXkXkXkXkXkX, , , 1 1 1 , , > , , , # , > ; # + O O O O + p v C G G ....| } C M y 7 5 5 6 7 8 8 8 8 8 8 8 8 7 9 9 9 : > # @ kXkXkXkXkXkXkXkXkXkXkXkXkXkXkXkXkXkXkXkXkX",
"kXkXkXkXkXkXkXkXkXkXkXkXkX, , , , 1 1 1 , , , , , , , , # # O O o o o O a C G 0.e.h.e.0.9.A M q 4 4 * * 4 4 * 4 4 4 4 4 4 4 * * * $ % > kXkXkXkXkXkXkXkXkXkXkXkXkXkXkXkXkXkXkXkXkXkX",
"kXkXkXkXkXkXkXkXkXkXkXkXkX> , > , 1 1 , , , , , , , # < < & $ O o . o O s F 8.l.V.Z.Z.A.e...C 6 $ O O $ $ $ * * * * * * * $ * * $ * kXkXkXkXkXkXkXkXkXkXkXkXkXkXkXkXkXkXkXkXkXkXkXkX",
"kXkXkXkXkXkXkXkXkXkXkXkXkX, > , , 1 1 1 , , , > , , e < , > $ O o . . $ m  .e.Z.L.Q.T.S.k.8.Z 2 O .   o O O O O O O $ O O O O O * kXkXkXkXkXkXkXkXkXkXkXkXkXkXkXkXkXkXkXkXkXkXkXkXkX",
"kXkXkXkXkXkXkXkXkXkXkXkXkX> , , , 1 1 , , , , , , , , , , > $ O o . o , C 9.A.L._.[._.Q.Z.e.| z O . . o O O O o $ $ * $ * $ $ $ kXkXkXkXkXkXkXkXkXkXkXkXkXkXkXkXkXkXkXkXkXkXkXkXkXkX",
"kXkXkXkXkXkXkXkXkXkXkXkXkX, , , , 1 1 1 , , , 3 , # & & > > & $ o o O z G 0.C.R.'.{.{._.P.A.8.A z e e p v v m m m N b C N N N N kXkXkXkXkXkXkXkXkXkXkXkXkXkXkXkXkXkXkXkXkXkXkXkXkXkX",
"kXkXkXkXkXkXkXkXkXkXkXkXkX, , , , 1 1 1 , , , > % O $ $ O $ - - - w x S 2.h.G.Q. X|.}. XQ.Z.l.8.G G A G ..G ..2.2.2.9.9.2.G ..%.kXkXkXkXkXkXkXkXkXkXkXkXkXkXkXkXkXkXkXkXkXkXkXkXkXkX",
"kXkXkXkXkXkXkXkXkXkXkXkXkX, > , 1 1 < 1 e 1 , & $ O O O O O - w l c V $.q.x.E.!. XOXOX{._.T.Z.A.h.e.e.e.h.h.h.l.j.A.A.V.A.l.l.A.kXkXkXkXkXkXkXkXkXkXkXkXkXkXkXkXkXkXkXkXkXkXkXkXkXkX",
"kXkXkXkXkXkXkXkXkXkXkXkXkX, , > , 1 < e < < , % O O o . o o @ l c V $.q.d.x.T.!. X|.OX}.[._.R.E.L.Z.Z.G.L.L.L.L.E.T.R._.T.L.L.L.kXkXkXkXkXkXkXkXkXkXkXkXkXkXkXkXkXkXkXkXkXkXkXkXkXkX",
"kXkXkXkXkXkXkXkXkXkXkXkXkX, > , , 1 2 e e < , % O o o . . o w c V $.5.u.z.G.U.!.[.}.XX}.}.[._._.Q.Q.Q._.Q._.Q._._.`.}.}.[.!.!._.kXkXkXkXkXkXkXkXkXkXkXkXkXkXkXkXkXkXkXkXkXkXkXkXkXkX",
"kXkXkXkXkXkXkXkXkXkXkXkXkX> , , , 1 1 2 , , , & $ + o o O @ x V $.&.7.g.n.P.U.!.'.{.}.}.{.{.{.[.`.[.`.`.[.[.`.[.{.|.XXXX|.[.[.{.kXkXkXkXkXkXkXkXkXkXkXkXkXkXkXkXkXkXkXkXkXkXkXkXkXkX",
"kXkXkXkXkXkXkXkXkXkXkXkXkX, , , , , 3 > 3 & , , < 3 : e a N S $.4.7.p.g.M.F.U.W.!._.`.`.[.`.[.[.[.[.[.[.[.[.[.[.{.}.XXXX}.[.[._.kXkXkXkXkXkXkXkXkXkXkXkXkXkXkXkXkXkXkXkXkXkXkXkXkXkX",
"kXkXkXkXkXkXkXkXkXkXkXkXkX, , , , 1 : $ $ % , i s m C C | ..2.q.p.p.g.b.M.m.P.P.T.R.R.R.Q.Q.Q.Q.Q.Q._.Q.Q.Q._.Q._._.{.{._.Q.Q.R.L.kXkXkXkXkXkXkXkXkXkXkXkXkXkXkXkXkXkXkXkXkXkXkXkXkX",
"kXkXkXkXkXkXkXkXkXkXkXkXkX, , , 1 3 * $ O O , s C F ..9.0.h.c.c.c.z.z.z.z.x.x.C.x.V.S.S.S.S.S.S.S.L.L.L.S.L.L.L.L.E.R.R.L.S.D.k.e.r.kXkXkXkXkXkXkXkXkXkXkXkXkXkXkXkXkXkXkXkXkXkXkXkX",
"kXkXkXkXkXkXkXkXkXkXkXkXkX> , , 1 : * O O O , m Z ..r.A.V.V.Z.Z.x.n.z.z.f.f.d.d.h.e.r.e.e.e.h.h.h.h.h.h.h.h.h.h.l.j.j.j.j.h.r.r...o.{ ! kXkXkXkXkXkXkXkXkXkXkXkXkXkXkXkXkXkXkXkXkXkX",
"kXkXkXkXkXkXkXkXkXkXkXkXkX, , , 2 = $ O o + : C | r.A.S.E._.~.~.P.M.b.g.u.y.q.4.2...| | | |  . ............... ...2.2.2.2...| o.} ] ( E P J kXkXkXkXkXkXkXkXkXkXkXkXkXkXkXkXkXkXkXkX",
"kXkXkXkXkXkXkXkXkXkXkXkXkX, , , , = O O o o 3 C ..A.S.R._.'._.~.W.F.x.s.u.7.%.D C m s a s s v n m m m n m m M m m m m m n M m g g ~ W E ! Y kXkXkXkXkXkXkXkXkXkXkXkXkXkXkXkXkXkXkXkX",
"kXkXkXkXkXkXkXkXkXkXkXkXkX, > , , $ $ o o o , C 9.A.Z._.`.{. X'.~.F.m.s.y.4.$.V x $ O o o O O $ O $ $ O O O O O O O O o O * * 9 U Y ! ! ! Q Q kXkXkXkXkXkXkXkXkXkXkXkXkXkXkXkXkXkXkX",
"kXkXkXkXkXkXkXkXkXkXkXkXkXkX1 , , $ o       @ b 2.e.Z.K._.'. XK.Y.F.n.f.7.4.V V w O         . . . . . . . o . o .         o $ * 5 J U T W Q ^ kXkXkXkXkXkXkXkXkXkXkXkXkXkXkXkXkXkXkX",
"kXkXkXkXkXkXkXkXkXkXkXkXkXkXkX1 > o         X j G ,.V.G.K.K.'.K.J.F.b.s.7.4.D c w o                                       . O * 5 K I I T T Y kXkXkXkXkXkXkXkXkXkXkXkXkXkXkXkXkXkXkX",
"kXkXkXkXkXkXkXkXkXkXkXkXkXkXkXkXkX          X j +.+.<.1.K.v.K.K.N.N.z.f.t.5.$.B r o                                         O * 5 L J P I I P kXkXkXkXkXkXkXkXkXkXkXkXkXkXkXkXkXkXkX",
"kXkXkXkXkXkXkXkXkXkXkXkXkXkXkXkXkXkXkX      X h k +.#.<.1.1.1.v.v.v.b.g.y.5. .V p O .     . .         .   .               . O * 5 L K J I I I kXkXkXkXkXkXkXkXkXkXkXkXkXkXkXkXkXkXkX",
"kXkXkXkXkXkXkXkXkXkXkXkXkXkXkXkXkXkXkX      X h k H +.-.-.>.1.v.v.z.g.g.y.5.$.V z $ O o o o o o O o o o o O O o o o . . o O * * 5 K J J I I I kXkXkXkXkXkXkXkXkXkXkXkXkXkXkXkXkXkXkX",
"kXkXkXkXkXkXkXkXkXkXkXkXkXkXkXkXkXkXkX* * * t M o.3.d.f.s.x.n.n.b.g.z.g.u.5.%.D b p $ $ $ % e i i e i i e i e p p e i e e i i g ~ ~ ~ ~ Q ^ ^ kXkXkXkXkXkXkXkXkXkXkXkXkXkXkXkXkXkXkX",
"kXkXkXkXkXkXkXkXkXkXkXkXkXkXkXkXkXkXkX` ` _ [ O.O.>X6X6X6X/././.I.L.b.g.u.7.&.$.V B z z m B C Z Z Z A A A Z A A A A Z A Z Z C } } } ' ' ' ' ' kXkXkXkXkXkXkXkXkXkXkXkXkXkXkXkXkXkXkX",
"kXkXkXkXkXkXkXkXkXkXkXkXkXkXkXkXkXkX) +X+X$X=X-X7X7X7X0X0X0X0X9X8X/.B.g.i.;.&.$.D D S A G G 9.8.8.8.0.0.0.0.0.0.0.0.r.0.8.8.8.9.3.3.X.o.o.o.o.kXkXkXkXkXkXkXkXkXkXkXkXkXkXkXkXkXkXkX",
"kXkXkXkXkXkXkXkXkXkXkXkXkXkXkXkXU ) +X$X%X&X*X5XeXeXuXiXiXiXiXwXqX8XI.b.:.-.;.&.&.&.%.3.q.0.e.l.k.V.V.V.V.D.D.D.S.V.A.S.A.A.k.l.k.w.w.3.6.6.6.kXkXkXkXkXkXkXkXkXkXkXkXkXkXkXkXkXkXkX",
"kXkXkXkXkXkXkXkXkXkXkXkXkXkXX X U ) +X%X&X;X,X4XeXtXaXdXsXsXpXpXwXqX(.N.>.-.;.;.5.7.q.y.c.x.C.G.L.T.R.R.Q.Q.Q.!.R.Q.R.R.E.E.S.D.x.x.f.5.w.5.5.kXkXkXkXkXkXkXkXkXkXkXkXkXkXkXkXkXkXkX",
"kXkXkXkXkXkXkXkXkXkXkXkXkXX X X U [ @X&X:X,X2X3XrXtXaXgXfXfXsXpXwXqX/.v.-.@.-.:.i.u.a.z.C.L.T.~.!._.[.[.{.{.{.}.{.[.{.`._.!.Q.R.P.P.B.u.t.t.t.kXkXkXkXkXkXkXkXkXkXkXkXkXkXkXkXkXkXkX",
"kXkXkXkXkXkXkXkXkXkXkXkXkXX X X T [ #X&X:X,X2X4XrXtXaXdXfXfXsXiXwX9X^.a.@.#.@.:.p.s.z.m.P.~._.'.{.{.{.{.{.[.[.[.{. X{. X{.[._.!.~.U.N.f.a.p.p.kXkXkXkXkXkXkXkXkXkXkXkXkXkXkXkXkXkXkX",
"kXkXkXkXkXkXkXkXkXkXkXkXkXX X X U ) @X&X:X<X1X3XrXjXaXgXfXfXgXpXwX9X^.a.@.#.-.:.p.z.n.F.K.'.'.}.}.OXOX|.|.}.}.}.|.{.}. X{.[.].).).(.H.b.s.a.a.kXkXkXkXkXkXkXkXkXkXkXkXkXkXkXkXkXkXkX",
"kXkXkXkXkXkXkXkXkXkXkXkXkXkXX X U ) @X&X;X<X1X3XrXjXdXdXfXfXgXpXiX9X^.a.@.#.-.>.p.b.M.Y.).]..X.XXXXXXXXXOXXXOX}.{. X[.[.[.].].].).(.H.b.s.s.s.kXkXkXkXkXkXkXkXkXkXkXkXkXkXkXkXkXkXkX",
"kXkXkXkXkXkXkXkXkXkXkXkXkXkXkXX U ) @X&X;X<X1X3XrXjXdXgXfXfXgXkXkXkXkXi.=.@.:.>.a.b.H.).]..XXXoXXXOXOXXXXXXXOX}. X[.).!.!.).].).).(.Y.b.v.s.s.kXkXkXkXkXkXkXkXkXkXkXkXkXkXkXkXkXkXkX",
"kXkXkXkXkXkXkXkXkXkXkXkXkXkXkXkXkXkXkXkXkXkXkXkXkXkXkXkXkXkXkXkXkXkXkXkXkX-.:.p.a.b.H.)..X.XoXoXqX|.|.XXkXkXkXkXkXW.U.P.U.(.).).(.(.Y.M.b.g.s.kXkXkXkXkXkXkXkXkXkXkXkXkXkXkXkXkXkXkX",
"kXkXkXkXkXkXkXkXkXkXkXkXkXkXkXkXkXkXkXkXkXkXkXkXkXkXkXkXkXkXkXkXkXkXkXkXkXkXi.p.a.z.H.)..X.XoXqX.X{.|.OXkXkXkXkXkXkXm.m.m.U.Y.(.(.(.N.N.g.g.g.kXkXkXkXkXkXkXkXkXkXkXkXkXkXkXkXkXkXkX",
"kXkXkXkXkXkXkXkXkXkXkXkXkXkXkXkXkXkXkXkXkXkXkXkXkXkXkXkXkXkXkXkXkXkXkXkXkXkXu.p.p.s.M.Y.)..X.X.X X}.|.kXkXkXkXkXkXkXg.g.g.b.M.N.H.M.M.z.g.g.g.kXkXkXkXkXkXkXkXkXkXkXkXkXkXkXkXkXkXkX",
"kXkXkXkXkXkXkXkXkXkXkXkXkXkXkXkXkXkXkXkXkXkXkXkXkXkXkXkXkXkXkXkXkXkXkXkXkXkXkXp.a.s.x.m.U.~.!.'. X}.|.kXkXkXkXkXkXkXkXp.s.s.g.g.g.s.f.f.g.g.kXkXkXkXkXkXkXkXkXkXkXkXkXkXkXkXkXkXkXkX",
"kXkXkXkXkXkXkXkXkXkXkXkXkXkXkXkXkXkXkXkXkXkXkXkXkXkXkXkXkXkXkXkXkXkXkXkXkXkXkXkXa.s.z.m.G.W.!.`.{.}.kXkXkXkXkXkXkXkXkXp.p.p.p.a.a.s.f.f.f.z.kXkXkXkXkXkXkXkXkXkXkXkXkXkXkXkXkXkXkXkX",
"kXkXkXkXkXkXkXkXkXkXkXkXkXkXkXkXkXkXkXkXkXkXkXkXkXkXkXkXkXkXkXkXkXkXkXkXkXkXkXkXkXz.x.m.F.W._.'.{.kXkXkXkXkXkXkXkXkXkXkXp.p.p.a.s.s.f.f.kXkXkXkXkXkXkXkXkXkXkXkXkXkXkXkXkXkXkXkXkXkX",
"kXkXkXkXkXkXkXkXkXkXkXkXkXkXkXkXkXkXkXkXkXkXkXkXkXkXkXkXkXkXkXkXkXkXkXkXkXkXkXkXkXkXkXkXkXkXkXkXkXkXkXkXkXkXkXkXkXkXkXkXkXkXkXkXkXkXkXkXkXkXkXkXkXkXkXkXkXkXkXkXkXkXkXkXkXkXkXkXkXkX",
"kXkXkXkXkXkXkXkXkXkXkXkXkXkXkXkXkXkXkXkXkXkXkXkXkXkXkXkXkXkXkXkXkXkXkXkXkXkXkXkXkXkXkXkXkXkXkXkXkXkXkXkXkXkXkXkXkXkXkXkXkXkXkXkXkXkXkXkXkXkXkXkXkXkXkXkXkXkXkXkXkXkXkXkXkXkXkXkXkXkX",
"kXkXkXkXkXkXkXkXkXkXkXkXkXkXkXkXkXkXkXkXkXkXkXkXkXkXkXkXkXkXkXkXkXkXkXkXkXkXkXkXkXkXkXkXkXkXkXkXkXkXkXkXkXkXkXkXkXkXkXkXkXkXkXkXkXkXkXkXkXkXkXkXkXkXkXkXkXkXkXkXkXkXkXkXkXkXkXkXkXkX",
"kXkXkXkXkXkXkXkXkXkXkXkXkXkXkXkXkXkXkXkXkXkXkXkXkXkXkXkXkXkXkXkXkXkXkXkXkXkXkXkXkXkXkXkXkXkXkXkXkXkXkXkXkXkXkXkXkXkXkXkXkXkXkXkXkXkXkXkXkXkXkXkXkXkXkXkXkXkXkXkXkXkXkXkXkXkXkXkXkXkX",
"kXkXkXkXkXkXkXkXkXkXkXkXkXkXkXkXkXkXkXkXkXkXkXkXkXkXkXkXkXkXkXkXkXkXkXkXkXkXkXkXkXkXkXkXkXkXkXkXkXkXkXkXkXkXkXkXkXkXkXkXkXkXkXkXkXkXkXkXkXkXkXkXkXkXkXkXkXkXkXkXkXkXkXkXkXkXkXkXkXkX",
"kXkXkXkXkXkXkXkXkXkXkXkXkXkXkXkXkXkXkXkXkXkXkXkXkXkXkXkXkXkXkXkXkXkXkXkXkXkXkXkXkXkXkXkXkXkXkXkXkXkXkXkXkXkXkXkXkXkXkXkXkXkXkXkXkXkXkXkXkXkXkXkXkXkXkXkXkXkXkXkXkXkXkXkXkXkXkXkXkXkX",
"kXkXkXkXkXkXkXkXkXkXkXkXkXkXkXkXkXkXkXkXkXkXkXkXkXkXkXkXkXkXkXkXkXkXkXkXkXkXkXkXkXkXkXkXkXkXkXkXkXkXkXkXkXkXkXkXkXkXkXkXkXkXkXkXkXkXkXkXkXkXkXkXkXkXkXkXkXkXkXkXkXkXkXkXkXkXkXkXkXkX",
"kXkXkXkXkXkXkXkXkXkXkXkXkXkXkXkXkXkXkXkXkXkXkXkXkXkXkXkXkXkXkXkXkXkXkXkXkXkXkXkXkXkXkXkXkXkXkXkXkXkXkXkXkXkXkXkXkXkXkXkXkXkXkXkXkXkXkXkXkXkXkXkXkXkXkXkXkXkXkXkXkXkXkXkXkXkXkXkXkXkX",
"kXkXkXkXkXkXkXkXkXkXkXkXkXkXkXkXkXkXkXkXkXkXkXkXkXkXkXkXkXkXkXkXkXkXkXkXkXkXkXkXkXkXkXkXkXkXkXkXkXkXkXkXkXkXkXkXkXkXkXkXkXkXkXkXkXkXkXkXkXkXkXkXkXkXkXkXkXkXkXkXkXkXkXkXkXkXkXkXkXkX",
"kXkXkXkXkXkXkXkXkXkXkXkXkXkXkXkXkXkXkXkXkXkXkXkXkXkXkXkXkXkXkXkXkXkXkXkXkXkXkXkXkXkXkXkXkXkXkXkXkXkXkXkXkXkXkXkXkXkXkXkXkXkXkXkXkXkXkXkXkXkXkXkXkXkXkXkXkXkXkXkXkXkXkXkXkXkXkXkXkXkX",
"kXkXkXkXkXkXkXkXkXkXkXkXkXkXkXkXkXkXkXkXkXkXkXkXkXkXkXkXkXkXkXkXkXkXkXkXkXkXkXkXkXkXkXkXkXkXkXkXkXkXkXkXkXkXkXkXkXkXkXkXkXkXkXkXkXkXkXkXkXkXkXkXkXkXkXkXkXkXkXkXkXkXkXkXkXkXkXkXkXkX",
"kXkXkXkXkXkXkXkXkXkXkXkXkXkXkXkXkXkXkXkXkXkXkXkXkXkXkXkXkXkXkXkXkXkXkXkXkXkXkXkXkXkXkXkXkXkXkXkXkXkXkXkXkXkXkXkXkXkXkXkXkXkXkXkXkXkXkXkXkXkXkXkXkXkXkXkXkXkXkXkXkXkXkXkXkXkXkXkXkXkX",
"kXkXkXkXkXkXkXkXkXkXkXkXkXkXkXkXkXkXkXkXkXkXkXkXkXkXkXkXkXkXkXkXkXkXkXkXkXkXkXkXkXkXkXkXkXkXkXkXkXkXkXkXkXkXkXkXkXkXkXkXkXkXkXkXkXkXkXkXkXkXkXkXkXkXkXkXkXkXkXkXkXkXkXkXkXkXkXkXkXkX",
"kXkXkXkXkXkXkXkXkXkXkXkXkXkXkXkXkXkXkXkXkXkXkXkXkXkXkXkXkXkXkXkXkXkXkXkXkXkXkXkXkXkXkXkXkXkXkXkXkXkXkXkXkXkXkXkXkXkXkXkXkXkXkXkXkXkXkXkXkXkXkXkXkXkXkXkXkXkXkXkXkXkXkXkXkXkXkXkXkXkX",
"kXkXkXkXkXkXkXkXkXkXkXkXkXkXkXkXkXkXkXkXkXkXkXkXkXkXkXkXkXkXkXkXkXkXkXkXkXkXkXkXkXkXkXkXkXkXkXkXkXkXkXkXkXkXkXkXkXkXkXkXkXkXkXkXkXkXkXkXkXkXkXkXkXkXkXkXkXkXkXkXkXkXkXkXkXkXkXkXkXkX",
"kXkXkXkXkXkXkXkXkXkXkXkXkXkXkXkXkXkXkXkXkXkXkXkXkXkXkXkXkXkXkXkXkXkXkXkXkXkXkXkXkXkXkXkXkXkXkXkXkXkXkXkXkXkXkXkXkXkXkXkXkXkXkXkXkXkXkXkXkXkXkXkXkXkXkXkXkXkXkXkXkXkXkXkXkXkXkXkXkXkX",
"kXkXkXkXkXkXkXkXkXkXkXkXkXkXkXkXkXkXkXkXkXkXkXkXkXkXkXkXkXkXkXkXkXkXkXkXkXkXkXkXkXkXkXkXkXkXkXkXkXkXkXkXkXkXkXkXkXkXkXkXkXkXkXkXkXkXkXkXkXkXkXkXkXkXkXkXkXkXkXkXkXkXkXkXkXkXkXkXkXkX",
"kXkXkXkXkXkXkXkXkXkXkXkXkXkXkXkXkXkXkXkXkXkXkXkXkXkXkXkXkXkXkXkXkXkXkXkXkXkXkXkXkXkXkXkXkXkXkXkXkXkXkXkXkXkXkXkXkXkXkXkXkXkXkXkXkXkXkXkXkXkXkXkXkXkXkXkXkXkXkXkXkXkXkXkXkXkXkXkXkXkX",
"kXkXkXkXkXkXkXkXkXkXkXkXkXkXkXkXkXkXkXkXkXkXkXkXkXkXkXkXkXkXkXkXkXkXkXkXkXkXkXkXkXkXkXkXkXkXkXkXkXkXkXkXkXkXkXkXkXkXkXkXkXkXkXkXkXkXkXkXkXkXkXkXkXkXkXkXkXkXkXkXkXkXkXkXkXkXkXkXkXkX",
"kXkXkXkXkXkXkXkXkXkXkXkXkXkXkXkXkXkXkXkXkXkXkXkXkXkXkXkXkXkXkXkXkXkXkXkXkXkXkXkXkXkXkXkXkXkXkXkXkXkXkXkXkXkXkXkXkXkXkXkXkXkXkXkXkXkXkXkXkXkXkXkXkXkXkXkXkXkXkXkXkXkXkXkXkXkXkXkXkXkX",
"kXkXkXkXkXkXkXkXkXkXkXkXkXkXkXkXkXkXkXkXkXkXkXkXkXkXkXkXkXkXkXkXkXkXkXkXkXkXkXkXkXkXE E E E E E kXkXkXkXkXkXkXkXkXkXkXkXkXkXkXkXkXkXkXkXkXkXkXkXkXkXkXkXkXkXkXkXkXkXkXkXkXkXkXkXkXkX",
"kXkXkXkXkXkXkXkXkXkXkXkXkXkXkXkXkXkXkXkXkXkXkXkXkXkXkXkXkXkXkXkXkXkXkXkXkXkXkXkXkXE E E E E E E E kXkXkXkXkXkXkXkXkXkXkXkXkXkXkXkXkXkXkXkXkXkXkXkXkXkXkXkXkXkXkXkXkXkXkXkXkXkXkXkXkX",
"kXkXkXkXkXkXkXkXkXkXkXkXkXkXkXkXkXkXkXkXkXkXkXkXkXkXkXkXkXkXkXkXkXkXkXkXkXkXkXkXkXE E E E E E E E kXkXkXkXkXkXkXkXkXkXkXkXkXkXkXkXkXkXkXkXkXkXkXkXkXkXkXkXkXkXkXkXkXkXkXkXkXkXkXkXkX",
"kXkXkXkXkXkXkXkXkXkXkXkXkXkXkXkXkXkXkXkXkXkXkXkXkXkXkXkXkXkXkXkXkXkXkXkXkXkXkXkXE E E E E E E E E E kXkXkXkXkXkXkXkXkXkXkXkXkXkXkXkXkXkXkXkXkXkXkXkXkXkXkXkXkXkXkXkXkXkXkXkXkXkXkXkX",
"kXkXkXkXkXkXkXkXkXkXkXkXkXkXkXkXkXkXkXkXkXkXkXkXkXkXkXkXkXkXkXkXkXkXkXkXkXkXkXkXE E E E E E E E E E kXkXkXkXkXkXkXkXkXkXkXkXkXkXkXkXkXkXkXkXkXkXkXkXkXkXkXkXkXkXkXkXkXkXkXkXkXkXkXkX",
"kXkXkXkXkXkXkXkXkXkXkXkXkXkXkXkXkXkXkXkXkXkXkXkXkXkXkXkXkXkXkXkXkXkXkXkXkXkXkXE E E E E E E W E E E E kXkXkXkXkXkXkXkXkXkXkXkXkXkXkXkXkXkXkXkXkXkXkXkXkXkXkXkXkXkXkXkXkXkXkXkXkXkXkX",
"kXkXkXkXkXkXkXkXkXkXkXkXkXkXkXkXkXkXkXkXkXkXkXkXkXkXkXkXkXkXkXkXkXkXkXkXE E / E E E E E E E E E E E E E E E kXkXkXkXkXkXkXkXkXkXkXkXkXkXkXkXkXkXkXkXkXkXkXkXkXkXkXkXkXkXkXkXkXkXkXkX",
"kXkXkXkXkXkXkXkXkXkXkXkXkXkXkXkXkXkXkXkXkXkXkXkXkXkXkXkXkXkXkXkXkXkXkXE E E d E E E E E E E E E E E E E E E E kXkXkXkXkXkXkXkXkXkXkXkXkXkXkXkXkXkXkXkXkXkXkXkXkXkXkXkXkXkXkXkXkXkXkX",
"kXkXkXkXkXkXkXkXkXkXkXkXkXkXkXkXkXkXkXkXkXkXkXkXkXkXkXkXkXkXkXkXkXkXE E E E E E E E E E E E E E E E E E E E E E kXkXkXkXkXkXkXkXkXkXkXkXkXkXkXkXkXkXkXkXkXkXkXkXkXkXkXkXkXkXkXkXkXkX",
"kXkXkXkXkXkXkXkXkXkXkXkXkXkXkXkXkXkXkXkXkXkXkXkXkXkXkXkXkXkXkXkXkXkXE E E E E E E E E E E E E E E E E E E E E E kXkXkXkXkXkXkXkXkXkXkXkXkXkXkXkXkXkXkXkXkXkXkXkXkXkXkXkXkXkXkXkXkXkX",
"kXkXkXkXkXkXkXkXkXkXkXkXkXkXkXkXkXkXkXkXkXkXkXkXkXkXkXkXkXkXkXkXkXkXE E E E d E E E E E E E / E d E E E E E E E kXkXkXkXkXkXkXkXkXkXkXkXkXkXkXkXkXkXkXkXkXkXkXkXkXkXkXkXkXkXkXkXkXkX",
"kXkXkXkXkXkXkXkXkXkXkXkXkXkXkXkXkXkXkXkXkXkXkXkXkXkXkXkXkXkXkXkXkXkXE E E E / E d W E E E E E E E E E E E E E E kXkXkXkXkXkXkXkXkXkXkXkXkXkXkXkXkXkXkXkXkXkXkXkXkXkXkXkXkXkXkXkXkXkX",
"kXkXkXkXkXkXkXkXkXkXkXkXkXkXkXkXkXkXkXkXkXkXkXkXkXkXkXkXkXkXkXkXkXkXE E E E E E E E E E E E E E E W W E E E E E kXkXkXkXkXkXkXkXkXkXkXkXkXkXkXkXkXkXkXkXkXkXkXkXkXkXkXkXkXkXkXkXkXkX",
"kXkXkXkXkXkXkXkXkXkXkXkXkXkXkXkXkXkXkXkXkXkXkXkXkXkXkXkXkXkXkXkXkXkXkXE E E E E E E E E E E E E E E E E R E E kXkXkXkXkXkXkXkXkXkXkXkXkXkXkXkXkXkXkXkXkXkXkXkXkXkXkXkXkXkXkXkXkXkXkX",
"kXkXkXkXkXkXkXkXkXkXkXkXkXkXkXkXkXkXkXkXkXkXkXkXkXkXkXkXkXkXkXkXkXkXkXkXE E E E E E E E E R E E E E E E E E kXkXkXkXkXkXkXkXkXkXkXkXkXkXkXkXkXkXkXkXkXkXkXkXkXkXkXkXkXkXkXkXkXkXkXkX",
"kXkXkXkXkXkXkXkXkXkXkXkXkXkXkXkXkXkXkXkXkXkXkXkXkXkXkXkXkXkXkXkXkXkXkXkXkXkXkXE E E W E E E E E E E E kXkXkXkXkXkXkXkXkXkXkXkXkXkXkXkXkXkXkXkXkXkXkXkXkXkXkXkXkXkXkXkXkXkXkXkXkXkXkX",
"kXkXkXkXkXkXkXkXkXkXkXkXkXkXkXkXkXkXkXkXkXkXkXkXkXkXkXkXkXkXkXkXkXkXkXkXkXkXkXkXkXE E E E E E E E kXkXkXkXkXkXkXkXkXkXkXkXkXkXkXkXkXkXkXkXkXkXkXkXkXkXkXkXkXkXkXkXkXkXkXkXkXkXkXkXkX",
"kXkXkXkXkXkXkXkXkXkXkXkXkXkXkXkXkXkXkXkXkXkXkXkXkXkXkXkXkXkXkXkXkXkXkXkXkXkXkXkXkXE E E E E E E E kXkXkXkXkXkXkXkXkXkXkXkXkXkXkXkXkXkXkXkXkXkXkXkXkXkXkXkXkXkXkXkXkXkXkXkXkXkXkXkXkX",
"kXkXkXkXkXkXkXkXkXkXkXkXkXkXkXkXkXkXkXkXkXkXkXkXkXkXkXkXkXkXkXkXkXkXkXkXkXkXkXkXkXR E E E E E E E kXkXkXkXkXkXkXkXkXkXkXkXkXkXkXkXkXkXkXkXkXkXkXkXkXkXkXkXkXkXkXkXkXkXkXkXkXkXkXkXkX",
"kXkXkXkXkXkXkXkXkXkXkXkXkXkXkXkXkXkXkXkXkXkXkXkXkXkXkXkXkXkXkXkXkXkXkXkXkXkXkXkXkXE E E E E E E W kXkXkXkXkXkXkXkXkXkXkXkXkXkXkXkXkXkXkXkXkXkXkXkXkXkXkXkXkXkXkXkXkXkXkXkXkXkXkXkXkX",
"kXkXkXkXkXkXkXkXkXkXkXkXkXkXkXkXkXkXkXkXkXkXkXkXkXkXkXkXkXkXkXkXkXkXkXkXkXkXkXkXkXW E E E E E R E kXkXkXkXkXkXkXkXkXkXkXkXkXkXkXkXkXkXkXkXkXkXkXkXkXkXkXkXkXkXkXkXkXkXkXkXkXkXkXkXkX",
"kXkXkXkXkXkXkXkXkXkXkXkXkXkXkXkXkXkXkXkXkXkXkXkXkXkXkXkXkXkXkXkXkXkXkXkXkXkXkXkXkXE E E E E W E W kXkXkXkXkXkXkXkXkXkXkXkXkXkXkXkXkXkXkXkXkXkXkXkXkXkXkXkXkXkXkXkXkXkXkXkXkXkXkXkXkX",
"kXkXkXkXkXkXkXkXkXkXkXkXkXkXkXkXkXkXkXkXkXkXkXkXkXkXkXkXkXkXkXkXkXkXkXkXkXkXkXkXkXW E E E E E E W kXkXkXkXkXkXkXkXkXkXkXkXkXkXkXkXkXkXkXkXkXkXkXkXkXkXkXkXkXkXkXkXkXkXkXkXkXkXkXkXkX"
};
