/* XPM */
static char *result[] = {
/* columns rows colors chars-per-pixel */
"90 105 234 2 ",
"   c #000002",
".  c #00000D",
"X  c #1A0000",
"o  c #18050B",
"O  c #000013",
"+  c #00001B",
"@  c #09091F",
"#  c #180D1A",
"$  c #000122",
"%  c #020A24",
"&  c #0A0B21",
"*  c #02072B",
"=  c #130F21",
"-  c #02122B",
";  c #0E142A",
":  c #161223",
">  c #191425",
",  c #1A1629",
"<  c #1B1A2C",
"1  c #1A1628",
"2  c #00003C",
"3  c #000D38",
"4  c #051836",
"5  c #1D1D32",
"6  c #131C33",
"7  c #231A26",
"8  c #261B26",
"9  c #211F33",
"0  c #321D23",
"q  c #1F2036",
"w  c #19253B",
"e  c #2C2128",
"r  c #39262B",
"t  c #202137",
"y  c #22253C",
"u  c #24283F",
"i  c #37051E",
"p  c #4E0F0B",
"a  c #462A2B",
"s  c #52302E",
"d  c #5D352F",
"f  c #4B2E32",
"g  c #493737",
"h  c #543C32",
"j  c #583734",
"k  c #4A302D",
"l  c #633A34",
"z  c #6A3E35",
"x  c #683B34",
"c  c #703F34",
"v  c #662C00",
"b  c #5D4237",
"n  c #694538",
"m  c #78483A",
"M  c #7E563A",
"N  c #000441",
"B  c #011B41",
"V  c #042243",
"C  c #1A2644",
"Z  c #11385E",
"A  c #262B44",
"S  c #292D47",
"D  c #292E49",
"F  c #262740",
"G  c #2B304D",
"H  c #2D3047",
"J  c #3B3343",
"K  c #00066B",
"L  c #143E67",
"P  c #003674",
"I  c #083169",
"U  c #4F3F47",
"Y  c #0A426E",
"T  c #554548",
"R  c #6B524D",
"E  c #7A5945",
"W  c #775B55",
"Q  c #684B47",
"!  c #797378",
"~  c #575E6B",
"^  c #834C3C",
"/  c #894F3C",
"(  c #88543D",
")  c #98563C",
"_  c #914F33",
"`  c #A55B38",
"'  c #AF5D2F",
"]  c #9D693B",
"[  c #B66538",
"{  c #B46835",
"}  c #CC7400",
"|  c #CB7306",
" . c #C77437",
".. c #845C43",
"X. c #875845",
"o. c #9C5C45",
"O. c #965A44",
"+. c #8E5F53",
"@. c #A45D43",
"#. c #896348",
"$. c #99694B",
"%. c #936C54",
"&. c #9C7257",
"*. c #AB654A",
"=. c #A76748",
"-. c #B66C4D",
";. c #BB6D49",
":. c #B36747",
">. c #A9764C",
",. c #BB7847",
"<. c #B86F52",
"1. c #A87956",
"2. c #BC7252",
"3. c #B77957",
"4. c #A26D56",
"5. c #8A7475",
"6. c #B87864",
"7. c #AD7C6F",
"8. c #C47956",
"9. c #C37548",
"0. c #C07C64",
"q. c #D8840B",
"w. c #DB8A32",
"e. c #E39432",
"r. c #B9855C",
"t. c #BE834C",
"y. c #B98665",
"u. c #B18679",
"i. c #CD884E",
"p. c #CB825B",
"a. c #C58759",
"s. c #D2895C",
"d. c #D8955B",
"f. c #D39051",
"g. c #E69C4F",
"h. c #C68C62",
"j. c #D68B61",
"k. c #CB9366",
"l. c #D59B6C",
"z. c #DC9D6C",
"x. c #D79666",
"c. c #C38777",
"v. c #D49E76",
"b. c #E39D6A",
"n. c #E3A36C",
"m. c #EAA768",
"M. c #E3A571",
"N. c #EBAB75",
"B. c #F1B077",
"V. c #E3A160",
"C. c #003987",
"Z. c #004A85",
"A. c #00548C",
"S. c #005A9A",
"D. c #004A93",
"F. c #3F5A87",
"G. c #005DA4",
"H. c #0064A9",
"J. c #006BB4",
"K. c #006FB8",
"L. c #0073BD",
"P. c #00609C",
"I. c #637A9D",
"U. c #4470A9",
"Y. c #0078C7",
"T. c #007BD8",
"R. c #006EC0",
"E. c #007EE6",
"W. c #A77A86",
"Q. c #6C88B4",
"!. c #0086D9",
"~. c #3C8FDC",
"^. c #0087E5",
"/. c #0093EA",
"(. c #0095EA",
"). c #0098F4",
"_. c #3C99EA",
"`. c #4C89CF",
"'. c #6695DA",
"]. c #7594CF",
"[. c #479BE9",
"{. c #51A1EA",
"}. c #56AFFC",
"|. c #7EADE9",
" X c #79A0DE",
".X c #998E95",
"XX c #B18C8D",
"oX c #8F8FB1",
"OX c #AE94A7",
"+X c #90A2B2",
"@X c #B1A7B0",
"#X c #BEA69A",
"$X c #C59386",
"%X c #C79C96",
"&X c #D5AA92",
"*X c #EDB385",
"=X c #F6BC87",
"-X c #E9B68F",
";X c #C9A8A6",
":X c #C6B4BB",
">X c #D5BBB9",
",X c #E8BDA1",
"<X c #F8C49A",
"1X c #DAC3B3",
"2X c #F7C8A5",
"3X c #FCD6B8",
"4X c #F7CCAB",
"5X c #8A94C7",
"6X c #94ACD0",
"7X c #ACB5D1",
"8X c #83B5F0",
"9X c #ADBEEA",
"0X c #C1B5C7",
"qX c #B9C8DB",
"wX c #A9C2DC",
"eX c #93CBFF",
"rX c #96C2F7",
"tX c #BADAFA",
"yX c #B3CDEE",
"uX c #C5C9D8",
"iX c #CDC7CF",
"pX c #F8D6C0",
"aX c #E7D4CB",
"sX c #FCE2CA",
"dX c #FEE9D8",
"fX c #FFF0DB",
"gX c #C8D7EC",
"hX c #DBECFE",
"jX c #CCE3F8",
"kX c #FFF7EB",
"lX c #E7F5FE",
"zX c #FBFBFB",
"xX c #ECE5E4",
"cX c None",
/* pixels */
"cXcXcXcXcXcXcXcXcXcXcXcXcXcXcXcXcXcXcXcXcXcXcXcXcXcXcXcXcXcXcXcXcXcXcXcXcXcXcXcXcXcXcXcXcXcXcXcXcXcXcXcXcXcXcXcXcXcXcXcXcXcXcXcXcXcXcXcXcXcXcXcXcXcXcXcXcXcXcXcXcXcXcXcXcXcXcXcXcXcX",
"cXcXcXcXcXcXcXcXcXcXcXcXcXcXcXcXcXcXcXcXcXcXcXcXcXcXcXcXcXcXcXcXcXcXcXcXcXcXcXcXcXcXcXcXcXcXcXcXcXcXcXcXcXcXcXcXcXcXcXcXcXcXcXcXcXcXcXcXcXcXcXcXcXcXcXcXcXcXcXcXcXcXcXcXcXcXcXcXcXcX",
"cXcXcXcXcXcXcXcXcXcXcXcXcXcXcXcXcXcXcXcXcXcXcXcXcXcXcXcXcXcXcXcXcXcXcXcXcXcXcXcXcXcXcXcXcXcXcXcXcXcXcXcXcXcXcXcXcXcXcXcXcXcXcXcXcXcXcXcXcXcXcXcXcXcXcXcXcXcXcXcXcXcXcXcXcXcXcXcXcXcX",
"cXcXcXcXcXcXcXcXcXcXcXcXcXcXcXcXcXcXcXcXcXcXcXcXcXcXcXcXcXcXcXcXcXcXcXcXcXcXcXcXcXcXcXcXcXcXcXcXcXcXcXcXcXcXcXcXcXcXcXcXcXcXcXcXcXcXcXcXcXcXcXcXcXcXcXcXcXcXcXcXcXcXcXcXcXcXcXcXcXcX",
"cXcXcXcXcXcXcXcXcXcXcXcXcXcXcXcXcXcXcXcXcXcXcXcXcXcXcXcXcXcXcXcXcXcXcXcXcXcXcXcXcXcXcXcXcXcXcXcXcXcXcXcXcXcXcXcXcXcXcXcXcXcXcXcXcXcXcXcXcXcXcXcXcXcXcXcXcXcXcXcXcXcXcXcXcXcXcXcXcXcX",
"cXcXcXcXcXcXcXcXcXcXcXcXcXcXcXcXcXcXcXcXcXcXcXcXcXcXcXcXcXcXcXcXcXcXcXcXcXcXcXcXcXcXcXcXcXcXcXcXcXcXcXcXcXcXcXcXcXcXcXcXcXcXcXcXcXcXcXcXcXcXcXcXcXcXcXcXcXcXcXcXcXcXcXcXcXcXcXcXcXcX",
"cXcXcXcXcXcXcXcXcXcXcXcXcXcXcXcXcXcXcXcXcXcXcXcXcXcXcXcXcXcXcXcXcXcXcXcXcXcXcXcXcXcXcXcXcXcXcXcXcXcXcXcXcXcXcXcXcXcXcXcXcXcXcXcXcXcXcXcXcXcXcXcXcXcXcXcXcXcXcXcXcXcXcXcXcXcXcXcXcXcX",
"cXcXcXcXcXcXcXcXcXcXcXcXcXcXcXcXcXcXcXcXcXcXcXcXcXcXcXcXcXcXcXcXcXcXcXcXcXcXcXcXcXcXcXcXcXcXcXcXcXcXcXcXcXcXcXcXcXcXcXcXcXcXcXcXcXcXcXcXcXcXcXcXcXcXcXcXcXcXcXcXcXcXcXcXcXcXcXcXcXcX",
"cXcXcXcXcXcXcXcXcXcXcXcXcXcXcXcXcXcXcXcXcXcXcXcXcXcXcXcXcXcXcXcXcXcXcXcXcXcXcXcXcXcXcXcXcXcXcXcXcXcXcXcXcXcXcXcXcXcXcXcXcXcXcXcXcXcXcXcXcXcXcXcXcXcXcXcXcXcXcXcXcXcXcXcXcXcXcXcXcXcX",
"cXcXcXcXcXcXcXcXcXcXcXcXcXcXcXcXcXcXcXcXcXcXcXcXcXcXcXcXcXcXcXcXcXcXcXcXcXcXcXcXcXcXcXcXcXcXcXcXcXcXcXcXcXcXcXcXcXcXcXcXcXcXcXcXcXcXcXcXcXcXcXcXcXcXcXcXcXcXcXcXcXcXcXcXcXcXcXcXcXcX",
"cXcXcXcXcXcXcXcXcXcXcXcXcXcXcXcXcXcXcXcXcXcXcXcXcXcXcXcXcXcXcXcXcXcXcXcXcXcXcXcXcXcXcXcXcXcXcXcXcXcXcXcXcXcXcXcXcXcXcXcXcXcXcXcXcXcXcXcXcXcXcXcXcXcXcXcXcXcXcXcXcXcXcXcXcXcXcXcXcXcX",
"cXcXcXcXcXcXcXcXcXcXcXcXcXcXcXcXcXcXcXcXcXcXcXcXcXcXcXcXcXcXcXcXcXcXcXcXcXcXcXcXcXcXcXcXcXcXcXcXcXcXcXcXcXcXcXcXcXcXcXcXcXcXcXcXcXcXcXcXcXcXcXcXcXcXcXcXcXcXcXcXcXcXcXcXcXcXcXcXcXcX",
"cXcXcXcXcXcXcXcXcXcXcXcXcXcXcXcXcXcXcXcXcXcXcXcXcXcXcXcXcXcXcXcXcXcXcXcXcXcXcXcXcXcXcXcXcXcXcXcXcXcXcXcXcXcXcXcXcXcXcXcXcXcXcXcXcXcXcXcXcXcXcXcXcXcXcXcXcXcXcXcXcXcXcXcXcXcXcXcXcXcX",
"cXcXcXcXcXcXcXcXcXcXcXcXcXcXcXcXcXcXcXcXcXcXcXcXcXcXcXcXcXcXcXcXcXcXcXcXcXcXcXcXcXcXcXcXcXcXcXcXcXcXcXcXcXcXcXcXcXcXcXcXcXcXcXcXcXcXcXcXcXcXcXcXcXcXcXcXcXcXcXcXcXcXcXcXcXcXcXcXcXcX",
"cXcXcXcXcXcXcXcXcXcXcXcXcXcXcXcXcXcXcXcXcXcXcXcXcXcXcXcXcXcXcXcXcXcXcXcXcXcXcXcXcXcXcXcXcXcXcXcXcXcXcXcXcXcXcXcXcXcXcXcXcXcXcXcXcXcXcXcXcXcXcXcXcXcXcXcXcXcXcXcXcXcXcXcXcXcXcXcXcXcX",
"cXcXcXcXcXcXcXcXcXcXcXcXcXcXcXcXcXcXcXcXcXcXcXcXcXcXcXcXcXcXcXcXcXcXcXcXcXcXcXcXcXcXcXcXcXcXcXcXcXcXcXcXcXcXcXcXcXcXcXcXcXcXcXcXcXcXcXcXcXcXcXcXcXcXcXcXcXcXcXcXcXcXcXcXcXcXcXcXcXcX",
"cXcXcXcXcXcXcXcXcXcXcXcXcXcXcXcXcXcXcXcXcXcXcXcXcXcXcXcXcXcXcXcXcXcXcXcXcXcXcXcXcXcXcXcXcXcXcXcXcXcXcXcXcXcXcXcXcXcXcXcXcXcXcXcXcXcXcXcXcXcXcXcXcXcXcXcXcXcXcXcXcXcXcXcXcXcXcXcXcXcX",
"cXcXcXcXcXcXcXcXcXcXcXcXcXcXcXcXcXcXcXcXcXcXcXcXcXcXcXcXcXcXcXcXcXcXcXcXcXcXcXcXcXcXcXcXcXcXcXcXcXcXcXcXcXcXcXcXcXcXcXcXcXcXcXcXcXcXcXcXcXcXcXcXcXcXcXcXcXcXcXcXcXcXcXcXcXcXcXcXcXcX",
"cXcXcXcXcXcXcXcXcXcXcXcXcXcXcXcXcXcXcXcXcXcXcXcXcXcXcXcXcXcXcXcXcXcXcXcXcXcXcXcXcXcXX X X X X X cXcXcXcXcXcXcXcXcXcXcXcXcXcXcXcXcXcXcXcXcXcXcXcXcXcXcXcXcXcXcXcXcXcXcXcXcXcXcXcXcXcX",
"cXcXcXcXcXcXcXcXcXcXcXcXcXcXcXcXcXcXcXcXcXcXcXcXcXcXcXcXcXcXcXcXcXcXcXcXcXcXcXcXX X X X X X X X X X cXcXcXcXcXcXcXcXcXcXcXcXcXcXcXcXcXcXcXcXcXcXcXcXcXcXcXcXcXcXcXcXcXcXcXcXcXcXcXcX",
"cXcXcXcXcXcXcXcXcXcXcXcXcXcXcXcXcXcXcXcXcXcXcXcXcXcXcXcXcXcXcXcXcXcXcXcXcXcXcXX X X X X X X X X X X X cXcXcXcXcXcXcXcXcXcXcXcXcXcXcXcXcXcXcXcXcXcXcXcXcXcXcXcXcXcXcXcXcXcXcXcXcXcXcX",
"cXcXcXcXcXcXcXcXcXcXcXcXcXcXcXcXcXcXcXcXcXcXcXcXcXcXcXcXcXcXcXcXcXcXcXcXcXcXcXo o # # # o 0 # # # # # cXcXcXcXcXcXcXcXcXcXcXcXcXcXcXcXcXcXcXcXcXcXcXcXcXcXcXcXcXcXcXcXcXcXcXcXcXcXcX",
"cXcXcXcXcXcXcXcXcXcXcXcXcXcXcXcXcXcXcXcXcXcXcXcXcXcXcXcXcXcXcXcXcXcXcXcXcXcXY Y L Z L L L L L Y Z Z Z Z cXcXcXcXcXcXcXcXcXcXcXcXcXcXcXcXcXcXcXcXcXcXcXcXcXcXcXcXcXcXcXcXcXcXcXcXcXcX",
"cXcXcXcXcXcXcXcXcXcXcXcXcXcXcXcXcXcXcXcXcXcXcXcXcXcXcXcXcXcXcXcXcXcXcXcXcXJ.H.A.A.A.S.S.S.P.P.P.A.Z.Z.Z.Z.cXcXcXcXcXcXcXcXcXcXcXcXcXcXcXcXcXcXcXcXcXcXcXcXcXcXcXcXcXcXcXcXcXcXcXcXcX",
"cXcXcXcXcXcXcXcXcXcXcXcXcXcXcXcXcXcXcXcXcXcXcXcXcXcXcXcXcXcXcXcXcXcXcXcXT.Y.R.J.J.J.J.L.R.Y.L.L.J.H.G.G.D.C.cXcXcXcXcXcXcXcXcXcXcXcXcXcXcXcXcXcXcXcXcXcXcXcXcXcXcXcXcXcXcXcXcXcXcXcX",
"cXcXcXcXcXcXcXcXcXcXcXcXcXcXcXcXcXcXcXcXcXcXcXcXcXcXcXcXcXcXcXcXcXcXE.E.E.T.T.T.Y.Y.T.T.!.!.!.!.Y.Y.J.H.S.C.C.K cXcXcXcXcXcXcXcXcXcXcXcXcXcXcXcXcXcXcXcXcXcXcXcXcXcXcXcXcXcXcXcXcXcX",
"cXcXcXcXcXcXcXcXcXcXcXcXcXcXcXcXcXcXcXcXcXcXcXcXcXcXcXcXcXcXcXcXcX^.^.E.^.^.E.!.E.^.^.^./.(.(./.!.!.Y.J.G.C.P K K cXcXcXcXcXcXcXcXcXcXcXcXcXcXcXcXcXcXcXcXcXcXcXcXcXcXcXcXcXcXcXcXcX",
"cXcXcXcXcXcXcXcXcXcXcXcXcXcXcXcXcXcXcXcXcXcXcXcXcXcXcXcXcXcXcXcX/./././.).).)./././.).^.(.(.(.(.(.!.T.Y.K.G.Z.P P I cXcXcXcXcXcXcXcXcXcXcXcXcXcXcXcXcXcXcXcXcXcXcXcXcXcXcXcXcXcXcXcX",
"cXcXcXcXcXcXcXcXcXcXcXcXcXcXcXcXcXcXcXcXcXcXcXcXcXcXcXcXcXcXcXcX{.{.[.}.}.}.}.}.[.[.[.[.[.[._._._.~.~.~.~.U.F.F.F.F.cXcXcXcXcXcXcXcXcXcXcXcXcXcXcXcXcXcXcXcXcXcXcXcXcXcXcXcXcXcXcXcX",
"cXcXcXcXcXcXcXcXcXcXcXcXcXcXcXcXcXcXcXcXcXcXcXcXcXcXcXcXcXcXcXcX|.8X8XeXeXeX8X8X8X5X X'.'.'.'.{.'.'.`.].].].Q.Q.I.I.cXcXcXcXcXcXcXcXcXcXcXcXcXcXcXcXcXcXcXcXcXcXcXcXcXcXcXcXcXcXcXcX",
"cXcXcXcXcXcXcXcXcXcXcXcXcXcXcXcXcXcXcXcXcXcXcXcXcXcXcXcXcXcXcX8XrXyXrXjXjXgXjX9X7X5X7X5X5X5X].5X].5X5X6X6X6X+XQ.oXQ.cXcXcXcXcXcXcXcXcXcXcXcXcXcXcXcXcXcXcXcXcXcXcXcXcXcXcXcXcXcXcXcX",
"cXcXcXcXcXcXcXcXcXcXcXcXcXcXcXcXcXcXcXcXcXcXcXcXcXcXcXcXcXcXcXwXyXtXjXhXhXhXjXuX0X0XOXOX5XW.W.oXW.oXoX6X7XwXwX7X6XwXcXcXcXcXcXcXcXcXcXcXcXcXcXcXcXcXcXcXcXcXcXcXcXcXcXcXcXcXcXcXcXcX",
"cXcXcXcXcXcXcXcXcXcXcXcXcXcXcXcXcXcXcXcXcXcXcXcXcXcXcXcXcXcX+XqXjXhXlXlXzXzXxXaX>X&X$X$Xu.7.7.W.W.OXOX7XuXqX9XwXqXyXcXcXcXcXcXcXcXcXcXcXcXcXcXcXcXcXcXcXcXcXcXcXcXcXcXcXcXcXcXcXcXcX",
"cXcXcXcXcXcXcXcXcXcXcXcXcXcXcXcXcXcXcXcXcXcXD 4 O   cXcXcX~ +XqXxXlXzXzXzXzXdXaX,X*Xz.j.i.8.9.;.6.W.OX:XiXgXuXuXgXyXcXcXcXcXcXcXcXcXcXcXcXcXcXcXcXcXcXcXcXcXcXcXcXcXcXcXcXcXcXcXcXcX",
"cXcXcXcXcXcXcXcXcXcXcXcXcXcXcXcXcXcXcXcXcXcXC F $       i ! +X1XxXlXzXzXzXkXdX4X=XB.g.e.| } |  .2.0.$X;XiXuXuXuXuXuXcXcXcXcXcXcXcXcXcXcXcXcXcXcXcXcXcXcXcXcXcXcXcXcXcXcXcXcXcXcXcXcX",
"cXcXcXcXcXcXcXcXcXcXcXcXcXcXcXcXcXcXcXcXcXB A J g p p v M u.#X1XaXxXkXkXkXkXpX4X=Xm.g.e.q.} } |  .0.$X;X>XiXuXuXqX7X@XcXcXcXcXcXcXcXcXcXcXcXcXcXcXcXcXcXcXcXcXcXcXcXcXcXcXcXcXcXcXcX",
"cXcXcXcXcXcXcXcXcXcXcXcXcXcXcXcXcXcXcXcXcXcXS U Q M ( ] r.u.&X1XaXsXdXfXdXsX3X2X=Xm.g.e.e.| | | [ 8.$X;X;X>X0X@X@X@X.X! cXcXcXcXcXcXcXcXcXcXcXcXcXcXcXcXcXcXcXcXcXcXcXcXcXcXcXcXcXcX",
"cXcXcXcXcXcXcXcXcXcXcXcXcXcXcXcXcXcXcXcXcXcXA Q W $.>.r.k.v.&X<X1X3XpX3X3X3X2X<X=XN.m.g.g.w.9. .9.3.0.$X%X;X;X%XOX.X! ~ C   cXcXcXcXcXcXcXcXcXcXcXcXcXcXcXcXcXcXcXcXcXcXcXcXcXcXcXcX",
"cXcXcXcXcXcXcXcXcXcXcXcXcXcXcXcXcXcXcXcXcXcXA R %.r.a.x.z.M.*X-X-X<X2X2X2X<X<X=X*XB.m.b.d.i.i.9.9.2.0.0.$X$XXXW.u.5.W T 4     cXcXcXcXcXcXcXcXcXcXcXcXcXcXcXcXcXcXcXcXcXcXcXcXcXcXcX",
"cXcXcXcXcXcXcXcXcXcXcXcXcXcXcXcXA V N cXcXcXA W &.y.k.z.M.M.B.B.*X*X*X*X*X=XB.B.B.N.m.b.x.s.8.8.<.<.<.0.0.0.0.6.&.#.R b e @     cXcXcXcXcXcXcXcXcXcXcXcXcXcXcXcXcXcXcXcXcXcXcXcXcXcX",
"cXcXcXcXcXcXcXcXcXcXcXcXcXcXcXA A V N 2 2 2 A W %.y.k.v.M.N.B.N.N.m.b.b.V.n.n.M.M.M.n.l.k.p.8.2.-.;.:.:.;.9.9.[ =.) ^ x a : + $ $ cXcXcXcXcXcXcXcXcXcXcXcXcXcXcXcXcXcXcXcXcXcXcXcXcX",
"cXcXcXcXcXcXcXcXcXcXcXcXcXcXcXA A C N 2 2 2 A R %.r.y.k.l.M.n.V.d.d.f.i.i.f.f.k.l.k.k.k.h.r.1.*.@.@.@.[ [ [ ' ' ' _ _ m x s a r r cXcXcXcXcXcXcXcXcXcXcXcXcXcXcXcXcXcXcXcXcXcXcXcXcX",
"cXcXcXcXcXcXcXcXcXcXcXcXcXcXcXA A C B N N N F T W &.1.y.k.k.k.a.i.t.,.,.,.t.t.r.r.r.r.r.1.4.$.O.o.o.` ` ' [ ' [ ' ` ) ) ^ x j j s a cXcXcXcXcXcXcXcXcXcXcXcXcXcXcXcXcXcXcXcXcXcXcXcX",
"cXcXcXcXcXcXcXcXcXcXcXcXcXcXcXA A C B B N B A T R W %.&.1.r.r.>.>.] ] ] ] ] $.>.&.>.&.%.$.X.X.X.^ / ) @.' [ [ :.[ :.` @.O.X.m c l s a : cXcXcXcXcXcXcXcXcXcXcXcXcXcXcXcXcXcXcXcXcXcX",
"cXcXcXcXcXcXcXcXcXcXcXcXcXcXcXcXD C C V V V D J U Q Q E ..#.#...M M M M M M M ..E ( E M Q n n j x c / @.@.:.-.:.;.:.:.*.@.o.X.^ c j a > $ cXcXcXcXcXcXcXcXcXcXcXcXcXcXcXcXcXcXcXcXcX",
"cXcXcXcXcXcXcXcXcXcXcXcXcXcXcXcXA A C F C C S H H U g h h b h h b b h h h h h h b b h g k r e r a x c O.@.*.<.8.9.<.8.9.*.@.@./ m l a > + + cXcXcXcXcXcXcXcXcXcXcXcXcXcXcXcXcXcXcXcX",
"cXcXcXcXcXcXcXcXcXcXcXcXcXcXcXcXA A S S S S S A F 6 6 - $ + + + . + % $ + + $ $ + % % $ + + + + 7 s c X.o.*.-.<.8.8.8.8.8.<.*.o.X.c f > $ + + cXcXcXcXcXcXcXcXcXcXcXcXcXcXcXcXcXcXcX",
"cXcXcXcXcXcXcXcXcXcXcXcXcXcXcXcXA S S H S S S C B 3 * $ + .   .   . O O . O O O . . O O O O O + $ a x / o.*.-.8.8.8.8.8.8.0.2.*.$.m j > + + + cXcXcXcXcXcXcXcXcXcXcXcXcXcXcXcXcXcXcX",
"cXcXcXcXcXcXcXcXcXcXcXcXcXcXcXcXA A S H H H D C B 3 * $ O         . . . . . . . . . . O O . O O $ a z X.o.*.<.8.8.s.j.j.j.j.0.2.$.( h , + + + + cXcXcXcXcXcXcXcXcXcXcXcXcXcXcXcXcXcX",
"cXcXcXcXcXcXcXcXcXcXcXcXcXcXcXcXA A S H S S A A V 4 2 $ + O .   . O O O O O O O O O O O O O O + % a z ^ o.*.2.8.s.j.j.b.b.x.k.3.&.#.b > + O + + $ > cXcXcXcXcXcXcXcXcXcXcXcXcXcXcXcX",
"cXcXcXcXcXcXcXcXcXcXcXcXcXcXcXcXA S S S H S S A F V - $ + O O O O + + + + + + + + + + + O + + + , s c / @.*.8.8.s.j.b.b.M.z.x.h.&.M b > O O + + $ : > > cXcXcXcXcXcXcXcXcXcXcXcXcXcX",
"cXcXcXcXcXcXcXcXcXcXcXcXcXcXcXcXA A S S D D S A F 5 5 6 & @ @ + @ @ @ @ @ @ @ @ & @ & $ + + + $ 8 s c / o.*.2.8.j.j.b.N.M.M.l.h.r.#.b : O O O + % > > > , cXcXcXcXcXcXcXcXcXcXcXcXcX",
"cXcXcXcXcXcXcXcXcXcXcXcXcXcXcXcXA A S A S S A A F y 5 5 < : : : : : > > : : > : > > > % $ + + $ 8 s x ^ ) @.<.3.s.x.n.n.N.M.l.y.r.E b ; + O + $ % > > > : cXcXcXcXcXcXcXcXcXcXcXcXcX",
"cXcXcXcXcXcXcXcXcXcXcXcXcXcXcXcXA F A A F A u A F 5 5 5 < < > > < < < 1 < < < < , < , - % $ $ $ 8 s x ^ / @.*.<.a.a.x.z.z.l.k.y.&.E b = + O + $ * 1 > > > cXcXcXcXcXcXcXcXcXcXcXcXcX",
"cXcXcXcXcXcXcXcXcXcXcXcXcXcXcXcXA A A u y u y y y 9 5 5 5 5 5 5 q < < < 5 5 5 5 < q < ; % * $ $ 8 a d c ^ / @.*.1.3.r.k.k.y.r.r.%.E h > + O $ $ - , > > > cXcXcXcXcXcXcXcXcXcXcXcXcX",
"cXcXcXcXcXcXcXcXcXcXcXcXcXcXcXcXu A y y w q q q 5 y F 5 5 5 9 y t t t t t t q t y t t 6 4 % % % 7 r s d c ^ ^ O.$.4.&.r.r.r.&.#.E n k : $ + $ $ = < > > > cXcXcXcXcXcXcXcXcXcXcXcXcX",
"cXcXcXcXcXcXcXcXcXcXcXcXcXcXcXcXu u w t 5 < < 5 q q q y y y w u y y y y y w u y y y y 5 6 - % % 7 0 a s d x n m ^ X.#.#.%.#.#.E n b r > + $ $ * > , : , > cXcXcXcXcXcXcXcXcXcXcXcXcX",
"cXcXcXcXcXcXcXcXcXcXcXcXcXcXcXcXA u t 5 < < > < < q t u u u A F A u u u F A u A A u u y 6 6 ; : # # 0 r a a s j j n n n n n b b h r e ; % % % : > , > : : cXcXcXcXcXcXcXcXcXcXcXcXcX",
"cXcXcXcXcXcXcXcXcXcXcXcXcXcXcXcXF y q < 1 : > < 5 t y u A A S A A A A A A A S A A A A u y t < > # > > > 7 7 7 7 8 8 e 8 e e < e 7 , > > > > > > > > : , , cXcXcXcXcXcXcXcXcXcXcXcXcX",
"cXcXcXcXcXcXcXcXcXcXcXcXcXcXcXcXA u q 5 < > > < 5 t y u A S D D S S A A S S S S S A A u y t 9 < > : % $ $ + $ + + + + O O + O + $ $ & > > , 7 < < > , > : cXcXcXcXcXcXcXcXcXcXcXcXcX",
"cXcXcXcXcXcXcXcXcXcXcXcXcXcXcXcXF u w 5 5 < < 5 q y y A A D D D D D D A A S A S S S u u u y t t < ; - % % $ + + O O O . . O O O + $ % > , 7 7 7 , > > > : cXcXcXcXcXcXcXcXcXcXcXcXcX",
"cXcXcXcXcXcXcXcXcXcXcXcXcXcXcXcXA y y t 5 5 5 9 y y u A A D D C A A A D S A D A S S A A u u y t q 6 - - % $ + + O O O O O O O + + $ & > , 7 , < , , > > > cXcXcXcXcXcXcXcXcXcXcXcXcX",
"cXcXcXcXcXcXcXcXcXcXcXcXcXcXcXcXA F y y y y y y u u A A A A A D A A A A A A A S S S S u u u u y q q 6 ; - + + + + O O + O + + + $ $ = > , 7 , , , > > > > cXcXcXcXcXcXcXcXcXcXcXcXcX",
"cXcXcXcXcXcXcXcXcXcXcXcXcXcXcXcXA A A u A y u F A u A A A A A A A A A A A A A A S u S S u S A A u w q q 6 ; & @ + + + $ + + % & & = > : , : , , > > > > : cXcXcXcXcXcXcXcXcXcXcXcXcX",
"cXcXcXcXcXcXcXcXcXcXcXcXcXcXcXcXA A A A A A F A D A A A A A A A A A A A F A A A A A A A A D A A A w y q 5 1 > = : : : : : : > > : > > > > > 1 1 , > > > > cXcXcXcXcXcXcXcXcXcXcXcXcX",
"cXcXcXcXcXcXcXcXcXcXcXcXcXcXcXcXA S A A A A A D D D D A A A A A A A A A A A A A A A A A A A D A D A u q 5 < 1 > > > > > 1 > > > > > > > : > 1 1 , > , > : cXcXcXcXcXcXcXcXcXcXcXcXcX",
"cXcXcXcXcXcXcXcXcXcXcXcXcXcXcXcXA A A S A D S S D A D A A A A A A A A A A A A A A A A A A D D A A A u y q 5 5 < < < < < < < < < < > > : > > > > , > > > : cXcXcXcXcXcXcXcXcXcXcXcXcX",
"cXcXcXcXcXcXcXcXcXcXcXcXcXcXcXS A A A A A S A S A D A A A A A A A A A A A A A A A A A A A D A D A A u u y q q 5 < q t t q q 5 5 < > > > : : > > > , > > > cXcXcXcXcXcXcXcXcXcXcXcXcX",
"cXcXcXcXcXcXcXcXcXcXcXcXcXcXcXA A A A A A A A S D A A A F A A A A A A A A A A A A A A A A A A A A u A u u y w y q w y y y t q q < , : : # : : > , > > : > cXcXcXcXcXcXcXcXcXcXcXcXcX",
"cXcXcXcXcXcXcXcXcXcXcXcXcXcXcXA A A A A A A A S D D A A A A A A A A A A A A A A A A A A A A A A A A A u u u u u u u u A u u t q 5 < > = = = : > > , > , > cXcXcXcXcXcXcXcXcXcXcXcXcX",
"cXcXcXcXcXcXcXcXcXcXcXcXcXcXcXS A A A A A A A A A A A A A A A A A A A A A A A A A A A A A A A A A A A A A A A u A A A A A A u y q < 1 > # # > > > > > > > cXcXcXcXcXcXcXcXcXcXcXcXcX",
"cXcXcXcXcXcXcXcXcXcXcXcXcXcXcXcXA A A A A A A S D D A A A A A A A A A A A A A A A A u A A A A A A A A A A A A S A A D D A A u u t 5 < , > > > > , > > > : cXcXcXcXcXcXcXcXcXcXcXcXcX",
"cXcXcXcXcXcXcXcXcXcXcXcXcXcXcXcXcXA A S A A A D A D A A A A A A A A A A A A A A A A A A A A A A A A A A D A A S A A D A D A u w y q 5 < < < , , , , > > : cXcXcXcXcXcXcXcXcXcXcXcXcX",
"cXcXcXcXcXcXcXcXcXcXcXcXcXcXcXcXcXcXA A A A A A D A D A A A A A A A A A A A A F A A A A A A A A A A A S A A D A D D D D D A A u y y q q 5 5 5 < < , > > > cXcXcXcXcXcXcXcXcXcXcXcXcX",
"cXcXcXcXcXcXcXcXcXcXcXcXcXcXcXcXcXcXA A A A A D D D A A A A A A F A A A A A A A A A A A A A A A A A A A A S A A A A A A A A A u u y y y 5 5 5 5 9 , = : : cXcXcXcXcXcXcXcXcXcXcXcXcX",
"cXcXcXcXcXcXcXcXcXcXcXcXcXcXcXcXcXcXcXF A A A D D D A A A A A A A A A A A A A A A A A A A A A A A A A A A A A A A D A A A A A A A A u y F y 9 9 9 , > : > cXcXcXcXcXcXcXcXcXcXcXcXcX",
"cXcXcXcXcXcXcXcXcXcXcXcXcXcXcXcXcXcXcXA A A A D D D D A A A A A A A A A A A A A A A A A A A A A A A A A A A A A A A A A A A A A A A A A F w y 9 , , : : # cXcXcXcXcXcXcXcXcXcXcXcXcX",
"cXcXcXcXcXcXcXcXcXcXcXcXcXcXcXcXcXcXcXA A A A D D D D A A A A A A A A A A A A A A A A A A A F A A A A A A A A A A A A A A A A A S S A A A u y 9 < , : : = cXcXcXcXcXcXcXcXcXcXcXcXcX",
"cXcXcXcXcXcXcXcXcXcXcXcXcXcXcXcXcXcXcXS A A A D D D A A A A A A A A A F A A A A A A A A A A A A A A A A A u A A A A A A A A A A S D D S A u w 9 < , > # cXcXcXcXcXcXcXcXcXcXcXcXcXcX",
"cXcXcXcXcXcXcXcXcXcXcXcXcXcXcXcXcXcXcXA A A D G G D D A A A A A A A A A A A A A A F A A A A A A A A A A A A A A A A A A A A A D D D D D S u y t 5 , = cXcXcXcXcXcXcXcXcXcXcXcXcXcXcX",
"cXcXcXcXcXcXcXcXcXcXcXcXcXcXcXcXcXcXcXA A A D G G G D A A A A A A A A A A A A A A A A A A A A A A A A A A A A A A A A A A A A D G G G G A F F q 5 < cXcXcXcXcXcXcXcXcXcXcXcXcXcXcXcX",
"cXcXcXcXcXcXcXcXcXcXcXcXcXcXcXcXcXcXcXA A A D G G G D S A A A A A A A A A A A A A A A A A A A A A A A A A A A A A A A A A A A D G G G D A A F y cXcXcXcXcXcXcXcXcXcXcXcXcXcXcXcXcXcX",
"cXcXcXcXcXcXcXcXcXcXcXcXcXcXcXcXcXcXcXA A A D G G G D A A A A A A A A A A A A A A A A A A A A A A A A A A A A A A A A A A A S D G G G D A F A cXcXcXcXcXcXcXcXcXcXcXcXcXcXcXcXcXcXcX",
"cXcXcXcXcXcXcXcXcXcXcXcXcXcXcXcXcXcXcXA A A A S D D S A A A A A A A A A A A A A A A A A A A A A A A A A A A A A A A A A A A A A D D D A A A S cXcXcXcXcXcXcXcXcXcXcXcXcXcXcXcXcXcXcX",
"cXcXcXcXcXcXcXcXcXcXcXcXcXcXcXcXcXcXcXcXA A A A A A A S A A A S A A A A A A A A A A A A A D A A A A A A A D A A A A S A A A A A C A A A A A cXcXcXcXcXcXcXcXcXcXcXcXcXcXcXcXcXcXcXcX",
"cXcXcXcXcXcXcXcXcXcXcXcXcXcXcXcXcXcXcXcXcXA A A A A A F A D D D A D D A A A D A A A A A A A D A A A A D A A A A S A D D S S A A S A A A S cXcXcXcXcXcXcXcXcXcXcXcXcXcXcXcXcXcXcXcXcX",
"cXcXcXcXcXcXcXcXcXcXcXcXcXcXcXcXcXcXcXcXcXcXcXA A A A A D D D G D D D D D D D D D D D D D D D D D D D D D D D D D G D G D D A A A A A cXcXcXcXcXcXcXcXcXcXcXcXcXcXcXcXcXcXcXcXcXcXcX",
"cXcXcXcXcXcXcXcXcXcXcXcXcXcXcXcXcXcXcXcXcXcXcXcXF A A A D G G G G G D D G D D D D D D D G D D D D D G D D D D D G G G G D D A A A S cXcXcXcXcXcXcXcXcXcXcXcXcXcXcXcXcXcXcXcXcXcXcXcX",
"cXcXcXcXcXcXcXcXcXcXcXcXcXcXcXcXcXcXcXcXcXcXcXcXcXS A A A G G G D D D D D D D D D D D D D D D D D D D D D D D D D G G G G S A A A cXcXcXcXcXcXcXcXcXcXcXcXcXcXcXcXcXcXcXcXcXcXcXcXcX",
"cXcXcXcXcXcXcXcXcXcXcXcXcXcXcXcXcXcXcXcXcXcXcXcXcXcXA A A S D D D S A A A A A A A A A A A A A A A A A A A A A A S S D G D F F S cXcXcXcXcXcXcXcXcXcXcXcXcXcXcXcXcXcXcXcXcXcXcXcXcXcX",
"cXcXcXcXcXcXcXcXcXcXcXcXcXcXcXcXcXcXcXcXcXcXcXcXcXcXS A S F S A A A A A A A A A A A A A A A A A A A A A A A A A A A A A A A A A cXcXcXcXcXcXcXcXcXcXcXcXcXcXcXcXcXcXcXcXcXcXcXcXcXcX",
"cXcXcXcXcXcXcXcXcXcXcXcXcXcXcXcXcXcXcXcXcXcXcXcXcXcXcXA A A S A A S A A A A A A A A A A A A A A A A A A A A A A A A A S S F A cXcXcXcXcXcXcXcXcXcXcXcXcXcXcXcXcXcXcXcXcXcXcXcXcXcXcX",
"cXcXcXcXcXcXcXcXcXcXcXcXcXcXcXcXcXcXcXcXcXcXcXcXcXcXcXcXA A A A A A A A A A A A A A A A A A A A A A A A A A A A A A A A A A cXcXcXcXcXcXcXcXcXcXcXcXcXcXcXcXcXcXcXcXcXcXcXcXcXcXcXcX",
"cXcXcXcXcXcXcXcXcXcXcXcXcXcXcXcXcXcXcXcXcXcXcXcXcXcXcXcXcXcXcXcXcXcXcXcXcXcXcXcXcXcXcXcXcXcXcXcXcXcXcXcXcXcXcXcXcXcXcXcXcXcXcXcXcXcXcXcXcXcXcXcXcXcXcXcXcXcXcXcXcXcXcXcXcXcXcXcXcXcX",
"cXcXcXcXcXcXcXcXcXcXcXcXcXcXcXcXcXcXcXcXcXcXcXcXcXcXcXcXcXcXcXcXcXcXcXcXcXcXcXcXcXcXcXcXcXcXcXcXcXcXcXcXcXcXcXcXcXcXcXcXcXcXcXcXcXcXcXcXcXcXcXcXcXcXcXcXcXcXcXcXcXcXcXcXcXcXcXcXcXcX",
"cXcXcXcXcXcXcXcXcXcXcXcXcXcXcXcXcXcXcXcXcXcXcXcXcXcXcXcXcXcXcXcXcXcXcXcXcXcXcXcXcXcXcXcXcXcXcXcXcXcXcXcXcXcXcXcXcXcXcXcXcXcXcXcXcXcXcXcXcXcXcXcXcXcXcXcXcXcXcXcXcXcXcXcXcXcXcXcXcXcX",
"cXcXcXcXcXcXcXcXcXcXcXcXcXcXcXcXcXcXcXcXcXcXcXcXcXcXcXcXcXcXcXcXcXcXcXcXcXcXcXcXcXcXcXcXcXcXcXcXcXcXcXcXcXcXcXcXcXcXcXcXcXcXcXcXcXcXcXcXcXcXcXcXcXcXcXcXcXcXcXcXcXcXcXcXcXcXcXcXcXcX",
"cXcXcXcXcXcXcXcXcXcXcXcXcXcXcXcXcXcXcXcXcXcXcXcXcXcXcXcXcXcXcXcXcXcXcXcXcXcXcXcXcXcXcXcXcXcXcXcXcXcXcXcXcXcXcXcXcXcXcXcXcXcXcXcXcXcXcXcXcXcXcXcXcXcXcXcXcXcXcXcXcXcXcXcXcXcXcXcXcXcX",
"cXcXcXcXcXcXcXcXcXcXcXcXcXcXcXcXcXcXcXcXcXcXcXcXcXcXcXcXcXcXcXcXcXcXcXcXcXcXcXcXcXcXcXcXcXcXcXcXcXcXcXcXcXcXcXcXcXcXcXcXcXcXcXcXcXcXcXcXcXcXcXcXcXcXcXcXcXcXcXcXcXcXcXcXcXcXcXcXcXcX",
"cXcXcXcXcXcXcXcXcXcXcXcXcXcXcXcXcXcXcXcXcXcXcXcXcXcXcXcXcXcXcXcXcXcXcXcXcXcXcXcXcXcXcXcXcXcXcXcXcXcXcXcXcXcXcXcXcXcXcXcXcXcXcXcXcXcXcXcXcXcXcXcXcXcXcXcXcXcXcXcXcXcXcXcXcXcXcXcXcXcX",
"cXcXcXcXcXcXcXcXcXcXcXcXcXcXcXcXcXcXcXcXcXcXcXcXcXcXcXcXcXcXcXcXcXcXcXcXcXcXcXcXcXcXcXcXcXcXcXcXcXcXcXcXcXcXcXcXcXcXcXcXcXcXcXcXcXcXcXcXcXcXcXcXcXcXcXcXcXcXcXcXcXcXcXcXcXcXcXcXcXcX",
"cXcXcXcXcXcXcXcXcXcXcXcXcXcXcXcXcXcXcXcXcXcXcXcXcXcXcXcXcXcXcXcXcXcXcXcXcXcXcXcXcXcXcXcXcXcXcXcXcXcXcXcXcXcXcXcXcXcXcXcXcXcXcXcXcXcXcXcXcXcXcXcXcXcXcXcXcXcXcXcXcXcXcXcXcXcXcXcXcXcX",
"cXcXcXcXcXcXcXcXcXcXcXcXcXcXcXcXcXcXcXcXcXcXcXcXcXcXcXcXcXcXcXcXcXcXcXcXcXcXcXcXcXcXcXcXcXcXcXcXcXcXcXcXcXcXcXcXcXcXcXcXcXcXcXcXcXcXcXcXcXcXcXcXcXcXcXcXcXcXcXcXcXcXcXcXcXcXcXcXcXcX",
"cXcXcXcXcXcXcXcXcXcXcXcXcXcXcXcXcXcXcXcXcXcXcXcXcXcXcXcXcXcXcXcXcXcXcXcXcXcXcXcXcXcXcXcXcXcXcXcXcXcXcXcXcXcXcXcXcXcXcXcXcXcXcXcXcXcXcXcXcXcXcXcXcXcXcXcXcXcXcXcXcXcXcXcXcXcXcXcXcXcX",
"cXcXcXcXcXcXcXcXcXcXcXcXcXcXcXcXcXcXcXcXcXcXcXcXcXcXcXcXcXcXcXcXcXcXcXcXcXcXcXcXcXcXcXcXcXcXcXcXcXcXcXcXcXcXcXcXcXcXcXcXcXcXcXcXcXcXcXcXcXcXcXcXcXcXcXcXcXcXcXcXcXcXcXcXcXcXcXcXcXcX"
};
