/* XPM */
static char *result[] = {
/* columns rows colors chars-per-pixel */
"90 105 232 2 ",
"   c #000001",
".  c #00000B",
"X  c #190000",
"o  c #000014",
"O  c #00001C",
"+  c #0B041F",
"@  c #150E1D",
"#  c #18071C",
"$  c #1A101D",
"%  c #3B0000",
"&  c #000122",
"*  c #000A23",
"=  c #0C0D24",
"-  c #00002C",
";  c #060926",
":  c #120722",
">  c #071327",
",  c #151223",
"<  c #191425",
"1  c #1A1628",
"2  c #1B192B",
"3  c #1A1627",
"4  c #000133",
"5  c #00013C",
"6  c #000C39",
"7  c #00143A",
"8  c #001A3C",
"9  c #031536",
"0  c #1D1D31",
"q  c #101A34",
"w  c #241B28",
"e  c #381525",
"r  c #271028",
"t  c #1E2136",
"y  c #1C243D",
"u  c #15223E",
"i  c #2D2229",
"p  c #332427",
"a  c #33252A",
"s  c #3A2A2B",
"d  c #222235",
"f  c #22253C",
"g  c #292A3F",
"h  c #342A36",
"j  c #3C3236",
"k  c #6C2E00",
"l  c #462A2C",
"z  c #562A2C",
"x  c #45322D",
"c  c #4A352F",
"v  c #54332F",
"b  c #4A3734",
"n  c #563933",
"m  c #653932",
"M  c #66322F",
"N  c #452016",
"B  c #5A4338",
"V  c #654A3B",
"C  c #6A4C3C",
"Z  c #664538",
"A  c #784739",
"S  c #74533E",
"D  c #79533F",
"F  c #6E523E",
"G  c #71430B",
"H  c #000741",
"J  c #001342",
"K  c #001B43",
"L  c #012344",
"P  c #0B2544",
"I  c #012648",
"U  c #142542",
"Y  c #1C2641",
"T  c #1C2944",
"R  c #142A47",
"E  c #123052",
"W  c #0F3153",
"Q  c #262B44",
"!  c #292D46",
"~  c #292E49",
"^  c #242B46",
"/  c #342F43",
"(  c #2B314D",
")  c #393345",
"_  c #00356A",
"`  c #483A45",
"'  c #553B46",
"]  c #00457D",
"[  c #004276",
"{  c #3B5076",
"}  c #5B4447",
"|  c #684847",
" . c #7C5A43",
".. c #765646",
"X. c #73504B",
"o. c #68637E",
"O. c #833E00",
"+. c #944E06",
"@. c #B15203",
"#. c #B35615",
"$. c #AC5D0A",
"%. c #874E3C",
"&. c #8B513E",
"*. c #94533C",
"=. c #945F2D",
"-. c #B45A27",
";. c #A85A37",
":. c #AE5A2E",
">. c #B76338",
",. c #B96B29",
"<. c #A5611A",
"1. c #C47238",
"2. c #865847",
"3. c #985A46",
"4. c #8C574C",
"5. c #A35E46",
"6. c #8B654B",
"7. c #876349",
"8. c #936A4D",
"9. c #996A4C",
"0. c #9C714F",
"q. c #986A54",
"w. c #9D7251",
"e. c #9C735A",
"r. c #876553",
"t. c #A5634B",
"y. c #AC654B",
"u. c #A9694C",
"i. c #B3664A",
"p. c #B66C4E",
"a. c #B96D4D",
"s. c #B86843",
"d. c #A86C54",
"f. c #B86F50",
"g. c #B66E50",
"h. c #A47553",
"j. c #A97A56",
"k. c #AD7E59",
"l. c #A77858",
"z. c #BC7352",
"x. c #B57858",
"c. c #B77248",
"v. c #C7764A",
"b. c #C27553",
"n. c #C37955",
"m. c #C47B59",
"M. c #C97C59",
"N. c #C16F45",
"B. c #C57F63",
"V. c #B4835C",
"C. c #BA855E",
"Z. c #BC895F",
"A. c #B78154",
"S. c #AD815A",
"D. c #BA8861",
"F. c #C4835C",
"G. c #CC845D",
"H. c #CF885F",
"J. c #D5845D",
"K. c #D7895C",
"L. c #D18B55",
"P. c #C28D62",
"I. c #CB8C62",
"U. c #C8856B",
"Y. c #D78C62",
"T. c #C59164",
"R. c #CB9366",
"E. c #CC9669",
"W. c #D49266",
"Q. c #D29768",
"!. c #D39A6A",
"~. c #DB9D6C",
"^. c #DC9566",
"/. c #C78D78",
"(. c #D18F77",
"). c #E28D64",
"_. c #E59669",
"`. c #E39C6C",
"'. c #E9986B",
"]. c #DDA16F",
"[. c #DDA270",
"{. c #E4A16F",
"}. c #E4A572",
"|. c #E6A974",
" X c #EBAB75",
".X c #EBA874",
"XX c #F2AC76",
"oX c #F4B27A",
"OX c #FAB47B",
"+X c #EFB078",
"@X c #004989",
"#X c #00569D",
"$X c #005693",
"%X c #004F92",
"&X c #005BA7",
"*X c #0068BB",
"=X c #406DA1",
"-X c #0079D6",
";X c #0069C0",
":X c #887483",
">X c #7182AB",
",X c #008CE5",
"<X c #0092ED",
"1X c #0080D3",
"2X c #49A7F7",
"3X c #5894D3",
"4X c #B08A87",
"5X c #A39DB1",
"6X c #CF9886",
"7X c #D8AB9B",
"8X c #D9B4A8",
"9X c #CCB2B2",
"0X c #E1B1A1",
"qX c #EAC6B8",
"wX c #85BDFC",
"eX c #84B2EC",
"rX c #A4B2D6",
"tX c #86C3FF",
"yX c #B2D8FF",
"uX c #AFCEF9",
"iX c #CECAD9",
"pX c #EED4CA",
"aX c #F8E5DB",
"sX c #D4EBFF",
"dX c #D5F1FF",
"fX c #FBECE3",
"gX c #EDFBFF",
"hX c #FFFFFE",
"jX c #F8F9F8",
"kX c #F8F1F1",
"lX c #D1DCF6",
"zX c None",
/* pixels */
"zXzXzXzXzXzXzXzXzXzXzXzXzXzXzXzXzXzXzXzXzXzXzXzXzXzXzXzXzXzXzXzXzXzXzXzXzXzXzXzXzXzXzXzXzXzXzXzXzXzXzXzXzXzXzXzXzXzXzXzXzXzXzXzXzXzXzXzXzXzXzXzXzXzXzXzXzXzXzXzXzXzXzXzXzXzXzXzXzXzX",
"zXzXzXzXzXzXzXzXzXzXzXzXzXzXzXzXzXzXzXzXzXzXzXzXzXzXzXzXzXzXzXzXzXzXzXzXzXzXzXzXzXzXzXzXzXzXzXzXzXzXzXzXzXzXzXzXzXzXzXzXzXzXzXzXzXzXzXzXzXzXzXzXzXzXzXzXzXzXzXzXzXzXzXzXzXzXzXzXzXzX",
"zXzXzXzXzXzXzXzXzXzXzXzXzXzXzXzXzXzXzXzXzXzXzXzXzXzXzXzXzXzXzXzXzXzXzXzXzXzXzXzXzXzXzXzXzXzXzXzXzXzXzXzXzXzXzXzXzXzXzXzXzXzXzXzXzXzXzXzXzXzXzXzXzXzXzXzXzXzXzXzXzXzXzXzXzXzXzXzXzXzX",
"zXzXzXzXzXzXzXzXzXzXzXzXzXzXzXzXzXzXzXzXzXzXzXzXzXzXzXzXzXzXzXzXzXzXzXzXzXzXzXzXzXzXzXzXzXzXzXzXzXzXzXzXzXzXzXzXzXzXzXzXzXzXzXzXzXzXzXzXzXzXzXzXzXzXzXzXzXzXzXzXzXzXzXzXzXzXzXzXzXzX",
"zXzXzXzXzXzXzXzXzXzXzXzXzXzXzXzXzXzXzXzXzXzXzXzXzXzXzXzXzXzXzXzXzXzXzXzXzXzXzXzXzXzXzXzXzXzXzXzXzXzXzXzXzXzXzXzXzXzXzXzXzXzXzXzXzXzXzXzXzXzXzXzXzXzXzXzXzXzXzXzXzXzXzXzXzXzXzXzXzXzX",
"zXzXzXzXzXzXzXzXzXzXzXzXzXzXzXzXzXzXzXzXzXzXzXzXzXzXzXzXzXzXzXzXzXzXzXzXzXzXzXzXzXzXzXzXzXzXzXzXzXzXzXzXzXzXzXzXzXzXzXzXzXzXzXzXzXzXzXzXzXzXzXzXzXzXzXzXzXzXzXzXzXzXzXzXzXzXzXzXzXzX",
"zXzXzXzXzXzXzXzXzXzXzXzXzXzXzXzXzXzXzXzXzXzXzXzXzXzXzXzXzXzXzXzXzXzXzXzXzXzXzXzXzXzXzXzXzXzXzXzXzXzXzXzXzXzXzXzXzXzXzXzXzXzXzXzXzXzXzXzXzXzXzXzXzXzXzXzXzXzXzXzXzXzXzXzXzXzXzXzXzXzX",
"zXzXzXzXzXzXzXzXzXzXzXzXzXzXzXzXzXzXzXzXzXzXzXzXzXzXzXzXzXzXzXzXzXzXzXzXzXzXzXzXzXzXzXzXzXzXzXzXzXzXzXzXzXzXzXzXzXzXzXzXzXzXzXzXzXzXzXzXzXzXzXzXzXzXzXzXzXzXzXzXzXzXzXzXzXzXzXzXzXzX",
"zXzXzXzXzXzXzXzXzXzXzXzXzXzXzXzXzXzXzXzXzXzXzXzXzXzXzXzXzXzXzXzXzXzXzXzXzXzXzXzXzXzXzXzXzXzXzXzXzXzXzXzXzXzXzXzXzXzXzXzXzXzXzXzXzXzXzXzXzXzXzXzXzXzXzXzXzXzXzXzXzXzXzXzXzXzXzXzXzXzX",
"zXzXzXzXzXzXzXzXzXzXzXzXzXzXzXzXzXzXzXzXzXzXzXzXzXzXzXzXzXzXzXzXzXzXzXzXzXzXzXzXzXzXzXzXzXzXzXzXzXzXzXzXzXzXzXzXzXzXzXzXzXzXzXzXzXzXzXzXzXzXzXzXzXzXzXzXzXzXzXzXzXzXzXzXzXzXzXzXzXzX",
"zXzXzXzXzXzXzXzXzXzXzXzXzXzXzXzXzXzXzXzXzXzXzXzXzXzXzXzXzXzXzXzXzXzXzXzXzXzXzXzXzXzXzXzXzXzXzXzXzXzXzXzXzXzXzXzXzXzXzXzXzXzXzXzXzXzXzXzXzXzXzXzXzXzXzXzXzXzXzXzXzXzXzXzXzXzXzXzXzXzX",
"zXzXzXzXzXzXzXzXzXzXzXzXzXzXzXzXzXzXzXzXzXzXzXzXzXzXzXzXzXzXzXzXzXzXzXzXzXzXzXzXzXzXzXzXzXzXzXzXzXzXzXzXzXzXzXzXzXzXzXzXzXzXzXzXzXzXzXzXzXzXzXzXzXzXzXzXzXzXzXzXzXzXzXzXzXzXzXzXzXzX",
"zXzXzXzXzXzXzXzXzXzXzXzXzXzXzXzXzXzXzXzXzXzXzXzXzXzXzXzXzXzXzXzXzXzXzXzXzXzXzXzXzXzXzXzXzXzXzXzXzXzXzXzXzXzXzXzXzXzXzXzXzXzXzXzXzXzXzXzXzXzXzXzXzXzXzXzXzXzXzXzXzXzXzXzXzXzXzXzXzXzX",
"zXzXzXzXzXzXzXzXzXzXzXzXzXzXzXzXzXzXzXzXzXzXzXzXzXzXzXzXzXzXzXzXzXzXzXzXzXzXzXzXzXzXzXzXzXzXzXzXzXzXzXzXzXzXzXzXzXzXzXzXzXzXzXzXzXzXzXzXzXzXzXzXzXzXzXzXzXzXzXzXzXzXzXzXzXzXzXzXzXzX",
"zXzXzXzXzXzXzXzXzXzXzXzXzXzXzXzXzXzXzXzXzXzXzXzXzXzXzXzXzXzXzXzXzXzXzXzXzXzXzXzXzXzXzXzXzXzXzXzXzXzXzXzXzXzXzXzXzXzXzXzXzXzXzXzXzXzXzXzXzXzXzXzXzXzXzXzXzXzXzXzXzXzXzXzXzXzXzXzXzXzX",
"zXzXzXzXzXzXzXzXzXzXzXzXzXzXzXzXzXzXzXzXzXzXzXzXzXzXzXzXzXzXzXzXzXzXzXzXzXzXzXzXzXzXzXzXzXzXzXzXzXzXzXzXzXzXzXzXzXzXzXzXzXzXzXzXzXzXzXzXzXzXzXzXzXzXzXzXzXzXzXzXzXzXzXzXzXzXzXzXzXzX",
"zXzXzXzXzXzXzXzXzXzXzXzXzXzXzXzXzXzXzXzXzXzXzXzXzXzXzXzXzXzXzXzXzXzXzXzXzXzXzXzXzXzXzXzXzXzXzXzXzXzXzXzXzXzXzXzXzXzXzXzXzXzXzXzXzXzXzXzXzXzXzXzXzXzXzXzXzXzXzXzXzXzXzXzXzXzXzXzXzXzX",
"zXzXzXzXzXzXzXzXzXzXzXzXzXzXzXzXzXzXzXzXzXzXzXzXzXzXzXzXzXzXzXzXzXzXzXzXzXzXzXzXzXzXzXzXzXzXzXzXzXzXzXzXzXzXzXzXzXzXzXzXzXzXzXzXzXzXzXzXzXzXzXzXzXzXzXzXzXzXzXzXzXzXzXzXzXzXzXzXzXzX",
"zXzXzXzXzXzXzXzXzXzXzXzXzXzXzXzXzXzXzXzXzXzXzXzXzXzXzXzXzXzXzXzXzXzXzXzXzXzXzXzXzXzXzXzXzXzXzXzXzXzXzXzXzXzXzXzXzXzXzXzXzXzXzXzXzXzXzXzXzXzXzXzXzXzXzXzXzXzXzXzXzXzXzXzXzXzXzXzXzXzX",
"zXzXzXzXzXzXzXzXzXzXzXzXzXzXzXzXzXzXzXzXzXzXzXzXzXzXzXzXzXzXzXzXzXzXzXzXzXzXzXzXzXzXzXzXzXzXzXzXzXzXzXzXzXzXzXzXzXzXzXzXzXzXzXzXzXzXzXzXzXzXzXzXzXzXzXzXzXzXzXzXzXzXzXzXzXzXzXzXzXzX",
"zXzXzXzXzXzXzXzXzXzXzXzXzXzXzXzXzXzXzXzXzXzXzXzXzXzXzXzXzXzXzXzXzXzXzXzXzXzXzXzXzXzXzXzXzXzXzXzXzXzXzXzXzXzXzXzXzXzXzXzXzXzXzXzXzXzXzXzXzXzXzXzXzXzXzXzXzXzXzXzXzXzXzXzXzXzXzXzXzXzX",
"zXzXzXzXzXzXzXzXzXzXzXzXzXzXzXzXzXzXzXzXzXzXzXzXzXzXzXzXzXzXzXzXzXzXzXzXzXzXzXzXzXzXzXzXzXzXzXzXzXzXzXzXzXzXzXzXzXzXzXzXzXzXzXzXzXzXzXzXzXzXzXzXzXzXzXzXzXzXzXzXzXzXzXzXzXzXzXzXzXzX",
"zXzXzXzXzXzXzXzXzXzXzXzXzXzXzXzXzXzXzXzXzXzXzXzXzXzXzXzXzXzXzXzXzXzXzXzXzXzXzXzXzXzXzXzXzXzXzXzXzXzXzXzXzXzXzXzXzXzXzXzXzXzXzXzXzXzXzXzXzXzXzXzXzXzXzXzXzXzXzXzXzXzXzXzXzXzXzXzXzXzX",
"zXzXzXzXzXzXzXzXzXzXzXzXzXzXzXzXzXzXzXzXzXzXzXzXzXzXzXzXzXzXzXzXzXzXzXzXzXzXzXzXzXzXzXzXzXzXzXzXzXzXzXzXzXzXzXzXzXzXzXzXzXzXzXzXzXzXzXzXzXzXzXzXzXzXzXzXzXzXzXzXzXzXzXzXzXzXzXzXzXzX",
"zXzXzXzXzXzXzXzXzXzXzXzXzXzXzXzXzXzXzXzXzXzXzXzXzXzXzXzXzXzXzXzXzXzXzXzXzXzXzXzXzXzXzXzXzXzXzXzXzX< < zXzXzXzXzXzXzXzXzXzXzXzXzXzXzXzXzXzXzXzX< < zXzXzXzXzXzXzXzXzXzXzXzXzXzXzXzXzX",
"zXzXzXzXzXzXzXzXzXzXzXzXzXzXzXzXzXzXzXzXzXzXzXzXzXzXzXzXzXzXzXzXzXX X X X zXzXzXzXzXzXzXzXzXzX< < < < < < < < < < < , < < < < < < < 1 < < < < < < < < zXzXzXzXzXzXzXzXzXzXzXzXzXzXzX",
"zXzXzXzXzXzXzXzXzXzXzXzXzXzXzXzXzXzXzXzXzXzXzXzXzXzXzXzXzXzXzXzXX X X X X X zXzXzXzXzXzXzXzX1 < < < < < < < < < < < < < < < < < < < < < < < < < < < < , zXzXzXzXzXzXzXzXzXzXzXzXzXzX",
"zXzXzXzXzXzXzXzXzXzXzXzXzXzXzXzXzXzXzXzXzXzXzXzXzXzXzXzXzXzXzXzXX X X X X X zXzXzXzXzXzXzX< < < < < < < < < < < < < < < < < < < < < < < < < < 1 < < < < < zXzXzXzXzXzXzXzXzXzXzXzXzX",
"zXzXzXzXzXzXzXzXzXzXzXzXzXzXzXzXzXzXzXzXzXzXzXzXzXzXzXzXzXzXzXzXE E E E E E W zXzXzXzXzXzX@ , < , 1 1 1 1 1 1 1 1 3 1 < < < < 1 < < 1 < < 1 w 1 1 1 < < 3 1 zXzXzXzXzXzXzXzXzXzXzXzX",
"zXzXzXzXzXzXzXzXzXzXzXzXzXzXzXzXzXzXzXzXzXzXzXzXzXzXzXzXzXzXzXzX@X_ ] @X] [ [ zXzXzXzXzX    O O - & ; ; = 1 1 1 3 3 3 1 3 1 1 1 1 1 1 1 1 1 < 1 1 1 < 1 1 2 zXzXzXzXzXzXzXzXzXzXzXzX",
"zXzXzXzXzXzXzXzXzXzXzXzXzXzXzXzXzXzXzXzXzXzXzXzXzXzXzXzXzXzXzXzX#X#X#X&X#X%X@X@XzXzXzX      . O O & - & & > 1 w w 3 3 3 1 1 1 1 1 1 1 1 1 1 3 3 < , < 1 1 t f f zXzXzXzXzXzXzXzXzXzX",
"zXzXzXzXzXzXzXzXzXzXzXzXzXzXzXzXzXzXzXzXzXzXzXzXzXzXzXzXzXzXzXzX*X*X*X;X*X&X%X@X_ 4           o o O O & & * < 3 w w 1 1 < < 1 < < < < < < < , , , , < 1 2 t f Q Q zXzXzXzXzXzXzXzXzX",
"zXzXzXzXzXzXzXzXzXzXzXzXzXzXzXzXzXzXzXzXzXzXzXzXzXzXzXzXzXzXzXzX-X-X-X-X-X*X&X@X_ 4           . o O O O O * < 2 w 3 3 < < < < < < < < < < , , , @ , < 3 2 d f f Q ~ ~ zXzXzXzXzXzXzX",
"zXzXzXzXzXzXzXzXzXzXzXzXzXzXzXzXzXzXzXzXzXzXzXzXzXzXzXzXzXzXzXzX<X<X,X,X,X-X*X$X_ q           . O O O * * = < < 3 < < < < < < < < < < < < , , @ @ , 3 3 t y ^ g Q ~ Q zXzXzXzXzXzXzX",
"zXzXzXzXzXzXzXzXzXzXzXzXzXzXzXzXzXzXzXzXzXzXzXzXzXzXzXzXzXzXzXzX2X2X2X2X2X3X3X=X{ l % % % N N x x s s a i 2 < , , , , < < < < < , < < < < < < < < < 2 0 f g Q ~ Q Q ~ ~ zXzXzXzXzXzX",
"zXzXzXzXzXzXzXzXzXzXzXzXzXzXzXzXzXzXzXzXzXzXzXzXzXzXzXzXzXzXzXzXtXtXtXtXtXeX3X>X=X' k k k G A S ..F V B x i = * O & * = , < < < < < , < < < < 3 3 2 0 t f Q ! ( ~ ^ ~ Q Q zXzXzXzXzX",
"zXzXzXzXzXzXzXzXzXzXzXzXzXzXzXzXzXzXzXzXzXzXzXzXzXzXzXzXzXzXzXzXyXyXyXuXyXuXrX5X:X4.O.O.+.=.0.0.0.8. ...B s * O O O O * , < 3 3 < < $ < 3 3 2 2 0 0 t y g Q Q ~ ( ~ Q ~ Q Q zXzXzXzX",
"zXzXzXzXzXzXzXzXzXzXzXzXzXzXzXzXzXzXzXzXzXzXzXzXzXzXzXzXzXzXzXzXdXsXsXsXsXlXiX5X:Xq.<.+.<.,.A.A.V.S.e. .V j * o o O O & = < < < < < < < 3 2 2 t t t f y g Q ~ ~ Q Q Q Q Q Q Q Q Q Q ",
"zXzXzXzXzXzXzXzXzXzXzXzXzXzXzXzXzXzXzXzXzXzXzXzXzXzXzXzXzXzXzXzXgXgXgXgXjXsXiX9X4Xl.<.$.,.A.L.].E.Z.V.8.F B O . . o O & , < w < < $ , 3 2 2 0 t t y g g Q Q ~ Q Q Q Q Q Q Q Q Q Q Q ",
"zXzXzXzXzXzXzXzXzXzXQ Q Q Q Q Q zXzXzXzXzXzXzXzXzXzXzXzXzXzXzXzXhXhXhXhXhXkXpX8X4Xk.,.,.1.L.^.{.].E.Z.S. .B > o . o O O , $ r < , , , , 3 0 t f g Q Q Q Q ^ Q Q Q Q Q Q Q Q Q Q Q Q ",
"zXzXzXzXzXzXzXzXzXQ Q Q Q Q Q Q ~ zXzXzXzXzXzXzXzXzXzXzXzXzXzXzXhXhXhXhXhXkXpX8X6Xx.>.1.1.).{.{.}.~.T.S.6.Z a O o O O & < < , , < , , , 3 0 t f ^ Q ~ Q ~ Q Q Q Q Q Q Q Q Q ~ Q Q Q ",
"zXzXzXzXzXzXzXzXQ Q Q Q Q Q Q Q ~ zXzXzXzXzXzXzXzXzXzXzXzXzXzXzXhXhXjXkXkXaXpX0X6Xm.N.1.L.K.'..X{.~.T.S.9.2.n e # O : : = & & O O > , < 3 0 t f Q Q Q ~ ~ ^ Q Q Q Q Q Q Q ~ ( ( ( ~ ",
"zXzXzXzXzXzXzXzXQ Q Q Q Q g Q Q Q Q zXzXzXzXzXzXzXzXzXzXzXzXzXzXfXfXaXaXaXaXqX0X(.m.N.N.L.L.^.`.~.W.H.A.u.2.A M l e r # O O O O O O + < 2 0 t g f Q ~ Q Q ~ Q Q Q Q Q ( ~ ~ ~ ( ( ( ",
"zXzXzXzXzXzXzXzXQ Q Q Q Q Q ^ Q Q Q zXzXzXzXzXzXzXzXzXzXzXzXzXzXpXpXqXqXqXqX0X6XU.n.N.v.M.L.Y.^.W.Y.G.x.p.3.*.m M z e + O o o o o O O < d i d f Q Q Q ~ Q Q Q Q Q Q Q Q Q ~ Q Q Q Q ",
"zXzXzXzXzXzXzXzXQ Q Q Q Q Q Q Q Q Q Q zXzXzXzXzXzXzXzXzXzXzXzXzX8X8X8X7X7X7X6X(.B.m.b.b.v.M.G.J.G.G.m.x.p.u.3.&.%.M z # o o . o o O O 3 w d d f g Q Q Q Q Q Q Q Q Q Q Q Q ! Q Q Q Q ",
"zXzXzXzXzXzXQ Q Q Q Q Q Q Q Q Q Q Q ! Q ! ! zXzXzXzXzXzXzXzXzXzX6XD.D./.(.(.U.B.m.z.f.z.b.n.n.n.n.z.b.z.a.p.i.5.&.A M e O o . o o O * 3 w d d f f Q Q ~ ~ Q ~ Q Q Q Q Q Q Q Q Q Q Q ",
"Q Q Q Q Q Q Q Q Q Q Q Q Q Q Q Q Q Q Q Q Q Q Q zXzXzXzXzXzXzXzXzXg.c.i.p.b.N.b.a.g.f.f.g.a.p.p.p.p.a.z.z.b.z.z.p.5.3.A Z s , & O O * = 1 1 0 t y f Q Q Q Q Q Q Q Q Q ! Q Q Q Q Q Q Q ",
"Q Q Q Q Q Q Q Q Q Q Q Q Q Q Q Q Q Q T T T T Q / zXzXzXzXzXzXzXzX#.#.#.#.-.1.>.s.5.y.y.y.t.t.5.t.t.u.p.z.n.M.F.x.f.u.9.2...V b x s p w , > > q t ^ Q Q ~ ~ Q Q Q Q Q Q Q Q Q Q Q Q Q ",
"Q Q Q Q Q Q Q Q Q Q Q Q Q Q Q Q Q ^ U P I P Q ) zXzXzXzXzXzXzX-.#.@.@.@.#.-.:.:.*.3.3.3.3.3.*.*.*.9.y.z.F.F.L.G.F.C.k.h.0.6. .S Z B p @ O * 9 q Y ^ Q Q ~ Q Q Q Q Q Q Q Q Q Q Q Q Q ",
"Q Q Q Q Q Q Q Q Q Q ^ g ^ Q Q Q Q T P L I 8 ^ ` } X.zXzXy.i.s.>.:.:.-.:.-.:.;.*.*.%.2.2.m %.m A %.3.t.x.F.I.W.W.W.W.T.F.C.A.w.8. .Z x @ & & - 7 y Q Q Q Q Q Q Q Q Q Q Q g Q Q Q Q Q ",
"Q Q Q Q Q Q g ^ Q Q Q Q ^ g Q Q Q T L L L L Q ' | 4.5.5.i.i.i.s.s.s.>.>.;.;.*.%.A A m n z z z v Z %.9.x.F.R.!.].~.].~.~.!.T.Z.j.8.S c , O & - 9 y Q Q Q ~ Q Q Q Q Q Q Q Q Q Q Q Q Q ",
"Q Q Q Q ^ Q Q Q Q Q Q Q ^ Q Q Q Q T L K K K g ' X.4.5.y.i.p.N.N.N.s.i.i.y.3.*.A m z s e : & & e v A 8.j.F.Q.].|..X.X.X|.|.].T.V.0.D B , O & - 6 u Q Q ~ Q ~ Q Q Q Q Q Q Q Q Q Q Q Q ",
"Q Q Q Q Q Q Q Q Q Q Q Q Q Q Q Q Q R 8 J zXJ ~ } 4.4.t.u.f.z.b.b.b.M.b.a.y.9.%.Z v w O O o . o O a C 6.S.Z.].[. X X+XoX X|.].Q.Z.e.7.B 3 O & - 6 u ^ Q Q Q Q Q Q Q g ^ Q Q Q Q Q Q Q ",
"Q Q Q Q Q Q Q Q Q Q Q Q Q Q ^ g Q R K zXzXzX^ | 4.5.d.x.m.Y.).M.B.M.m.b.g.9.&.A l * O .       . > B 7.S.Z.].|.+XoX+X X.X}.].T.V.w. .n 3 & - - 7 u ^ Q Q ~ Q Q Q Q Q Q ^ Q Q Q Q Q Q ",
"Q Q Q Q Q Q Q Q ^ g Q Q ^ Q Q Q Q P J zXzXzX^ | 4.d.x.B.Y._._.'.^.Y.I.M.x.u.2.A c * o .       . > B 7.S.T.].[. X X|.}.].!.T.Z.j.8...B 2 - 4 5 8 y ^ Q Q Q Q Q Q Q Q Q Q Q Q Q Q Q Q ",
"Q Q g Q Q Q Q Q Q ^ Q ^ g Q Q Q Q P H zXzXzX^ X.q.l.x.U._..X.X.X'._.^.I.F.j.9.S n * O         o > V 6.S.T.].|. X|.[.!.T.Z.k.w.8. .} b d 5 4 9 8 y ^ Q Q Q Q Q Q Q ^ g Q Q Q Q Q Q Q ",
"Q Q Q Q Q Q Q Q Q Q Q Q g Q Q Q Q P 5 zXzXzXQ X.q.k.P.R..XoXOXoXXX.X].W.I.x.h.2.B 2 o .       o i V 6.S.T.].|.|.].!.F.S.0.6. ...} B ) f 8 8 8 U f ^ Q Q Q g Q ^ Q Q Q Q Q ^ g ^ Q Q ",
"Q Q Q Q Q Q Q Q Q Q Q Q ^ ^ Q Q Q L 5 zXzXzX( X.e.D.I.!..XOXOXOXXXXX}.~.E.D.h.7.Z i O .     . o i C 8.V.T.].}.}.~.P.S.8.S B x h h h g g Y U Y ^ Q Q ^ Q Q ^ Q Q Q Q Q Q Q Q Q Q Q Q ",
"g ^ Q Q Q Q Q Q Q g ^ Q Q Q g ^ Q K H zXzX5 Q ..e.D.E.~.{. XoXoXoX+X.X}.!.P.j.7.V p O .     . O i C 8.V.E.{.}.].!.Z.h.D c * * & 4 8 ^ Q Q Q Q Q Q Q ^ Q Q Q Q Q ^ Q Q Q ^ g Q Q Q Q ",
"Q Q Q Q Q Q Q Q Q Q ^ Q Q Q Q ^ Q K H 5 5 5 Q X.e.D.E.].|.|.+X+XoX+XXX}.].T.k.6.C p O .     . o p C 8.A.E.].|.].E.V.8.C < o o & - 6 u Q ( Q ! ! Q Q Q Q Q Q Q g g ^ Q Q ^ Q Q Q Q Q ",
"Q Q Q Q Q Q Q Q Q Q g Q Q ^ Q Q Q U H 5 5 H ( } q.D.D.6X X+X+XoXoX+X+X|.].R.S.8.C a O         O p C 8.V.E.].|.{.E.V.8.V O . . O - 5 u Q ~ / ! ! Q Q Q Q ^ Q Q Q Q ^ Q Q Q Q Q Q Q Q ",
"Q f Q Q Q Q Q Q ^ ^ ^ Q g ^ Q Q Q Y K 5 H H ^ } X.S.zXzXzXOXoXOX0XoX X|.}.E.V.8.C a O .     . O p C 8.V.E.].}.].Q.A.9.V , . o O 4 6 U Q ( ( ! ! Q Q Q Q ^ g Q Q Q ^ g Q Q Q ^ g Q Q ",
"Q Q Q Q Q Q Q Q Q Q Q Q Q Q Q g Q T K 7 J K ~ } zXzXzXzXzXzXzXOXOXOX+X|.}.!.V.8.C a O       . o a C 8.V.E.].}.].Q.Z.8.C p O o & 4 9 y Q ! ! ! ! Q Q Q Q Q Q Q ^ Q Q Q Q g Q ^ Q Q Q ",
"Q Q Q Q Q ^ Q g ^ Q Q Q Q Q ^ ^ Q Q T U U U ( ) zXzXzXzXzXzXzXzXOXXX.X|.}.!.C.8.C p O .     . O a C 8.V.E.].}.}.E.C.0.S l & O & - 8 T g ! ! Q Q Q Q Q Q Q Q Q ^ g Q Q ^ ^ Q Q Q Q Q ",
"g Q Q Q Q Q Q Q Q Q Q Q Q Q Q Q Q ^ ^ f ^ Q ^ zXzXzXzXzXzXzXzXzXoXoX X|.}.!.C.8.C a O .     . o p C 8.V.T.].}.}.!.Z.0.S x O O - 4 8 ^ Q Q Q Q Q Q Q Q Q Q Q Q Q Q Q Q Q Q Q Q Q Q Q ",
"zXzXzXzXzXQ Q Q Q Q Q Q Q Q Q ^ g ^ Q Q Q Q zXzXzXzXzXzXzXzXzXzXXXXX X|.|.!.Z.0.C p O .     . O a C 8.V.E.].}.{.E.Z.0.S x O & & 4 9 Y Q Q Q ~ Q Q Q Q Q Q Q Q Q Q Q Q Q Q Q Q Q Q Q ",
"zXzXzXzXzXzXzXQ Q Q Q Q ^ ^ Q Q Q Q Q zXzXzXzXzXzXzXzXzXzXzXzXzX X X X|.|.!.Z.8.F p o         o p F 8.V.E.}.|.|.].Z.h.S x & O - 4 9 T Q Q Q Q Q Q Q Q Q Q Q Q f Q Q Q Q Q Q ~ Q Q Q ",
"zXzXzXzXzXzXzXzXQ Q Q Q ^ Q Q Q Q ^ zXzXzXzXzXzXzXzXzXzXzXzXzX~..X X X|.}.!.V.8.C p O         o p | 0.Z.!.|.+X|.].P.j. .b & & & 4 8 Y Q ~ ~ Q ~ Q Q Q Q Q Q Q Q Q Q Q Q Q Q ~ ~ ~ ~ ",
"zXzXzXzXzXzXzXzXQ Q Q Q Q Q Q Q Q T zXzXzXzXzXzXzXzXzXzXi.z.G.W.{..X|.|.}.!.V.8.C p o         o p S 0.D.~. XOXoX}.R.j. .b & & - 4 8 ^ Q ~ ~ Q Q Q Q Q Q Q Q Q Q Q Q Q ~ Q ~ ~ ~ ~ ~ ",
"zXzXzXzXzXzXzXzXQ Q Q Q Q Q Q Q Q zXzXzXzXzXzXzXzXzXzX5.i.z.F.W.`.}.|.|.[.E.V.8.C p o         o p C 0.D.~. XoXoX}.E.j.2.c & O - 4 8 T Q Q ~ ~ Q Q Q Q Q Q Q Q Q Q Q ~ Q ~ ~ ~ ~ ~ ~ ",
"zXzXzXzXzXzXzXzXzXQ Q Q Q Q Q Q Q zXzXzXzXzXzXzXzXzXi.i.p.b.F.Y.`.{.|.[.[.E.V.6.C p o         o p C 8.Z.!.|. X.X~.P.h. .c & & & 4 8 T Q ~ ~ Q Q Q Q Q Q Q Q Q Q Q Q Q Q Q Q ~ Q ~ ~ ",
"zXzXzXzXzXzXzXzXzXzXQ Q Q Q Q Q zXzXzXzXzXzXzXzXzXzXi.p.g.M.Y._.{.}.|.].].T.k.6.V a O o . . o O p C 8.S.R.].}.}.!.Z.w.S x & O - 4 7 y Q ^ Q Q Q Q Q Q Q Q Q Q Q Q Q Q Q Q Q Q Q Q Q ",
"zXzXzXzXzXzXzXzXzXzXzXzXzXzXzXzXzXzXzXzXzXzXzXzXzXzXp.p.f.M.'.'.'..X{.~.(.F.l.r.V h & & O O & - h } 6.j.T.[.}.}.!.D.h.S x O & - 4 9 y f Q Q Q Q Q Q Q Q ~ ~ Q ~ Q Q ! Q Q Q Q Q Q Q ",
"zXzXzXzXzXzXzXzXzXzXzXzXzXzXzXzXzXzXzXzXzXzXzXzXzXzXa.a.b.Y.).'.'.'.`.~.R.D.h.4.| h 4 4 - - 4 4 h B  .e.D.!.}.|.~.P.w. .c & O & - 9 t f f Q Q Q Q Q ~ ~ ~ ( ~ ~ Q Q ! Q Q Q Q Q Q Q ",
"zXzXzXzXzXzXzXzXzXzXzXzXzXzXzXzXzXzXzXzXzXzXzXzXzXzXa.a.M.M.).'.'._._.).I.B.h.r.| / 7 5 5 5 H K g } X.r.k.E.zXzXzXzXzXzXzXzX& & - 9 0 y f Q Q Q ~ ~ ~ ~ ( ( ( ( Q Q Q Q Q Q zXzXzXzX",
"zXzXzXzXzXzXzXzXzXzXzXzXzXzXzXzXzXzXzXzXzXzXzXzXzXzXf.f.M.M.).).).).Y.B.M.x.q.4.| / K H H J K R ! ) } ..zXzXzXzXzXzXzXzXzXzXzX& & > 1 0 t f Q Q ~ ~ ~ ~ ( ( ( ( ( Q Q Q Q zXzXzXzXzX",
"zXzXzXzXzXzXzXzXzXzXzXzXzXzXzXzXzXzXzXzXzXzXzXzXzXzXf.f.b.M.M.M.M.M.M.M.f.d.4.4.} / L K K I R ^ g / ` } zXzXzXzXzXzXzXzXzXzXzXzX= , < 1 t d f g Q ~ ~ ~ ~ ( ~ ( Q Q Q Q zXzXzXzXzXzX",
"zXzXzXzXzXzXzXzXzXzXzXzXzXzXzXzXzXzXzXzXzXzXzXzXzXzXf.f.N.b.b.M.b.a.b.a.y.5.4.| ' / L K I I T ~ Q T U zXzXzXzXzXzXzXzXzXzXzXzXzX$ @ @ < 1 0 d f f Q Q Q ~ ~ ~ Q Q Q Q zXzXzXzXzXzXzX",
"zXzXzXzXzXzXzXzXzXzXzXzXzXzXzXzXzXzXzXzXzXzXzXzXzXzXz.z.a.a.b.a.a.b.p.i.t.3.4.| ' / I I I R ~ ~ ^ P K zXzXzXzXzXzXzXzXzXzXzXzXzXzX$ @ @ < 2 t y Q Q Q Q ~ ~ Q Q Q Q ! zXzXzXzXzXzXzX",
"zXzXzXzXzXzXzXzXzXzXzXzXzXzXzXzXzXzXzXzXzXzXzXzXzXzXzXf.a.a.a.a.a.a.i.i.t.3.4.| ' ( I I I T ~ ~ ^ I zXzXzXzXzXzXzXzXzXzXzXzXzXzXzXzX@ @ < 1 t t f Q Q Q Q Q Q Q Q Q zXzXzXzXzXzXzXzX",
"zXzXzXzXzXzXzXzXzXzXzXzXzXzXzXzXzXzXzXzXzXzXzXzXzXzXzXzXzXzXzXzXzXzXzXzXzXzXzXzXzXzXzXzXzXE ~ zXzXzXzXzXzXzXzXzXzXzXzXzXzXzXzXzXzXzXzXzXzX3 zXzXzXzXzXzXzXzXQ zXzXzXzXzXzXzXzXzXzXzX",
"zXzXzXzXzXzXzXzXzXzXzXzXzXzXzXzXzXzXzXzXzXzXzXzXzXzXzXzXzXzXzXzXzXzXzXzXzXzXzXzXzXzXzXzXzXzXzXzXzXzXzXzXzXzXzXzXzXzXzXzXzXzXzXzXzXzXzXzXzXzXzXzXzXzXzXzXzXzXzXzXzXzXzXzXzXzXzXzXzXzX",
"zXzXzXzXzXzXzXzXzXzXzXzXzXzXzXzXzXzXzXzXzXzXzXzXzXzXzXzXzXzXzXzXzXzXzXzXzXzXzXzXzXzXzXzXzXzXzXzXzXzXzXzXzXzXzXzXzXzXzXzXzXzXzXzXzXzXzXzXzXzXzXzXzXzXzXzXzXzXzXzXzXzXzXzXzXzXzXzXzXzX",
"zXzXzXzXzXzXzXzXzXzXzXzXzXzXzXzXzXzXzXzXzXzXzXzXzXzXzXzXzXzXzXzXzXzXzXzXzXzXzXzXzXzXzXzXzXzXzXzXzXzXzXzXzXzXzXzXzXzXzXzXzXzXzXzXzXzXzXzXzXzXzXzXzXzXzXzXzXzXzXzXzXzXzXzXzXzXzXzXzXzX",
"zXzXzXzXzXzXzXzXzXzXzXzXzXzXzXzXzXzXzXzXzXzXzXzXzXzXzXzXzXzXzXzXzXzXzXzXzXzXzXzXzXzXzXzXzXzXzXzXzXzXzXzXzXzXzXzXzXzXzXzXzXzXzXzXzXzXzXzXzXzXzXzXzXzXzXzXzXzXzXzXzXzXzXzXzXzXzXzXzXzX",
"zXzXzXzXzXzXzXzXzXzXzXzXzXzXzXzXzXzXzXzXzXzXzXzXzXzXzXzXzXzXzXzXzXzXzXzXzXzXzXzXzXzXzXzXzXzXzXzXzXzXzXzXzXzXzXzXzXzXzXzXzXzXzXzXzXzXzXzXzXzXzXzXzXzXzXzXzXzXzXzXzXzXzXzXzXzXzXzXzXzX",
"zXzXzXzXzXzXzXzXzXzXzXzXzXzXzXzXzXzXzXzXzXzXzXzXzXzXzXzXzXzXzXzXzXzXzXzXzXzXzXzXzXzXzXzXzXzXzXzXzXzXzXzXzXzXzXzXzXzXzXzXzXzXzXzXzXzXzXzXzXzXzXzXzXzXzXzXzXzXzXzXzXzXzXzXzXzXzXzXzXzX",
"zXzXzXzXzXzXzXzXzXzXzXzXzXzXzXzXzXzXzXzXzXzXzXzXzXzXzXzXzXzXzXzXzXzXzXzXzXzXzXzXzXzXzXzXzXzXzXzXzXzXzXzXzXzXzXzXzXzXzXzXzXzXzXzXzXzXzXzXzXzXzXzXzXzXzXzXzXzXzXzXzXzXzXzXzXzXzXzXzXzX",
"zXzXzXzXzXzXzXzXzXzXzXzXzXzXzXzXzXzXzXzXzXzXzXzXzXzXzXzXzXzXzXzXzXzXzXzXzXzXzXzXzXzXzXzXzXzXzXzXzXzXzXzXzXzXzXzXzXzXzXzXzXzXzXzXzXzXzXzXzXzXzXzXzXzXzXzXzXzXzXzXzXzXzXzXzXzXzXzXzXzX",
"zXzXzXzXzXzXzXzXzXzXzXzXzXzXzXzXzXzXzXzXzXzXzXzXzXzXzXzXzXzXzXzXzXzXzXzXzXzXzXzXzXzXzXzXzXzXzXzXzXzXzXzXzXzXzXzXzXzXzXzXzXzXzXzXzXzXzXzXzXzXzXzXzXzXzXzXzXzXzXzXzXzXzXzXzXzXzXzXzXzX",
"zXzXzXzXzXzXzXzXzXzXzXzXzXzXzXzXzXzXzXzXzXzXzXzXzXzXzXzXzXzXzXzXzXzXzXzXzXzXzXzXzXzXzXzXzXzXzXzXzXzXzXzXzXzXzXzXzXzXzXzXzXzXzXzXzXzXzXzXzXzXzXzXzXzXzXzXzXzXzXzXzXzXzXzXzXzXzXzXzXzX",
"zXzXzXzXzXzXzXzXzXzXzXzXzXzXzXzXzXzXzXzXzXzXzXzXzXzXzXzXzXzXzXzXzXzXzXzXzXzXzXzXzXzXzXzXzXzXzXzXzXzXzXzXzXzXzXzXzXzXzXzXzXzXzXzXzXzXzXzXzXzXzXzXzXzXzXzXzXzXzXzXzXzXzXzXzXzXzXzXzXzX",
"zXzXzXzXzXzXzXzXzXzXzXzXzXzXzXzXzXzXzXzXzXzXzXzXzXzXzXzXzXzXzXzXzXzXzXzXzXzXzXzXzXzXzXzXzXzXzXzXzXzXzXzXzXzXzXzXzXzXzXzXzXzXzXzXzXzXzXzXzXzXzXzXzXzXzXzXzXzXzXzXzXzXzXzXzXzXzXzXzXzX",
"zXzXzXzXzXzXzXzXzXzXzXzXzXzXzXzXzXzXzXzXzXzXzXzXzXzXzXzXzXzXzXzXzXzXzXzXzXzXzXzXzXzXzXzXzXzXzXzXzXzXzXzXzXzXzXzXzXzXzXzXzXzXzXzXzXzXzXzXzXzXzXzXzXzXzXzXzXzXzXzXzXzXzXzXzXzXzXzXzXzX",
"zXzXzXzXzXzXzXzXzXzXzXzXzXzXzXzXzXzXzXzXzXzXzXzXzXzXzXzXzXzXzXzXzXzXzXzXzXzXzXzXzXzXzXzXzXzXzXzXzXzXzXzXzXzXzXzXzXzXzXzXzXzXzXzXzXzXzXzXzXzXzXzXzXzXzXzXzXzXzXzXzXzXzXzXzXzXzXzXzXzX",
"zXzXzXzXzXzXzXzXzXzXzXzXzXzXzXzXzXzXzXzXzXzXzXzXzXzXzXzXzXzXzXzXzXzXzXzXzXzXzXzXzXzXzXzXzXzXzXzXzXzXzXzXzXzXzXzXzXzXzXzXzXzXzXzXzXzXzXzXzXzXzXzXzXzXzXzXzXzXzXzXzXzXzXzXzXzXzXzXzXzX",
"zXzXzXzXzXzXzXzXzXzXzXzXzXzXzXzXzXzXzXzXzXzXzXzXzXzXzXzXzXzXzXzXzXzXzXzXzXzXzXzXzXzXzXzXzXzXzXzXzXzXzXzXzXzXzXzXzXzXzXzXzXzXzXzXzXzXzXzXzXzXzXzXzXzXzXzXzXzXzXzXzXzXzXzXzXzXzXzXzXzX",
"zXzXzXzXzXzXzXzXzXzXzXzXzXzXzXzXzXzXzXzXzXzXzXzXzXzXzXzXzXzXzXzXzXzXzXzXzXzXzXzXzXzXzXzXzXzXzXzXzXzXzXzXzXzXzXzXzXzXzXzXzXzXzXzXzXzXzXzXzXzXzXzXzXzXzXzXzXzXzXzXzXzXzXzXzXzXzXzXzXzX",
"zXzXzXzXzXzXzXzXzXzXzXzXzXzXzXzXzXzXzXzXzXzXzXzXzXzXzXzXzXzXzXzXzXzXzXzXzXzXzXzXzXzXzXzXzXzXzXzXzXzXzXzXzXzXzXzXzXzXzXzXzXzXzXzXzXzXzXzXzXzXzXzXzXzXzXzXzXzXzXzXzXzXzXzXzXzXzXzXzXzX",
"zXzXzXzXzXzXzXzXzXzXzXzXzXzXzXzXzXzXzXzXzXzXzXzXzXzXzXzXzXzXzXzXzXzXzXzXzXzXzXzXzXzXzXzXzXzXzXzXzXzXzXzXzXzXzXzXzXzXzXzXzXzXzXzXzXzXzXzXzXzXzXzXzXzXzXzXzXzXzXzXzXzXzXzXzXzXzXzXzXzX",
"zXzXzXzXzXzXzXzXzXzXzXzXzXzXzXzXzXzXzXzXzXzXzXzXzXzXzXzXzXzXzXzXzXzXzXzXzXzXzXzXzXzXzXzXzXzXzXzXzXzXzXzXzXzXzXzXzXzXzXzXzXzXzXzXzXzXzXzXzXzXzXzXzXzXzXzXzXzXzXzXzXzXzXzXzXzXzXzXzXzX",
"zXzXzXzXzXzXzXzXzXzXzXzXzXzXzXzXzXzXzXzXzXzXzXzXzXzXzXzXzXzXzXzXzXzXzXzXzXzXzXzXzXzXzXzXzXzXzXzXzXzXzXzXzXzXzXzXzXzXzXzXzXzXzXzXzXzXzXzXzXzXzXzXzXzXzXzXzXzXzXzXzXzXzXzXzXzXzXzXzXzX",
"zXzXzXzXzXzXzXzXzXzXzXzXzXzXzXzXzXzXzXzXzXzXzXzXzXzXzXzXzXzXzXzXzXzXzXzXzXzXzXzXzXzXzXzXzXzXzXzXzXzXzXzXzXzXzXzXzXzXzXzXzXzXzXzXzXzXzXzXzXzXzXzXzXzXzXzXzXzXzXzXzXzXzXzXzXzXzXzXzXzX",
"zXzXzXzXzXzXzXzXzXzXzXzXzXzXzXzXzXzXzXzXzXzXzXzXzXzXzXzXzXzXzXzXzXzXzXzXzXzXzXzXzXzXzXzXzXzXzXzXzXzXzXzXzXzXzXzXzXzXzXzXzXzXzXzXzXzXzXzXzXzXzXzXzXzXzXzXzXzXzXzXzXzXzXzXzXzXzXzXzXzX",
"zXzXzXzXzXzXzXzXzXzXzXzXzXzXzXzXzXzXzXzXzXzXzXzXzXzXzXzXzXzXzXzXzXzXzXzXzXzXzXzXzXzXzXzXzXzXzXzXzXzXzXzXzXzXzXzXzXzXzXzXzXzXzXzXzXzXzXzXzXzXzXzXzXzXzXzXzXzXzXzXzXzXzXzXzXzXzXzXzXzX"
};
