/* XPM */
static char *result[] = {
/* columns rows colors chars-per-pixel */
"90 105 223 2 ",
"   c #000001",
".  c #00000C",
"X  c #180000",
"o  c #000013",
"O  c #00001C",
"+  c #0B0019",
"@  c #150E1E",
"#  c #16101F",
"$  c #250200",
"%  c #370000",
"&  c #000121",
"*  c #040A24",
"=  c #0E0E24",
"-  c #161222",
";  c #191425",
":  c #1E1826",
">  c #1A1628",
",  c #1B192C",
"<  c #161328",
"1  c #1D1D31",
"2  c #0F1026",
"3  c #221A27",
"4  c #251C29",
"5  c #1F2136",
"6  c #2D222A",
"7  c #38292C",
"8  c #202137",
"9  c #22253C",
"0  c #24283F",
"q  c #690000",
"w  c #44312E",
"e  c #4E3832",
"r  c #473431",
"t  c #523B34",
"y  c #502F2E",
"u  c #5F1F1B",
"i  c #5B4237",
"p  c #6B4D3C",
"a  c #66493C",
"s  c #001650",
"d  c #173659",
"f  c #072B54",
"g  c #262B44",
"h  c #282D47",
"j  c #292E49",
"k  c #242740",
"l  c #2B314D",
"z  c #003866",
"x  c #0F4573",
"c  c #234165",
"v  c #36506F",
"b  c #26405F",
"n  c #7C5943",
"m  c #745441",
"M  c #6E5040",
"N  c #56616C",
"B  c #8A0700",
"V  c #932400",
"C  c #A82F00",
"Z  c #AC4500",
"A  c #B55A0C",
"S  c #AB5923",
"D  c #C67336",
"F  c #825E45",
"G  c #985742",
"H  c #8B654B",
"J  c #886349",
"K  c #956C4E",
"L  c #9D7252",
"P  c #9A6F50",
"I  c #A27654",
"U  c #AC7D58",
"Y  c #B26E4F",
"T  c #8D7772",
"R  c #C77B4D",
"E  c #AC805B",
"W  c #B9865E",
"Q  c #BE885D",
"!  c #B4835C",
"~  c #BF8B61",
"^  c #AE8379",
"/  c #DA975C",
"(  c #CE8956",
")  c #E2984A",
"_  c #E39D5A",
"`  c #E19A54",
"'  c #E7A05F",
"]  c #EAA25F",
"[  c #C48E61",
"{  c #CD9464",
"}  c #CC9668",
"|  c #C69063",
" . c #DC9C65",
".. c #D59B6A",
"X. c #D39766",
"o. c #CC8E72",
"O. c #E39E63",
"+. c #E29D6C",
"@. c #DDA26E",
"#. c #DCA271",
"$. c #E4A165",
"%. c #E5A46D",
"&. c #EAA66A",
"*. c #EDA769",
"=. c #F1AB6C",
"-. c #E4A571",
";. c #EBAB74",
":. c #E5AB7C",
">. c #ECAD7B",
",. c #E6A873",
"<. c #F1AF75",
"1. c #F2AF7F",
"2. c #F5B27C",
"3. c #004889",
"4. c #005699",
"5. c #065088",
"6. c #245381",
"7. c #1C6197",
"8. c #005AA4",
"9. c #005BB8",
"0. c #0063B6",
"q. c #0074BD",
"w. c #1478BC",
"e. c #0C68A7",
"r. c #2E74B1",
"t. c #286398",
"y. c #4772A1",
"u. c #5277A1",
"i. c #0069CA",
"p. c #0176C9",
"a. c #0076D9",
"s. c #0068D2",
"d. c #007DE2",
"f. c #5284BA",
"g. c #75889F",
"h. c #0586D9",
"j. c #338AD2",
"k. c #008CEA",
"l. c #0085E6",
"z. c #0093EB",
"x. c #0096EA",
"c. c #008CF0",
"v. c #009DF5",
"b. c #0097F8",
"n. c #1497EA",
"m. c #2698E9",
"M. c #3899E7",
"N. c #399FF0",
"B. c #00A2FD",
"V. c #3AA3F5",
"C. c #5C90C8",
"Z. c #6EA2DD",
"A. c #53A5F0",
"S. c #6DABEC",
"D. c #65A8EC",
"F. c #79B7FA",
"G. c #74AFEF",
"H. c #739ED2",
"J. c #8C939C",
"K. c #BBB3B0",
"L. c #A9A19D",
"P. c #CC9684",
"I. c #E7A882",
"U. c #EAB388",
"Y. c #F5B686",
"T. c #EABC9A",
"R. c #EBB794",
"E. c #F3BC96",
"W. c #F3AE84",
"Q. c #DAB3A8",
"!. c #CBACA4",
"~. c #EABCA2",
"^. c #F5BCA0",
"/. c #EEC4A8",
"(. c #F3C5A9",
"). c #EECCB6",
"_. c #EECEBA",
"`. c #F2CBB6",
"'. c #F0D0BC",
"]. c #DCC1B8",
"[. c #8BA8CF",
"{. c #8CBCF6",
"}. c #93BEF4",
"|. c #92B7E7",
" X c #ACB5C1",
".X c #9BC0F1",
"XX c #99C4F9",
"oX c #9BC0EF",
"OX c #A8CBF9",
"+X c #A9D1FF",
"@X c #BCD4F5",
"#X c #BAD4F9",
"$X c #B1CAED",
"%X c #DACBC4",
"&X c #CDCFD2",
"*X c #F3DCCD",
"=X c #F2D5C5",
"-X c #F3DDD1",
";X c #F0DFDB",
":X c #E9D0C8",
">X c #EBE3DC",
",X c #F4E0D4",
"<X c #F7E6DC",
"1X c #C6DCFC",
"2X c #CAE2FF",
"3X c #D6E5FB",
"4X c #DAE6F9",
"5X c #DAEBFF",
"6X c #DCE9F7",
"7X c #F8EDE5",
"8X c #F5EAE5",
"9X c #FBF1EB",
"0X c #F7F3ED",
"qX c #E1ECFD",
"wX c #EDF4FD",
"eX c #E9F6FF",
"rX c #FDF9F5",
"tX c #F1F5FC",
"yX c #F4FCFF",
"uX c #FFFFFF",
"iX c #FBF5F2",
"pX c #EAEBED",
"aX c None",
/* pixels */
"aXaXaXaXaXaXaXaXaXaXaXaXaXaXaXaXaXaXaXaXaXaXaXaXaXaXg g g j j l g g g g g g g g g g g g g g g g g g g g g g g g g h d l g g g g aXaXaXaXaXaXaXaXaXaXaXaXaXaXaXaXaXaXaXaXaXaXaXaXaXaX",
"aXaXaXaXaXaXaXaXaXaXaXaXaXaXaXaXaXaXaXaXaXaXaXaXaXaXg g g j j j j j g g g g g g g g g g g g g g g g g g g g g g h h j j g g g g aXaXaXaXaXaXaXaXaXaXaXaXaXaXaXaXaXaXaXaXaXaXaXaXaXaX",
"aXaXaXaXaXaXaXaXaXaXaXaXaXaXaXaXaXaXaXaXaXaXaXaXaXaXg g g g j j g g g g g g g g g g g g g g g g g g g g g g g g h h j j h g g g aXaXaXaXaXaXaXaXaXaXaXaXaXaXaXaXaXaXaXaXaXaXaXaXaXaX",
"aXaXaXaXaXaXaXaXaXaXaXaXaXaXaXaXaXaXaXaXaXaXaXaXaXaXg g g j j j j g g g g g g g g g g g g g g g g g g g g g g g g h j j h g g g aXaXaXaXaXaXaXaXaXaXaXaXaXaXaXaXaXaXaXaXaXaXaXaXaXaX",
"aXaXaXaXaXaXaXaXaXaXaXaXaXaXaXaXaXaXaXaXaXaXaXaXaXg g g j g g j h h g g g g g g g g g g g g g g g g g g g g g g g g j j h g g g g aXaXaXaXaXaXaXaXaXaXaXaXaXaXaXaXaXaXaXaXaXaXaXaXaX",
"aXaXaXaXaXaXaXaXaXaXaXaXaXaXaXaXaXaXaXaXaXaXaXaXg g g g g l j j h h g g g g g g g g g g g g g g g g h g g g g g j j g j h g g g g g aXaXaXaXaXaXaXaXaXaXaXaXaXaXaXaXaXaXaXaXaXaXaXaX",
"aXaXaXaXaXaXaXaXaXaXaXaXaXaXaXaXaXaXaXaXaXaXg g g g g g g g j j h h h h g g j g j g g g g j j g g h g g h h h h g j j j j g g g g g g g aXaXaXaXaXaXaXaXaXaXaXaXaXaXaXaXaXaXaXaXaXaX",
"aXaXaXaXaXaXaXaXaXaXaXaXaXaXaXaXaXaXaXaXg g g g g g g j g j j j j g g g j j g g g g j j g g g g g g h h h g g h g j j j g j j g g g g g g g aXaXaXaXaXaXaXaXaXaXaXaXaXaXaXaXaXaXaXaX",
"aXaXaXaXaXaXaXaXaXaXaXaXaXaXaXaXaXaXaXaXg h g g g g g g g g g g g g g g g g g g g g g g g g j g g g g g h g g g g j g g g g g j j g g g g g aXaXaXaXaXaXaXaXaXaXaXaXaXaXaXaXaXaXaXaX",
"aXaXaXaXaXaXaXaXaXaXaXaXaXaXaXaXaXaXaXg g g g j j j h g g g g g g g g g g g g g g g g g g g g g g g g g g g g g g 0 g g g g g j j j j j g g g aXaXaXaXaXaXaXaXaXaXaXaXaXaXaXaXaXaXaX",
"aXaXaXaXaXaXaXaXaXaXaXaXaXaXaXaXaXaXaXg g g j l l j g g g 0 0 0 g g k g 0 0 0 0 0 0 0 0 g g 0 g 0 0 0 g 0 0 0 k 0 0 0 0 k k g g j l l l g g g aXaXaXaXaXaXaXaXaXaXaXaXaXaXaXaXaXaXaX",
"aXaXaXaXaXaXaXaXaXaXaXaXaXaXaXaXaXaXaXg h g l l l j g 0 0 8 9 9 5 5 0 5 9 9 0 0 0 9 0 0 5 0 5 5 9 0 9 9 9 9 9 0 0 5 5 0 9 9 0 g j l l j g h g aXaXaXaXaXaXaXaXaXaXaXaXaXaXaXaXaXaXaX",
"aXaXaXaXaXaXaXaXaXaXaXaXaXaXaXaXaXaXaXj h h j l j h k 9 8 8 1 8 5 5 5 5 5 5 5 5 5 5 5 5 5 5 5 5 5 9 5 5 9 5 5 5 5 5 5 1 5 5 9 0 g j j j j g j aXaXaXaXaXaXaXaXaXaXaXaXaXaXaXaXaXaXaX",
"aXaXaXaXaXaXaXaXaXaXaXaXaXaXaXaXaXaXaXj j h j j j g 9 8 1 , 1 , 1 1 1 , 1 1 , 1 , , 1 1 , 1 5 , , , 5 , , , , 1 1 1 , , , 5 5 0 g j j j g j h aXaXaXaXaXaXaXaXaXaXaXaXaXaXaXaXaXaXaX",
"aXaXaXaXaXaXaXaXaXaXaXaXaXaXaXaXaXaXaXj j h g j g k 9 1 , > ; > < , , , , , , , , , ; , , , > , , , , , , , , , > > > ; > , 1 5 k g j h j j j aXaXaXaXaXaXaXaXaXaXaXaXaXaXaXaXaXaXaX",
"aXaXaXaXaXaXaXaXaXaXaXaXaXaXaXaXaXaXaXh h g g g g k 8 3 > - @ - - - - < - ; - ; ; < ; ; ; ; ; ; - - ; - - > - - < - # - < > , 5 0 g g g g g h aXaXaXaXaXaXaXaXaXaXaXaXaXaXaXaXaXaXaX",
"aXaXaXaXaXaXaXaXaXaXaXaXaXaXaXaXaXaXaXg g g 0 k k 9 1 > ; @ @ @ @ # # - - - - - - ; - - - - - - - ; # - - - - # # # @ @ @ ; ; 5 8 k g k g g g aXaXaXaXaXaXaXaXaXaXaXaXaXaXaXaXaXaXaX",
"aXaXaXaXaXaXaXaXaXaXaXaXaXaXaXaXaXaXaX0 0 0 9 0 9 8 1 > < @ @ @ @ @ - # # - # # # # - # - # - # - # # - - # # - - @ @ @ @ - > 4 8 9 k 9 0 9 k aXaXaXaXaXaXaXaXaXaXaXaXaXaXaXaXaXaXaX",
"aXaXaXaXaXaXaXaXaXaXaXaXaXaXaXaXaXaXaX9 0 8 5 8 1 1 , > - - @ # - - # : - ; - - ; # - - - - - - ; # - - - - - # ; @ @ @ - - > , 1 8 8 8 8 8 9 aXaXaXaXaXaXaXaXaXaXaXaXaXaXaXaXaXaXaX",
"aXaXaXaXaXaXaXaXaXaXaXaXaXaXaXaXaXaXaX1 1 1 1 1 1 1 , > ; - - - - - - - ; - - - ; - - - # : - - - - ; ; - ; - - # ; - ; - < > , 1 1 1 1 1 1 1 aXaXaXaXaXaXaXaXaXaXaXaXaXaXaXaXaXaXaX",
"aXaXaXaXaXaXaXaXaXaXaXaXaXaXaXaXaXaXaX, , , , , , , : > > - - < ; ; - ; - > - > ; ; ; > - ; ; ; ; ; > - > - - > ; - - - - > > > , , , , , , , aXaXaXaXaXaXaXaXaXaXaXaXaXaXaXaXaXaXaX",
"aXaXaXaXaXaXaXaXaXaXaXaXaXaXaXaXaXaXaX> < < < > : ; > < ; ; ; - ; ; ; ; ; > > - - ; ; - < < ; ; ; ; - > - > > - ; ; > ; > - - > > 3 > > ; > ; aXaXaXaXaXaXaXaXaXaXaXaXaXaXaXaXaXaXaX",
"aXaXaXaXaXaXaXaXaXaXaXaXaXaXaXaXaXaXaX- # - # ; > - ; - ; - < - < < @ = = = < = = = - = @ < = - = < = = = = = < - < - < ; ; ; - ; ; - - - # - aXaXaXaXaXaXaXaXaXaXaXaXaXaXaXaXaXaXaX",
"aXaXaXaXaXaXaXaXaXaXaXaXaXaXaXaXaXaXaX# # - # ; - : ; : ; < < * & & & & & & O O & & & O & & & O O O O & O & & & O * * - > ; ; ; ; ; ; - - # # aXaXaXaXaXaXaXaXaXaXaXaXaXaXaXaXaXaXaX",
"aXaXaXaXaXaXaXaXaXaXaXaXaXaXaXaXaXaXaX- - # - ; ; ; 3 ; ; - * & O O O O o O O o O O o O O o O O o O o O O o O O O O & * < ; : : > ; ; - - - - aXaXaXaXaXaXaXaXaXaXaXaXaXaXaXaXaXaXaX",
"aXaXaXaXaXaXaXaXaXaXaXaXaXaXaXaXaXaXaX; - - ; ; 3 3 3 3 ; - & O O O o o o . o o o o o o o o o o o o o o . o o o O O O & = > : 3 : : ; - - - - aXaXaXaXaXaXaXaXaXaXaXaXaXaXaXaXaXaXaX",
"aXaXaXaXaXaXaXaXaXaXaXaXaXaXaXaXaXaXaX> ; ; - > > 3 3 3 : = & O O O o o o o o o o o o o o o o o o o o o o o o o O O O & = : : 3 3 : > < ; ; ; aXaXaXaXaXaXaXaXaXaXaXaXaXaXaXaXaXaXaX",
"aXaXaXaXaXaXaXaXaXaXaXaXaXaXaXaXaXaXaX- - > - > > : ; ; ; < = * * O & & O O & O O & O O & & & O & & O & & O O O & * * = - ; ; > ; > > ; ; ; ; aXaXaXaXaXaXaXaXaXaXaXaXaXaXaXaXaXaXaX",
"aXaXaXaXaXaXaXaXaXaXaXaXaXaXaXaXaXaXaX> > - ; < < = * * < > 3 7 7 w r e t t t e t e e t e t e e e e e e i t e e w 7 7 4 : = * * 2 < < ; - - > aXaXaXaXaXaXaXaXaXaXaXaXaXaXaXaXaXaXaX",
"aXaXaXaXaXaXaXaXaXaXaXaXaXaXaXaXaXaXaX; ; > ; < * & & O O = 7 e i p m n n n n n F p p F n p n n n n n F p F p F p i r 7 = O O O & * < < ; : > aXaXaXaXaXaXaXaXaXaXaXaXaXaXaXaXaXaXaX",
"aXaXaXaXaXaXaXaXaXaXaXaXaXaXaXaXaXaXaX3 3 ; ; * & O O o o & 7 i m J K L I I I I L L L L L L L L L L I I L I L P J p i 7 & o o O & & * - : 3 3 aXaXaXaXaXaXaXaXaXaXaXaXaXaXaXaXaXaXaX",
"aXaXaXaXaXaXaXaXaXaXaXaXaXaXaXaXaXaXaX3 3 3 ; * & O .   . & w p J I U ~ ~ [ Q Q W W W W W W W W W W Q Q [ [ Q U I H p w & .   . o & * > : 3 3 aXaXaXaXaXaXaXaXaXaXaXaXaXaXaXaXaXaXaX",
"aXaXaXaXaXaXaXaXaXaXaXaXaXaXaXaXaXaXaX3 3 3 < * * o       O i p P U [ X.........X.} X.} X.} X.} X.X.X.......X.| ! P n t O       o O * ; 3 3 3 aXaXaXaXaXaXaXaXaXaXaXaXaXaXaXaXaXaXaX",
"aXaXaXaXaXaXaXaXaXaXaXaXaXaXaXaXaXaXaX3 ; ; - * O o . . o 6 p H U [ ..@.,.,.-.-.@.@.#.#.#.@.@.#.#.#.#.,.,.,.#...~ U H a 6 o   . O & * ; > : 3 aXaXaXaXaXaXaXaXaXaXaXaXaXaXaXaXaXaXaX",
"aXaXaXaXaXaXaXaXaXaXaXaXaXaXaXaXaXaXaX* * - < > * & O O 6 i n I W X.@.;.>.<.>.;.;.,.,.;.;.,.,.;.;.;.>.>.<.<.;.@.} W L n i 6 & & & * > < = * * aXaXaXaXaXaXaXaXaXaXaXaXaXaXaXaXaXaXaX",
"aXaXaXaXaXaXaXaXaXaXaXaXaXaXaXaXaXaXaXO O O & , 6 7 7 i a J P E [ X.%.;.<.<.<.;.;.;.;.&.;.;.;.&.&.;.;.<.<.<.;.%...[ ! P F a t r 7 6 , & O O O aXaXaXaXaXaXaXaXaXaXaXaXaXaXaXaXaXaXaX",
"aXaXaXaXaXaXaXaXaXaXaXaXaXaXaXaXaXaXaX. . o O > r i M n H I ! Q {  .$.&.=.*.*.*.*.&.&.&.&.&.&.&.&.&.&.=.=.*.&.$. .| [ U I H F M i r , O o . . aXaXaXaXaXaXaXaXaXaXaXaXaXaXaXaXaXaXaX",
"aXaXaXaXaXaXaXaXaXaXaXaXaXaXaXaXaXaXaX      o > t n H L E Q [ / /  ._ ' ] ] ] $.] $.' ' ' ' ' ' ' ' ' ' ] ] $._ / / / [ ~ U L H m t < O       aXaXaXaXaXaXaXaXaXaXaXaXaXaXaXaXaXaXaX",
"aXaXaXaXaXaXaXaXaXaXaXaXaXaXaXaXaXaXaX      o 4 a J U ^ ~ X. .@. ./ _ _ _ _ _ _ _ ` _ ` ` _ ` _ ' / ' ` ' ` ` _ O. . ...} | ~ I J a 6 o       aXaXaXaXaXaXaXaXaXaXaXaXaXaXaXaXaXaXaX",
"aXaXaXaXaXaXaXaXaXaXaXaXaXaXaXaXaXaXaX      O r n L W | @.@.%.,.%.$.$.$._ $.O.] O.$.$.O.$.$._ @.$.' ' ' ' @.' $.O.%.,.,.#...| ~ L n w O       aXaXaXaXaXaXaXaXaXaXaXaXaXaXaXaXaXaXaX",
"aXaXaXaXaXaXaXaXaXaXaXaXaXaXaXaXaXaXaXo o O 7 p H E [ X.%.;.>.>.>.:.:.:.I.:.:.:.:.:.:.:.:.:.:.:.:.:.:.:.:.:.:.:.>.>.>.>.;.#.@.[ U K p 7 O o o aXaXaXaXaXaXaXaXaXaXaXaXaXaXaXaXaXaXaX",
"aXaXaXaXaXaXaXaXaXaXaXaXaXaXaXaXaXaXaXr e i p H E Q / @.,.<.2.2.Y.R.R.T.T.T.T.T.T.T.T.T.T.T.T.T.T.T.T.T.T.T.T.R.R.U.Y.2.<.,.@.{ [ I H p i e r aXaXaXaXaXaXaXaXaXaXaXaXaXaXaXaXaXaXaX",
"aXaXaXaXaXaXaXaXaXaXaXaXaXaXaXaXaXaXaXJ J H K U Q ( / ' $.;.2.E.E./.).)._.'._.).).).).).).).).).).)._._._.).).)./.^.E.2.;.$.` / ( W U K H J J aXaXaXaXaXaXaXaXaXaXaXaXaXaXaXaXaXaXaX",
"aXaXaXaXaXaXaXaXaXaXaXaXaXaXaXaXaXaXaXE E E W | ( / ) ) ' &.U.R./.'.*X*X,X,X,X;X*X,X*X*X*X-X-X*X*X-X,X,X,X>X-X=X'.(.R.U.&._ ) ) / / [ ! E E E aXaXaXaXaXaXaXaXaXaXaXaXaXaXaXaXaXaXaX",
"aXaXaXaXaXaXaXaXaXaXaXaXaXaXaXaXaXaXaX} } } | @.$.' ) ) ) %.U./.'.*X<X7X9X9X7X7X8X8X8X7X7X7X8X7X7X7X7X9X7X0X8X<X*X'.T.U.%.) ) ) _ $.$.} } } } aXaXaXaXaXaXaXaXaXaXaXaXaXaXaXaXaXaXaX",
"aXaXaXaXaXaXaXaXaXaXaXaXaXaXaXaXaXaXaX#.#.#.@.;.=.] ) ) ` -.U.(.=X<X9XrXuXuXuXrXrXrXrXrXrXiXrXrXrXiXrXuXuXuXrX9X<X=X/.R.,./ ) ) ] =.;.%.#.#.#.aXaXaXaXaXaXaXaXaXaXaXaXaXaXaXaXaXaXaX",
"aXaXaXaXaXaXaXaXaXaXaXaXaXaXaXaXaXaXaX,.-.-.-.2.2.=.*.$.%.U./._.,X7XrXuXuXuXuXuXuXuXuXuXuXuXuXuXuXuXuXuXuXuXuXrX7X,X'./.U.@.' ] =.2.2.-.-.-.,.aXaXaXaXaXaXaXaXaXaXaXaXaXaXaXaXaXaXaX",
"aXaXaXaXaXaXaXaXaXaXaXaXaXaXaXaXaXaXaX%.%.%.-.2.2.2.>.I.U.~.).=X<XiXuXuXuXuXuXuXuXuXuXuXuXuXuXuXuXuXuXuXuXuXuXuXiX<X*X).T.R.>.<.2.W.2.-.-.%.*.aXaXaXaXaXaXaXaXaXaXaXaXaXaXaXaXaXaXaX",
"aXaXaXaXaXaXaXaXaXaXaXaXaXaXaXaXaXaXaX_ /  .+.W.E.E.E.^./._.*X<X9XrXuXuXuXuXuXuXuXuXuXuXuXuXuXuXuXuXuXuXuXuXuXuXrX9X<X*X'./.T.E.E.Y.W.+.+.O.O.aXaXaXaXaXaXaXaXaXaXaXaXaXaXaXaXaXaXaX",
"aXaXaXaXaXaXaXaXaXaXaXaXaXaXaXaXaXaXaX( ( ( +.W.E.^.`.'.=X-X7X9XiXuXuXuXuXuXuXuXuXuXuXuXuXuXuXuXuXuXuXuXuXuXuXuXuXiX9X<X,X=X).`.^.W.I.+./ R ) aXaXaXaXaXaXaXaXaXaXaXaXaXaXaXaXaXaXaX",
"aXaXaXaXaXaXaXaXaXaXaXaXaXaXaXaXaXaXaXD D R ( I.^.^.=X-X<X9XiXiXuXuXuXuXuXuXuXuXuXuXuXuXuXuXuXuXuXuXuXuXuXuXuXuXuXrXrX9X8X<X*X=X:X^.I.X.R D D aXaXaXaXaXaXaXaXaXaXaXaXaXaXaXaXaXaXaX",
"aXaXaXaXaXaXaXaXaXaXaXaXaXaXaXaXaXaXaXA A D R I.^.=X-X7XiXrXuXuXuXuXuXuXuXuXuXuXuXuXuXuXuXuXuXuXuXuXuXuXuXuXuXuXuXuXuXuXrX0X<X*X~.^.P.R D A A aXaXaXaXaXaXaXaXaXaXaXaXaXaXaXaXaXaXaX",
"aXaXaXaXaXaXaXaXaXaXaXaXaXaXaXaXaXaXaXC Z A Y P.Q.:X;XpXuXuXuXuXuXuXuXuXuXuXuXuXuXuXuXuXuXuXuXuXuXuXuXuXuXuXuXuXuXuXuXuXuXrX0X;X:XQ.P.Y A Z Z aXaXaXaXaXaXaXaXaXaXaXaXaXaXaXaXaXaXaX",
"aXaXaXaXaXaXaXaXaXaXaXaXaXaXaXaXaXaXaXaXC C Y ^ !.:X;XiXuXuXuXuXuXyXtXtXtXwXwXtXtXtXtXtXtXpXtXtXtXtXwXwXtXwXtXtXyXuXuXuXuXuXtX;X:XQ.P.G C C B aXaXaXaXaXaXaXaXaXaXaXaXaXaXaXaXaXaXaX",
"aXaXaXaXaXaXaXaXaXaXaXaXaXaXaXaXaXaXaXaXaXC Y P.Q.:XpXrXuXuXuXuXyXeXqX4X3X3X3X3X4X4X4X4X6X6X4X4X4X4X4X3X3X3X3XqXeXyXuXuXuXuXiX8X%X!.^ G V q B aXaXaXaXaXaXaXaXaXaXaXaXaXaXaXaXaXaXaX",
"aXaXaXaXaXaXaXaXaXaXaXaXaXaXaXaXaXaXaXaXaXaXY P.Q.;XiXuXuXuXuXuXeX5X2X#X#X$X@X@X@X1X@X@X1X$X1X1X@X@X@X#X@X@X#X1X3XeXyXuXuXuXiX8X%X!.^ G q q q aXaXaXaXaXaXaXaXaXaXaXaXaXaXaXaXaXaXaX",
"aXaXaXaXaXaXaXaXaXaXaXaXaXaXaXaXaXaXaXaXaXaXaXaX=X7XiXuXuXuXuXyXqX2X+X}.{.{.{.}.}..XoX.XoXoXoXoX.XXX.X}.{.XXXXOX1X5XyXuXuXuXiX>X%X!.T p q % % aXaXaXaXaXaXaXaXaXaXaXaXaXaXaXaXaXaXaX",
"aXaXaXaXaXaXaXaXaXaXaXaXaXaXaXaXaXaXaXaXaXaXaXaXaXrXuXuXuXuXuXeX3X+X{.S.A.A.A.D.S.S.S.S.S.S.S.S.S.D.D.A.A.A.S.{.OX2XeXuXuXuXrX>X%XL.N i       aXaXaXaXaXaXaXaXaXaXaXaXaXaXaXaXaXaXaX",
"aXaXaXaXaXaXaXaXaXaXaXaXaXaXaXaXaXaXaXaXaXaXaXaXaXaXuXuXuXuXuXeX1XXXD.n.k.k.k.z.n.m.m.m.m.m.m.m.m.n.k.k.k.k.n.D.}.#X3XyXuXuX0X>X&XL.N 3       aXaXaXaXaXaXaXaXaXaXaXaXaXaXaXaXaXaXaX",
"aXaXaXaXaXaXaXaXaXaXaXaXaXaXaXaXaXaXaXaXaXaXaXaXaXaXuXuXyXuXeX3X+XG.M.h.a.a.d.l.l.k.l.c.k.k.k.k.k.l.l.d.a.a.a.M.|.OX1XqXtXyXpX&XK.L.N &       aXaXaXaXaXaXaXaXaXaXaXaXaXaXaXaXaXaXaX",
"aXaXaXaXaXaXaXaXaXaXaXaXaXaXaXaXaXaXaXaXaXaXaXaXaXaXeXeX6XeX5X2XoXS.h.s.s.s.s.d.l.c.k.c.c.c.c.c.k.l.d.a.s.s.i.h.Z.}.#X3XqX6X6X&XK.g.N &       aXaXaXaXaXaXaXaXaXaXaXaXaXaXaXaXaXaXaX",
"aXaXaXaXaXaXaXaXaXaXaXaXaXaXaXaXaXaXaXaXaXaXaXaXaXaX2X1X1X2X2X+X|.C.w.0.9.i.s.d.k.b.b.b.b.b.b.b.c.k.l.s.i.9.9.q.C.[.OX#X2X2X@X$X Xg.v &       aXaXaXaXaXaXaXaXaXaXaXaXaXaXaXaXaXaXaX",
"aXaXaXaXaXaXaXaXaXaXaXaXaXaXaXaXaXaXaXaXaXaXaXaXaXaXOXOXOX+X+X}.H.f.e.4.8.0.p.l.c.v.B.B.B.B.B.b.b.z.h.i.0.8.8.7.f.H.|.XX+X+XOX|.[.u.v *       aXaXaXaXaXaXaXaXaXaXaXaXaXaXaXaXaXaXaX",
"aXaXaXaXaXaXaXaXaXaXaXaXaXaXaXaXaXaXaXaXaXaXaXaXaXaXF.F.F.F.F.S.C.y.6.z 3.4.q.h.z.v.B.B.B.B.B.B.v.x.h.q.8.3.x x y.C.D.G.F.F.G.Z.C.y.v <       aXaXaXaXaXaXaXaXaXaXaXaXaXaXaXaXaXaXaX",
"aXaXaXaXaXaXaXaXaXaXaXaXaXaXaXaXaXaXaXaXaXaXaXaXaXaXV.V.N.V.N.j.r.6.d k d 5.e.h.h.x.v.B.B.B.B.B.x.h.q.e.5.d 0 d 6.r.j.M.N.N.M.j.r.t.c ; X X   aXaXaXaXaXaXaXaXaXaXaXaXaXaXaXaXaXaXaX",
"aXaXaXaXaXaXaXaXaXaXaXaXaXaXaXaXaXaXaXaXaXaXaXaXaXaXc.b.k.l.p.q.4.z + X 8 x 7.w.h.x.x.x.B.x.x.x.x.h.w.7.c 9 X o z 4.q.a.l.l.h.p.e.4.z ; X $ aXaXaXaXaXaXaXaXaXaXaXaXaXaXaXaXaXaXaXaX",
"aXaXaXaXaXaXaXaXaXaXaXaXaXaXaXaXaXaXaXaXaXaXaXaXaXaXaXc.c.h.p.0.3.f   X $ c t.w.h.x.v.B.v.B.B.x.x.h.w.t.c $ X   f 3.0.a.h.l.a.i.8.3.z ; $ $ aXaXaXaXaXaXaXaXaXaXaXaXaXaXaXaXaXaXaXaX",
"aXaXaXaXaXaXaXaXaXaXaXaXaXaXaXaXaXaXaXaXaXaXaXaXaXaXaXaXd.a.i.9.3.s   X $ b 7.w.h.x.x.B.B.B.B.B.x.h.w.t.c $ $   s 3.0.h.l.d.a.p.0.3.f ; $ aXaXaXaXaXaXaXaXaXaXaXaXaXaXaXaXaXaXaXaXaX",
"aXaXaXaXaXaXaXaXaXaXaXaXaXaXaXaXaXaXaXaXaXaXaXaXaXaXaXaXaXaXaXaXaXaXaXaXaXaXaXaXaXaXaXaXaXaXaXaXaXaXaXaXaXaXaXaXaXaXaXaXaXaXaXaXaXaXaXaXaXaXaXaXaXaXaXaXaXaXaXaXaXaXaXaXaXaXaXaXaXaX",
"aXaXaXaXaXaXaXaXaXaXaXaXaXaXaXaXaXaXaXaXaXaXaXaXaXaXaXaXaXaXaXaXaXaXaXaXaXaXaXaXaXaXaXaXaXaXaXaXaXaXaXaXaXaXaXaXaXaXaXaXaXaXaXaXaXaXaXaXaXaXaXaXaXaXaXaXaXaXaXaXaXaXaXaXaXaXaXaXaXaX",
"aXaXaXaXaXaXaXaXaXaXaXaXaXaXaXaXaXaXaXaXaXaXaXaXaXaXaXaXaXaXaXaXaXaXaXaXaXaXaXaXaXaXaXaXaXaXaXaXaXaXaXaXaXaXaXaXaXaXaXaXaXaXaXaXaXaXaXaXaXaXaXaXaXaXaXaXaXaXaXaXaXaXaXaXaXaXaXaXaXaX",
"aXaXaXaXaXaXaXaXaXaXaXaXaXaXaXaXaXaXaXaXaXaXaXaXaXaXaXaXaXaXaXaXaXaXaXaXaXaXaXaXaXaXaXaXaXaXaXaXaXaXaXaXaXaXaXaXaXaXaXaXaXaXaXaXaXaXaXaXaXaXaXaXaXaXaXaXaXaXaXaXaXaXaXaXaXaXaXaXaXaX",
"aXaXaXaXaXaXaXaXaXaXaXaXaXaXaXaXaXaXaXaXaXaXaXaXaXaXaXaXaXaXaXaXaXaXaXaXaXaXaXaXaXaXaXaXaXaXaXaXaXaXaXaXaXaXaXaXaXaXaXaXaXaXaXaXaXaXaXaXaXaXaXaXaXaXaXaXaXaXaXaXaXaXaXaXaXaXaXaXaXaX",
"aXaXaXaXaXaXaXaXaXaXaXaXaXaXaXaXaXaXaXaXaXaXaXaXaXaXaXaXaXaXaXaXaXaXaXaXaXaXaXaXaXaXaXaXaXaXaXaXaXaXaXaXaXaXaXaXaXaXaXaXaXaXaXaXaXaXaXaXaXaXaXaXaXaXaXaXaXaXaXaXaXaXaXaXaXaXaXaXaXaX",
"aXaXaXaXaXaXaXaXaXaXaXaXaXaXaXaXaXaXaXaXaXaXaXaXaXaXaXaXaXaXaXaXaXaXaXaXaXaXaXaXaXaXaXaXaXaXaXaXaXaXaXaXaXaXaXaXaXaXaXaXaXaXaXaXaXaXaXaXaXaXaXaXaXaXaXaXaXaXaXaXaXaXaXaXaXaXaXaXaXaX",
"aXaXaXaXaXaXaXaXaXaXaXaXaXaXaXaXaXaXaXaXaXaXaXaXaXaXaXaXaXaXaXaXaXaXaXaXaXaXaXaXaXaXaXaXaXaXaXaXaXaXaXaXaXaXaXaXaXaXaXaXaXaXaXaXaXaXaXaXaXaXaXaXaXaXaXaXaXaXaXaXaXaXaXaXaXaXaXaXaXaX",
"aXaXaXaXaXaXaXaXaXaXaXaXaXaXaXaXaXaXaXaXaXaXaXaXaXaXaXaXaXaXaXaXaXaXaXaXaXaXaXaXaXaXg g g g 0 g aXaXaXaXaXaXaXaXaXaXaXaXaXaXaXaXaXaXaXaXaXaXaXaXaXaXaXaXaXaXaXaXaXaXaXaXaXaXaXaXaXaX",
"aXaXaXaXaXaXaXaXaXaXaXaXaXaXaXaXaXaXaXaXaXaXaXaXaXaXaXaXaXaXaXaXaXaXaXaXaXaXaXaXaXg g g g g g g j aXaXaXaXaXaXaXaXaXaXaXaXaXaXaXaXaXaXaXaXaXaXaXaXaXaXaXaXaXaXaXaXaXaXaXaXaXaXaXaXaX",
"aXaXaXaXaXaXaXaXaXaXaXaXaXaXaXaXaXaXaXaXaXaXaXaXaXaXaXaXaXaXaXaXaXaXaXaXaXaXaXaXaXg g g g g g g h aXaXaXaXaXaXaXaXaXaXaXaXaXaXaXaXaXaXaXaXaXaXaXaXaXaXaXaXaXaXaXaXaXaXaXaXaXaXaXaXaX",
"aXaXaXaXaXaXaXaXaXaXaXaXaXaXaXaXaXaXaXaXaXaXaXaXaXaXaXaXaXaXaXaXaXaXaXaXaXaXaXaXg g g g g g g g 0 h aXaXaXaXaXaXaXaXaXaXaXaXaXaXaXaXaXaXaXaXaXaXaXaXaXaXaXaXaXaXaXaXaXaXaXaXaXaXaXaX",
"aXaXaXaXaXaXaXaXaXaXaXaXaXaXaXaXaXaXaXaXaXaXaXaXaXaXaXaXaXaXaXaXaXaXaXaXaXaXaXaXg g g g g g g g g g aXaXaXaXaXaXaXaXaXaXaXaXaXaXaXaXaXaXaXaXaXaXaXaXaXaXaXaXaXaXaXaXaXaXaXaXaXaXaXaX",
"aXaXaXaXaXaXaXaXaXaXaXaXaXaXaXaXaXaXaXaXaXaXaXaXaXaXaXaXaXaXaXaXaXaXaXaXaXaXaXg g g g g g g g g g g g aXaXaXaXaXaXaXaXaXaXaXaXaXaXaXaXaXaXaXaXaXaXaXaXaXaXaXaXaXaXaXaXaXaXaXaXaXaXaX",
"aXaXaXaXaXaXaXaXaXaXaXaXaXaXaXaXaXaXaXaXaXaXaXaXaXaXaXaXaXaXaXaXaXaXaXaXg g g g g g g g g g g g g g g g g g aXaXaXaXaXaXaXaXaXaXaXaXaXaXaXaXaXaXaXaXaXaXaXaXaXaXaXaXaXaXaXaXaXaXaXaX",
"aXaXaXaXaXaXaXaXaXaXaXaXaXaXaXaXaXaXaXaXaXaXaXaXaXaXaXaXaXaXaXaXaXaXaXg g g h g g g g g g g g g g g g g g g g aXaXaXaXaXaXaXaXaXaXaXaXaXaXaXaXaXaXaXaXaXaXaXaXaXaXaXaXaXaXaXaXaXaXaX",
"aXaXaXaXaXaXaXaXaXaXaXaXaXaXaXaXaXaXaXaXaXaXaXaXaXaXaXaXaXaXaXaXaXaXg g g g g g g g g g g g g g g g g g g g g g aXaXaXaXaXaXaXaXaXaXaXaXaXaXaXaXaXaXaXaXaXaXaXaXaXaXaXaXaXaXaXaXaXaX",
"aXaXaXaXaXaXaXaXaXaXaXaXaXaXaXaXaXaXaXaXaXaXaXaXaXaXaXaXaXaXaXaXaXaXg g g g g g g g g g g g g g g g g g g g g g aXaXaXaXaXaXaXaXaXaXaXaXaXaXaXaXaXaXaXaXaXaXaXaXaXaXaXaXaXaXaXaXaXaX",
"aXaXaXaXaXaXaXaXaXaXaXaXaXaXaXaXaXaXaXaXaXaXaXaXaXaXaXaXaXaXaXaXaXaXg g g g g g g 0 g g j g j g g g g g g g g g aXaXaXaXaXaXaXaXaXaXaXaXaXaXaXaXaXaXaXaXaXaXaXaXaXaXaXaXaXaXaXaXaXaX",
"aXaXaXaXaXaXaXaXaXaXaXaXaXaXaXaXaXaXaXaXaXaXaXaXaXaXaXaXaXaXaXaXaXaXg g g g g g g g g g g g g g g g g g g g g g aXaXaXaXaXaXaXaXaXaXaXaXaXaXaXaXaXaXaXaXaXaXaXaXaXaXaXaXaXaXaXaXaXaX",
"aXaXaXaXaXaXaXaXaXaXaXaXaXaXaXaXaXaXaXaXaXaXaXaXaXaXaXaXaXaXaXaXaXaXg g g g g g g g g g g g g g g g g g g g g g aXaXaXaXaXaXaXaXaXaXaXaXaXaXaXaXaXaXaXaXaXaXaXaXaXaXaXaXaXaXaXaXaXaX",
"aXaXaXaXaXaXaXaXaXaXaXaXaXaXaXaXaXaXaXaXaXaXaXaXaXaXaXaXaXaXaXaXaXaXaXg g g g g g g g g g g g g g g g g g g g aXaXaXaXaXaXaXaXaXaXaXaXaXaXaXaXaXaXaXaXaXaXaXaXaXaXaXaXaXaXaXaXaXaXaX",
"aXaXaXaXaXaXaXaXaXaXaXaXaXaXaXaXaXaXaXaXaXaXaXaXaXaXaXaXaXaXaXaXaXaXaXaXg g g g g g k g g g g g g g g g g g aXaXaXaXaXaXaXaXaXaXaXaXaXaXaXaXaXaXaXaXaXaXaXaXaXaXaXaXaXaXaXaXaXaXaXaX",
"aXaXaXaXaXaXaXaXaXaXaXaXaXaXaXaXaXaXaXaXaXaXaXaXaXaXaXaXaXaXaXaXaXaXaXaXaXaXaXg g g g g g g g g g g g aXaXaXaXaXaXaXaXaXaXaXaXaXaXaXaXaXaXaXaXaXaXaXaXaXaXaXaXaXaXaXaXaXaXaXaXaXaXaX",
"aXaXaXaXaXaXaXaXaXaXaXaXaXaXaXaXaXaXaXaXaXaXaXaXaXaXaXaXaXaXaXaXaXaXaXaXaXaXaXaXk g g g g g g g g g aXaXaXaXaXaXaXaXaXaXaXaXaXaXaXaXaXaXaXaXaXaXaXaXaXaXaXaXaXaXaXaXaXaXaXaXaXaXaXaX",
"aXaXaXaXaXaXaXaXaXaXaXaXaXaXaXaXaXaXaXaXaXaXaXaXaXaXaXaXaXaXaXaXaXaXaXaXaXaXaXaXg g g g g g g g g g aXaXaXaXaXaXaXaXaXaXaXaXaXaXaXaXaXaXaXaXaXaXaXaXaXaXaXaXaXaXaXaXaXaXaXaXaXaXaXaX",
"aXaXaXaXaXaXaXaXaXaXaXaXaXaXaXaXaXaXaXaXaXaXaXaXaXaXaXaXaXaXaXaXaXaXaXaXaXaXaXaXaXg g g g g g g g aXaXaXaXaXaXaXaXaXaXaXaXaXaXaXaXaXaXaXaXaXaXaXaXaXaXaXaXaXaXaXaXaXaXaXaXaXaXaXaXaX",
"aXaXaXaXaXaXaXaXaXaXaXaXaXaXaXaXaXaXaXaXaXaXaXaXaXaXaXaXaXaXaXaXaXaXaXaXaXaXaXaXaXg g g g g g g g aXaXaXaXaXaXaXaXaXaXaXaXaXaXaXaXaXaXaXaXaXaXaXaXaXaXaXaXaXaXaXaXaXaXaXaXaXaXaXaXaX",
"aXaXaXaXaXaXaXaXaXaXaXaXaXaXaXaXaXaXaXaXaXaXaXaXaXaXaXaXaXaXaXaXaXaXaXaXaXaXaXaXaXaXh g g g g g aXaXaXaXaXaXaXaXaXaXaXaXaXaXaXaXaXaXaXaXaXaXaXaXaXaXaXaXaXaXaXaXaXaXaXaXaXaXaXaXaXaX",
"aXaXaXaXaXaXaXaXaXaXaXaXaXaXaXaXaXaXaXaXaXaXaXaXaXaXaXaXaXaXaXaXaXaXaXaXaXaXaXaXaXaXaXaXaXaXaXaXaXaXaXaXaXaXaXaXaXaXaXaXaXaXaXaXaXaXaXaXaXaXaXaXaXaXaXaXaXaXaXaXaXaXaXaXaXaXaXaXaXaX",
"aXaXaXaXaXaXaXaXaXaXaXaXaXaXaXaXaXaXaXaXaXaXaXaXaXaXaXaXaXaXaXaXaXaXaXaXaXaXaXaXaXaXaXaXaXaXaXaXaXaXaXaXaXaXaXaXaXaXaXaXaXaXaXaXaXaXaXaXaXaXaXaXaXaXaXaXaXaXaXaXaXaXaXaXaXaXaXaXaXaX",
"aXaXaXaXaXaXaXaXaXaXaXaXaXaXaXaXaXaXaXaXaXaXaXaXaXaXaXaXaXaXaXaXaXaXaXaXaXaXaXaXaXaXaXaXaXaXaXaXaXaXaXaXaXaXaXaXaXaXaXaXaXaXaXaXaXaXaXaXaXaXaXaXaXaXaXaXaXaXaXaXaXaXaXaXaXaXaXaXaXaX",
"aXaXaXaXaXaXaXaXaXaXaXaXaXaXaXaXaXaXaXaXaXaXaXaXaXaXaXaXaXaXaXaXaXaXaXaXaXaXaXaXaXaXaXaXaXaXaXaXaXaXaXaXaXaXaXaXaXaXaXaXaXaXaXaXaXaXaXaXaXaXaXaXaXaXaXaXaXaXaXaXaXaXaXaXaXaXaXaXaXaX",
"aXaXaXaXaXaXaXaXaXaXaXaXaXaXaXaXaXaXaXaXaXaXaXaXaXaXaXaXaXaXaXaXaXaXaXaXaXaXaXaXaXaXaXaXaXaXaXaXaXaXaXaXaXaXaXaXaXaXaXaXaXaXaXaXaXaXaXaXaXaXaXaXaXaXaXaXaXaXaXaXaXaXaXaXaXaXaXaXaXaX",
"aXaXaXaXaXaXaXaXaXaXaXaXaXaXaXaXaXaXaXaXaXaXaXaXaXaXaXaXaXaXaXaXaXaXaXaXaXaXaXaXaXaXaXaXaXaXaXaXaXaXaXaXaXaXaXaXaXaXaXaXaXaXaXaXaXaXaXaXaXaXaXaXaXaXaXaXaXaXaXaXaXaXaXaXaXaXaXaXaXaX",
"aXaXaXaXaXaXaXaXaXaXaXaXaXaXaXaXaXaXaXaXaXaXaXaXaXaXaXaXaXaXaXaXaXaXaXaXaXaXaXaXaXaXaXaXaXaXaXaXaXaXaXaXaXaXaXaXaXaXaXaXaXaXaXaXaXaXaXaXaXaXaXaXaXaXaXaXaXaXaXaXaXaXaXaXaXaXaXaXaXaX",
"aXaXaXaXaXaXaXaXaXaXaXaXaXaXaXaXaXaXaXaXaXaXaXaXaXaXaXaXaXaXaXaXaXaXaXaXaXaXaXaXaXaXaXaXaXaXaXaXaXaXaXaXaXaXaXaXaXaXaXaXaXaXaXaXaXaXaXaXaXaXaXaXaXaXaXaXaXaXaXaXaXaXaXaXaXaXaXaXaXaX"
};
