/* XPM */
static char *result[] = {
/* columns rows colors chars-per-pixel */
"90 105 229 2 ",
"   c #000000",
".  c #0B0001",
"X  c #00000D",
"o  c #160000",
"O  c #1A0000",
"+  c #000016",
"@  c #00001C",
"#  c #0E091C",
"$  c #160D1C",
"%  c #180E1C",
"&  c #200000",
"*  c #000123",
"=  c #00012B",
"-  c #080B23",
";  c #0D122B",
":  c #171223",
">  c #181425",
",  c #1A1729",
"<  c #1B192C",
"1  c #191728",
"2  c #000133",
"3  c #000638",
"4  c #051737",
"5  c #1E1F34",
"6  c #131B35",
"7  c #130F22",
"8  c #241D2A",
"9  c #261F30",
"0  c #1F2035",
"q  c #1B223C",
"w  c #392829",
"e  c #242235",
"r  c #22253C",
"t  c #27283D",
"y  c #342C33",
"u  c #4C3429",
"i  c #553A2B",
"p  c #4C3938",
"a  c #47312A",
"s  c #5D4337",
"d  c #714D2B",
"f  c #000044",
"g  c #001742",
"h  c #000054",
"j  c #1A2743",
"k  c #0B3256",
"l  c #163253",
"z  c #032244",
"x  c #262B44",
"c  c #292D45",
"v  c #282E49",
"b  c #262B45",
"n  c #393646",
"m  c #2E3954",
"M  c #00136F",
"N  c #003778",
"B  c #1A3B62",
"V  c #463B46",
"C  c #3E4350",
"Z  c #144F7F",
"A  c #1B4067",
"S  c #365377",
"D  c #574548",
"F  c #4E414D",
"G  c #785746",
"H  c #6E5551",
"J  c #525972",
"K  c #696668",
"L  c #756F70",
"P  c #5F6673",
"I  c #80541E",
"U  c #956319",
"Y  c #B27617",
"T  c #96662C",
"R  c #AA7431",
"E  c #865A29",
"W  c #886657",
"Q  c #946D58",
"!  c #9C7359",
"~  c #8F6749",
"^  c #B3664B",
"/  c #B56A4D",
"(  c #BA6D4F",
")  c #A77A5A",
"_  c #B87552",
"`  c #AF6F4E",
"'  c #94756E",
"]  c #A67C67",
"[  c #805B42",
"{  c #C37B57",
"}  c #BF801A",
"|  c #C98933",
" . c #B78664",
".. c #B78A71",
"X. c #BA875E",
"o. c #DB9545",
"O. c #C8885C",
"+. c #D5845E",
"@. c #E09646",
"#. c #E0964A",
"$. c #E1984E",
"%. c #E29D5A",
"&. c #E29A54",
"*. c #E6A15D",
"=. c #C28E67",
"-. c #D28E63",
";. c #CB946A",
":. c #C99268",
">. c #D99D6D",
",. c #D49868",
"<. c #D79D70",
"1. c #E79869",
"2. c #DCA06F",
"3. c #DEA271",
"4. c #EBA463",
"5. c #E7A56A",
"6. c #E4A672",
"7. c #ECAC75",
"8. c #E9A974",
"9. c #F3AC76",
"0. c #F4B27A",
"q. c #FCB47C",
"w. c #FAB67C",
"e. c #EFAC6E",
"r. c #084882",
"t. c #005185",
"y. c #0D5284",
"u. c #004597",
"i. c #105997",
"p. c #36669C",
"a. c #0054A3",
"s. c #005CB2",
"d. c #006AAC",
"f. c #0267A5",
"g. c #1065A1",
"h. c #0976BD",
"j. c #1672B9",
"k. c #3B70A8",
"l. c #3D5784",
"z. c #5C759C",
"x. c #75728F",
"c. c #5677B0",
"v. c #006DC6",
"b. c #007DCA",
"n. c #0075C3",
"m. c #007CD6",
"M. c #207EC8",
"N. c #907881",
"B. c #788495",
"V. c #4786BF",
"C. c #768AB2",
"Z. c #0586D3",
"A. c #0089DC",
"S. c #0088D6",
"D. c #198AD8",
"F. c #348ACF",
"G. c #008AE2",
"H. c #008DEA",
"J. c #0085E3",
"K. c #0191E3",
"L. c #0093EC",
"P. c #0098EE",
"I. c #008FF1",
"U. c #0094F3",
"Y. c #0099F3",
"T. c #1D94E5",
"R. c #329BEB",
"E. c #38A3F5",
"W. c #5197DD",
"Q. c #5289CD",
"!. c #7796C9",
"~. c #7A99CD",
"^. c #77A7DB",
"/. c #77B5F6",
"(. c #6AAEEF",
"). c #59A6EA",
"_. c #989492",
"`. c #AB9292",
"'. c #A5A39E",
"]. c #9995B7",
"[. c #8C8EA7",
"{. c #AD9DB5",
"}. c #AFAAB1",
"|. c #CB9B83",
" X c #D3A792",
".X c #D4AD90",
"XX c #E6B38E",
"oX c #FFBB81",
"OX c #FCB780",
"+X c #E8B390",
"@X c #CBACA7",
"#X c #FAC299",
"$X c #FCC59B",
"%X c #FFDABC",
"&X c #FED6B7",
"*X c #ECC8AE",
"=X c #DEC6B4",
"-X c #8F94C1",
";X c #A6B6CA",
":X c #ABB3CC",
">X c #A3BFE1",
",X c #8CB2DB",
"<X c #99C7F8",
"1X c #A3CAF9",
"2X c #B0CCED",
"3X c #C7CACA",
"4X c #D0D1D3",
"5X c #F2DBC9",
"6X c #FFE9D3",
"7X c #FFECD9",
"8X c #FFE6D1",
"9X c #F4EADD",
"0X c #C9DDF8",
"qX c #C8D6E9",
"wX c #C6E1FF",
"eX c #DBEBFF",
"rX c #E4E7EA",
"tX c #FFF4E5",
"yX c #FFF7EC",
"uX c #FFFBEE",
"iX c #E3EEFB",
"pX c #E2EAF2",
"aX c #E2F2FF",
"sX c #E8F6FF",
"dX c #FFFDF3",
"fX c #F5FAFD",
"gX c #FEFFFD",
"hX c #F0F7FF",
"jX c None",
/* pixels */
"jXjXjXjXjXjXjXjXjXjXjXjXjXjXjXjXjXjXjXjXjXjXjXjXjXjXjXjXjXjXjXjXjXjXjXjXjXjXjXjXjXjXjXjXjXjXjXjXjXjXjXjXjXjXjXjXjXjXjXjXjXjXjXjXjXjXjXjXjXjXjXjXjXjXjXjXjXjXjXjXjXjXjXjXjXjXjXjXjXjX",
"jXjXjXjXjXjXjXjXjXjXjXjXjXjXjXjXjXjXjXjXjXjXjXjXjXjXjXjXjXjXjXjXjXjXjXjXjXjXjXjXjXjXjXjXjXjXjXjXjXjXjXjXjXjXjXjXjXjXjXjXjXjXjXjXjXjXjXjXjXjXjXjXjXjXjXjXjXjXjXjXjXjXjXjXjXjXjXjXjXjX",
"jXjXjXjXjXjXjXjXjXjXjXjXjXjXjXjXjXjXjXjXjXjXjXjXjXjXjXjXjXjXjXjXjXjXjXjXjXjXjXjXjXjXjXjXjXjXjXjXjXjXjXjXjXjXjXjXjXjXjXjXjXjXjXjXjXjXjXjXjXjXjXjXjXjXjXjXjXjXjXjXjXjXjXjXjXjXjXjXjXjX",
"jXjXjXjXjXjXjXjXjXjXjXjXjXjXjXjXjXjXjXjXjXjXjXjXjXjXjXjXjXjXjXjXjXjXjXjXjXjXjXjXjXjXjXjXjXjXjXjXjXjXjXjXjXjXjXjXjXjXjXjXjXjXjXjXjXjXjXjXjXjXjXjXjXjXjXjXjXjXjXjXjXjXjXjXjXjXjXjXjXjX",
"jXjXjXjXjXjXjXjXjXjXjXjXjXjXjXjXjXjXjXjXjXjXjXjXjXjXjXjXjXjXjXjXjXjXjXjXjXjXjXjXjXjXjXjXjXjXjXjXjXjXjXjXjXjXjXjXjXjXjXjXjXjXjXjXjXjXjXjXjXjXjXjXjXjXjXjXjXjXjXjXjXjXjXjXjXjXjXjXjXjX",
"jXjXjXjXjXjXjXjXjXjXjXjXjXjXjXjXjXjXjXjXjXjXjXjXjXjXjXjXjXjXjXjXjXjXjXjXjXjXjXjXjXjXjXjXjXjXjXjXjXjXjXjXjXjXjXjXjXjXjXjXjXjXjXjXjXjXjXjXjXjXjXjXjXjXjXjXjXjXjXjXjXjXjXjXjXjXjXjXjXjX",
"jXjXjXjXjXjXjXjXjXjXjXjXjXjXjXjXjXjXjXjXjXjXjXjXjXjXjXjXjXjXjXjXjXjXjXjXjXjXjXjXjXjXjXjXjXjXjXjXjXjXjXjXjXjXjXjXjXjXjXjXjXjXjXjXjXjXjXjXjXjXjXjXjXjXjXjXjXjXjXjXjXjXjXjXjXjXjXjXjXjX",
"jXjXjXjXjXjXjXjXjXjXjXjXjXjXjXjXjXjXjXjXjXjXjXjXjXjXjXjXjXjXjXjXjXjXjXjXjXjXjXjXjXjXjXjXjXjXjXjXjXjXjXjXjXjXjXjXjXjXjXjXjXjXjXjXjXjXjXjXjXjXjXjXjXjXjXjXjXjXjXjXjXjXjXjXjXjXjXjXjXjX",
"jXjXjXjXjXjXjXjXjXjXjXjXjXjXjXjXjXjXjXjXjXjXjXjXjXjXjXjXjXjXjXjXjXjXjXjXjXjXjXjXjXjXjXjXjXjXjXjXjXjXjXjXjXjXjXjXjXjXjXjXjXjXjXjXjXjXjXjXjXjXjXjXjXjXjXjXjXjXjXjXjXjXjXjXjXjXjXjXjXjX",
"jXjXjXjXjXjXjXjXjXjXjXjXjXjXjXjXjXjXjXjXjXjXjXjXjXjXjXjXjXjXjXjXjXjXjXjXjXjXjXjXjXjXjXjXjXjXjXjXjXjXjXjXjXjXjXjXjXjXjXjXjXjXjXjXjXjXjXjXjXjXjXjXjXjXjXjXjXjXjXjXjXjXjXjXjXjXjXjXjXjX",
"jXjXjXjXjXjXjXjXjXjXjXjXjXjXjXjXjXjXjXjXjXjXjXjXjXjXjXjXjXjXjXjXjXjXjXjXjXjXjXjXjXjXjXjXjXjXjXjXjXjXjXjXjXjXjXjXjXjXjXjXjXjXjXjXjXjXjXjXjXjXjXjXjXjXjXjXjXjXjXjXjXjXjXjXjXjXjXjXjXjX",
"jXjXjXjXjXjXjXjXjXjXjXjXjXjXjXjXjXjXjXjXjXjXjXjXjXjXjXjXjXjXjXjXjXjXjXjXjXjXjXjXjXjXjXjXjXjXjXjXjXjXjXjXjXjXjXjXjXjXjXjXjXjXjXjXjXjXjXjXjXjXjXjXjXjXjXjXjXjXjXjXjXjXjXjXjXjXjXjXjXjX",
"jXjXjXjXjXjXjXjXjXjXjXjXjXjXjXjXjXjXjXjXjXjXjXjXjXjXjXjXv c c c v x v v c c v v c c v v x v x x v x v x v v x v b b c c v x jXjXjXjXjXjXjXjXjXjXjXjXjXjXjXjXjXjXjXjXjXjXjXjXjXjXjXjX",
"jXjXjXjXjXjXjXjXjXjXjXjXjXjXjXjXjXjXjXjXjXjXjXjXjXjXjXv c v c v c v b v b b b b c v b v v x v v v v x v x v v x v c v v v v v jXjXjXjXjXjXjXjXjXjXjXjXjXjXjXjXjXjXjXjXjXjXjXjXjXjXjX",
"jXjXjXjXjXjXjXjXjXjXjXjXjXjXjXjXjXjXjXjXjXjXjXjXjXjXv x x x c v c c c x v c b c c c b b x x x x x c x x c b b b v b v c x x v x jXjXjXjXjXjXjXjXjXjXjXjXjXjXjXjXjXjXjXjXjXjXjXjXjXjX",
"jXjXjXjXjXjXjXjXjXjXjXjXjXjXjXjXjXjXjXjXjXjXjXjXjXjXx x x v v v v x b b b b b b b b x x x x x x x x x x x x x x c v v v v x x x jXjXjXjXjXjXjXjXjXjXjXjXjXjXjXjXjXjXjXjXjXjXjXjXjXjX",
"jXjXjXjXjXjXjXjXjXjXjXjXjXjXjXjXjXjXjXjXjXjXjXjXjXb b b x c v v c c x b x x c x c x x x c c x v v c c c x x x x c v v v v b x x b jXjXjXjXjXjXjXjXjXjXjXjXjXjXjXjXjXjXjXjXjXjXjXjXjX",
"jXjXjXjXjXjXjXjXjXjXjXjXjXjXjXjXjXjXjXjXjXjXjXjXx r r r t x c c b b b b b b x x x t x x b t x t t x b b b x x b b c b b b b r r r b jXjXjXjXjXjXjXjXjXjXjXjXjXjXjXjXjXjXjXjXjXjXjXjX",
"jXjXjXjXjXjXjXjXjXjXjXjXjXjXjXjXjXjXjXjXjXjXjXx b q r 0 q r r r r r r r r r q r r q r r q r q r r r q r r r r q e b r r r r r r t b x jXjXjXjXjXjXjXjXjXjXjXjXjXjXjXjXjXjXjXjXjXjXjX",
"jXjXjXjXjXjXjXjXjXjXjXjXjXjXjXjXjXjXjXjXjXv c x t b 0 5 0 5 0 5 5 5 5 5 5 5 5 5 5 5 5 5 0 0 0 0 5 5 5 0 5 5 5 5 5 5 5 5 5 5 5 0 r t x c v jXjXjXjXjXjXjXjXjXjXjXjXjXjXjXjXjXjXjXjXjX",
"jXjXjXjXjXjXjXjXjXjXjXjXjXjXjXjXjXjXjXjXv v c b b e 5 5 < < , < , , < < < < < < < < < < < < < < < < < < < < < < < , , < , < 5 0 r b b x v v jXjXjXjXjXjXjXjXjXjXjXjXjXjXjXjXjXjXjXjX",
"jXjXjXjXjXjXjXjXjXjXjXjXjXjXjXjXjXjXjXv c c b b x r 5 5 1 : : $ > > > > > > > > > > > > 1 1 > > > : > > > > > > > > : > > > < 0 r x x x c c c jXjXjXjXjXjXjXjXjXjXjXjXjXjXjXjXjXjXjX",
"jXjXjXjXjXjXjXjXjXjXjXjXjXjXjXjXjXjXjXc x b c b b q 6 1 7 # # # # $ $ $ % % % % % % % % % % % : $ % % % % % % $ $ # # # # : , 6 q x c c c x c jXjXjXjXjXjXjXjXjXjXjXjXjXjXjXjXjXjXjX",
"jXjXjXjXjXjXjXjXjXjXjXjXjXjXjXjXjXjXjXt b t b b q 6 4 = * + +     . o O O O O o o o o o o O o o o o o O o O o o .     X + @ = 3 6 j j b t x c jXjXjXjXjXjXjXjXjXjXjXjXjXjXjXjXjXjXjX",
"jXjXjXjXjXjXjXjXjXjXjXjXjXjXjXjXjXjXjXt t t r q 4 3 = * @ X         . O O O O O O o O O o O o o O O O O & O O .         X @ * = 3 4 q t r t t jXjXjXjXjXjXjXjXjXjXjXjXjXjXjXjXjXjXjX",
"jXjXjXjXjXjXjXjXjXjXjXjXjXjXjXjXjXjXjXe e e 0 6 4 = = * +           . O & & & & O O O o O O O O O O O & & O O .           + * = = 4 6 0 e e e jXjXjXjXjXjXjXjXjXjXjXjXjXjXjXjXjXjXjX",
"jXjXjXjXjXjXjXjXjXjXjXjXjXjXjXjXjXjXjXe 9 8 < ; 2 = * * @           . O & & & O O O O O o O O O O O & & & & O .           + @ * = = ; < 8 9 9 jXjXjXjXjXjXjXjXjXjXjXjXjXjXjXjXjXjXjX",
"jXjXjXjXjXjXjXjXjXjXjXjXjXjXjXjXjXjXjX8 1 1 1 : ; - * * * @ @ + X . o O O O O O O o O O O o o O O O O O O O o o . X + @ * * * = - ; > : < 1 1 jXjXjXjXjXjXjXjXjXjXjXjXjXjXjXjXjXjXjX",
"jXjXjXjXjXjXjXjXjXjXjXjXjXjXjXjXjXjXjX* @ - $ 8 w w u u u i p p n m l l k k l l l l l l l l l l l l l k k k l l m V V V p u u a w w % % - - @ jXjXjXjXjXjXjXjXjXjXjXjXjXjXjXjXjXjXjX",
"jXjXjXjXjXjXjXjXjXjXjXjXjXjXjXjXjXjXjX@ @ @ $ w u s d I [ d H K J J S y.t.t.t.t.Z Z Z Z Z Z Z Z Z y.t.t.t.t.y.l.J J H H G E d d d u w % @ @ @ jXjXjXjXjXjXjXjXjXjXjXjXjXjXjXjXjXjXjX",
"jXjXjXjXjXjXjXjXjXjXjXjXjXjXjXjXjXjXjX@ @ @ > a d I U U R ! ! ' x.z.p.d.d.d.d.f.f.g.g.g.g.g.g.g.g.f.f.f.d.d.d.c.z.x.' ! ) T Y U I d a : @ @ @ jXjXjXjXjXjXjXjXjXjXjXjXjXjXjXjXjXjXjX",
"jXjXjXjXjXjXjXjXjXjXjXjXjXjXjXjXjXjXjX@ @ * > i d U Y Y | O...`._.c.Q.b.b.b.b.n.h.h.h.h.h.j.h.h.h.n.n.b.b.m.n.M.C.N._...O.| Y Y U d u : * @ @ jXjXjXjXjXjXjXjXjXjXjXjXjXjXjXjXjXjXjX",
"jXjXjXjXjXjXjXjXjXjXjXjXjXjXjXjXjXjXjX+ @ @ % s E Y } | #.,.|. X].-XQ.G.G.G.A.A.S.Z.Z.Z.Z.Z.Z.Z.Z.Z.A.A.G.G.A.Q.!.].{.<.-.o.| } R E i > @ + @ jXjXjXjXjXjXjXjXjXjXjXjXjXjXjXjXjXjXjX",
"jXjXjXjXjXjXjXjXjXjXjXjXjXjXjXjXjXjXjXX X + 8 s ~ R | o.%.<. X{.{.~.W.U.U.L.L.K.K.K.K.K.K.K.K.K.K.K.K.P.H.L.P.W.~.{.@X X6.1.o.| R T s : @ X X jXjXjXjXjXjXjXjXjXjXjXjXjXjXjXjXjXjXjX",
"jXjXjXjXjXjXjXjXjXjXjXjXjXjXjXjXjXjXjX    X > s ~ ` O.,.3. X@X@X-X,XW.I.L.L.U.L.L.P.P.Y.P.P.P.P.P.P.L.Y.L.L.L.W.^.{.{. XXX6.>.O._ W s > X     jXjXjXjXjXjXjXjXjXjXjXjXjXjXjXjXjXjXjX",
"jXjXjXjXjXjXjXjXjXjXjXjXjXjXjXjXjXjXjX      > D W ] |.|. X X@X{.-X~.Q.m.J.H.G.L.L.Y.Y.U.Y.Y.Y.Y.L.L.L.H.H.G.A.Q.!.-X:X@X@X X|.=.] W D >       jXjXjXjXjXjXjXjXjXjXjXjXjXjXjXjXjXjXjX",
"jXjXjXjXjXjXjXjXjXjXjXjXjXjXjXjXjXjXjX      1 D K N.`.{.}.}.{.].C.c.j.h.n.m.m.J.I.I.U.U.U.U.U.U.L.H.A.m.m.v.h.j.c.].-X].{.{.`.`.N.K F ,       jXjXjXjXjXjXjXjXjXjXjXjXjXjXjXjXjXjXjX",
"jXjXjXjXjXjXjXjXjXjXjXjXjXjXjXjXjXjXjX      > m J x.N.[.].-X-XC.c.p.u.u.a.s.v.m.m.H.I.U.U.U.U.I.H.J.m.v.s.a.u.a.p.c.c.-X-X].-XN.x.J m 8       jXjXjXjXjXjXjXjXjXjXjXjXjXjXjXjXjXjXjX",
"jXjXjXjXjXjXjXjXjXjXjXjXjXjXjXjXjXjXjX  X . , m l.c.Q.Q.Q.Q.Q.k.g.r.M M M u.s.v.m.H.I.U.I.U.I.H.J.m.v.s.u.M M M r.i.c.Q.Q.Q.Q.Q.z.l.A 1       jXjXjXjXjXjXjXjXjXjXjXjXjXjXjXjXjXjXjX",
"jXjXjXjXjXjXjXjXjXjXjXjXjXjXjXjXjXjXjXO O & > B y.M.M.M.T.D.Z.h.u.N f 3 h N a.v.m.J.I.U.U.U.U.U.H.m.h.a.N h 2 f N a.v.m.T.T.M.M.k.y.A 1 O O O jXjXjXjXjXjXjXjXjXjXjXjXjXjXjXjXjXjXjX",
"jXjXjXjXjXjXjXjXjXjXjXjXjXjXjXjXjXjXjXo o o 1 B g.j.F.T.T.R.T.M.k.S F y C S k.V.F.R.E.E.E.E.E.E.R.F.F.k.S C y C l.c.F.D.T.T.T.D.j.i.A : o o o jXjXjXjXjXjXjXjXjXjXjXjXjXjXjXjXjXjXjX",
"jXjXjXjXjXjXjXjXjXjXjXjXjXjXjXjXjXjXjX      : S p.F.W.).).(.(.^.C.B.L L x.B.C.^.^././././././././.^.!.C.B...L L x.C.^.^.(.(.).W.F.p.S :       jXjXjXjXjXjXjXjXjXjXjXjXjXjXjXjXjXjXjX",
"jXjXjXjXjXjXjXjXjXjXjXjXjXjXjXjXjXjXjX      > S z.C.^.<X<X<X<X>X;X;X}.'.'.}.;X>X2X1X2X1X1X1X1X1X2X>X;X;X].'.'.'.}.;X>X1X<X<X<X^.C.B.S >       jXjXjXjXjXjXjXjXjXjXjXjXjXjXjXjXjXjXjX",
"jXjXjXjXjXjXjXjXjXjXjXjXjXjXjXjXjXjXjX      > J B.,X>X2XwXwXwX0XqX4X3X3X3X3X4XqXqXwXwXwXwXwXwXwXwX0XqXqXqX3X3X3XqX2X0XwXwX2X2X>X,XB.J 1       jXjXjXjXjXjXjXjXjXjXjXjXjXjXjXjXjXjXjX",
"jXjXjXjXjXjXjXjXjXjXjXjXjXjXjXjXjXjXjX      , P [.;XqXwXeXaXsXsXpXrXrXrXrXrXpXiXeXiXaXaXaXaXaXaXaXiXpXpXrXrXrXrXpXiXsXsXaXeXwXqX;X[.P 1       jXjXjXjXjXjXjXjXjXjXjXjXjXjXjXjXjXjXjX",
"jXjXjXjXjXjXjXjXjXjXjXjXjXjXjXjXjXjXjX      < K _.:X4XpXhXgXgXgXfXfXfXfXyXhXfXfXfXfXfXfXfXfXfXfXfXfXfXfXfXfXhXfXfXgXgXgXfXhXpX4X3X_.K 1       jXjXjXjXjXjXjXjXjXjXjXjXjXjXjXjXjXjXjX",
"jXjXjXjXjXjXjXjXjXjXjXjXjXjXjXjXjXjXjX      1 K _.3X4X9XfXgXgXgXgXgXgXgXfXgXgXgXgXgXgXgXgXgXgXgXgXgXfXgXgXgXgXgXgXgXgXgXgXdXrX4X3X_.K 1       jXjXjXjXjXjXjXjXjXjXjXjXjXjXjXjXjXjXjX",
"jXjXjXjXjXjXjXjXjXjXjXjXjXjXjXjXjXjXjXjX    * K _.@X4XrXyXdXgXgXgXgXgXgXdXgXdXgXdXdXdXdXdXdXdXdXdXdXdXdXdXgXgXgXgXgXgXgXgXtX9X4X}._.K 1     jXjXjXjXjXjXjXjXjXjXjXjXjXjXjXjXjXjXjXjX",
"jXjXjXjXjXjXjXjXjXjXjXjXjXjXjXjXjXjXjXjXjX  @ K _.}.=X6X7XtXuXuXdXyXyXyXyXuXuXtXtXtXtXtXtXtXtXtXtXtXyXyXuXuXyXyXyXdXuXuXtX7X5X4X@X_.L >   jXjXjXjXjXjXjXjXjXjXjXjXjXjXjXjXjXjXjXjXjX",
"jXjXjXjXjXjXjXjXjXjXjXjXjXjXjXjXjXjXjXjXjXjXjXK `.@X=X&X5X6X7X7X7X7X7X7X6X7X6X6X6X6X8X8X6X8X8X8X6X6X6X6X7X7X7X6X7X7X7X7X6X5X*X*X.X`.L jXjXjXjXjXjXjXjXjXjXjXjXjXjXjXjXjXjXjXjXjXjXjX",
"jXjXjXjXjXjXjXjXjXjXjXjXjXjXjXjXjXjXjXjXjXjXjXjXjX.X=X*X*X&X%X%X5X&X%X%X%X%X&X&X&X&X&X&X&X&X&X&X&X&X%X%X5X%X%X%X%X%X5X%X&X*X*X+X.X`.jXjXjXjXjXjXjXjXjXjXjXjXjXjXjXjXjXjXjXjXjXjXjXjX",
"jXjXjXjXjXjXjXjXjXjXjXjXjXjXjXjXjXjXjXjXjXjXjXjXjXjX8..XXX$X$X$X$X$X#X#X#X#X#X#X#X#X#X#X#X#X#X#X#X#X#X#X+X#X#X#X#X$X$X$X#X+X+X.X.XjXjXjXjXjXjXjXjXjXjXjXjXjXjXjXjXjXjXjXjXjXjXjXjXjX",
"jXjXjXjXjXjXjXjXjXjXjXjXjXjXjXjXjXjXjXjXjXjXjXjXjXjX5.6.6.7.w.0.0.8.6.6.6.6.6.6.3.6.6.6.6.6.6.6.6.6.6.6.6.6.6.6.8.0.w.w.7.3.6.6.jXjXjXjXjXjXjXjXjXjXjXjXjXjXjXjXjXjXjXjXjXjXjXjXjXjX",
"jXjXjXjXjXjXjXjXjXjXjXjXjXjXjXjXjXjXjXjXjXjXjXjXjXe.2.*.*.4.*.2.%.%.%.%.%.%.%.%.&.%.%.&.%.%.&.%.%.%.%.%.%.%.%.%.%.%.*.*.4.*.*.4.jXjXjXjXjXjXjXjXjXjXjXjXjXjXjXjXjXjXjXjXjXjXjXjXjXjX",
"jXjXjXjXjXjXjXjXjXjXjXjXjXjXjXjXjXjXjXjXjXjXjXjXjX4.*.%.*.%.&.&.&.&.$.@.$.@.$.#.o.$.o.o.@.$.$.$.o.@.#.@.o.@.@.@.$.&.&.*.*.*.*.*.jXjXjXjXjXjXjXjXjXjXjXjXjXjXjXjXjXjXjXjXjXjXjXjXjXjX",
"jXjXjXjXjXjXjXjXjXjXjXjXjXjXjXjXjXjXjXjXjXjXjX0.9.e.e.4.*.*.*.%.&.&.@.@.jXjXjXjX@.@.@.$.@.@.@.@.@.o.jXjXjXjXjX@.&.&.*.*.4.4.4.4.jXjXjXjXjXjXjXjXjXjXjXjXjXjXjXjXjXjXjXjXjXjXjXjXjXjX",
"jXjXjXjXjXjXjXjXjXjXjXjXjXjXjXjXjXjXjXjXjX0.0.7.7.e.8.6.5.5.5.5.4.%.jXjXjXjXjXjXjXjXjXjXjXjXjXjXjXjXjXjXjXjXjXjXjX4.4.5.e.5.e.e.jXjXjXjXjXjXjXjXjXjXjXjXjXjXjXjXjXjXjXjXjXjXjXjXjXjX",
"jXjXjXjXjXjXjXjXjXjXjXjXjXjXjXjXjXjXjXjX8.8.8.7.6.7.9.0.7.6.5.6.6.jXjXjXjXjXjXjXjXjXjXjXjXjXjXjXjXjXjXjXjXjXjXjXjX8.8.7.8.e.8.8.jXjXjXjXjXjXjXjXjXjXjXjXjXjXjXjXjXjXjXjXjXjXjXjXjXjX",
"jXjXjXjXjXjXjXjXjXjXjXjXjXjXjXjXjXjXjX6.6.6.6.0.w.w.q.w.7.6.6.6.jXjXjXjXjXjXjXjXjXjXjXjXjXjXjXjXjXjXjXjXjXjXjXjXjXjX6.6.8.6.6.6.6.jXjXjXjXjXjXjXjXjXjXjXjXjXjXjXjXjXjXjXjXjXjXjXjXjX",
"jXjXjXjXjXjXjXjXjXjXjXjXjXjXjXjXjXjXjX6.3.3.7.q.oX#XoXq.8.6.2.1.jXjXjXjXjXjXjXjXjXjXjXjXjXjXjXjXjXjXjXjXjXjXjXjXjX2.2.>.>.2.>.2.2.jXjXjXjXjXjXjXjXjXjXjXjXjXjXjXjXjXjXjXjXjXjXjXjXjX",
"jXjXjXjXjXjXjXjXjXjXjXjXjXjXjXjXjXjXjX>.-.>.9.OXw.w.w.q.6.,.>.>.jXjXjXjXjXjXjXjXjXjXjXjXjXjXjXjXjXjXjXjXjXjXjXjXjX,.;.;.:.=.:.:.;.<.jXjXjXjXjXjXjXjXjXjXjXjXjXjXjXjXjXjXjXjXjXjXjXjX",
"jXjXjXjXjXjXjXjXjXjXjXjXjXjXjXjXjXjXjX-.-.-.9.9.w.q.q.e.6.-.-.-.jXjXjXjXjXjXjXjXjXjXjXjXjXjXjXjXjXjXjXjXjXjXjXjX<.:. . . . . . .=.;.2.jXjXjXjXjXjXjXjXjXjXjXjXjXjXjXjXjXjXjXjXjXjXjX",
"jXjXjXjXjXjXjXjXjXjXjXjXjXjXjXjXjXjXjX-.-.{ 1.1.9.9.9.1.1.{ O.O.jXjXjXjXjXjXjXjXjXjXjXjXjXjXjXjXjXjXjXjXjX0.7.3.,. .] ! ! ! ! )  .:.>.6.7.jXjXjXjXjXjXjXjXjXjXjXjXjXjXjXjXjXjXjXjXjX",
"jXjXjXjXjXjXjXjXjXjXjXjXjXjXjXjXjXjXjX{ { { { 1.1.1.1.1.-.{ { { jXjXjXjXjXjXjXjXjXjXjXjXjXjXjXjXjXjXjXjX0.0.7.3.<. .] W H H G !  .:.<.6.7.9.jXjXjXjXjXjXjXjXjXjXjXjXjXjXjXjXjXjXjXjX",
"jXjXjXjXjXjXjXjXjXjXjXjXjXjXjXjXjXjXjX_ _ _ { { -.{ { { { { { ( jXjXjXjXjXjXjXjXjXjXjXjXjXjXjXjXjXjXjXjX0.9.6.6.<. .! H V V H Q  .,.>.5.7.9.9.jXjXjXjXjXjXjXjXjXjXjXjXjXjXjXjXjXjXjX",
"jXjXjXjXjXjXjXjXjXjXjXjXjXjXjXjXjXjXjXjX/ / ^ / { { { ( ( ( ^ ^ jXjXjXjXjXjXjXjXjXjXjXjXjXjXjXjXjXjXjX8.8.6.6.8.<. .W D g g V W ..3.XXOX7.7.9.jXjXjXjXjXjXjXjXjXjXjXjXjXjXjXjXjXjXjX",
"jXjXjXjXjXjXjXjXjXjXjXjXjXjXjXjXjXjXjXjX^ ^ ^ ^ ^ ^ ^ ^ ^ ^ ^ ^ jXjXjXjXjXjXjXjXjXjXjXjXjXjXjXjXjXjXjX<.3.3.<.,.=.) G n 3 3 V Q =.8.OXOX7.7.7.jXjXjXjXjXjXjXjXjXjXjXjXjXjXjXjXjXjXjX",
"jXjXjXjXjXjXjXjXjXjXjXjXjXjXjXjXjXjXjXjXjX^ ^ ^ ^ ^ ^ ( { ^ jXjXjXjXjXjXjXjXjXjXjXjXjXjXjXjXjXjXjXjXjX:.;.,.;. .) W H 6 3 2 D ! :.9.OXOX7.7.0.jXjXjXjXjXjXjXjXjXjXjXjXjXjXjXjXjXjXjX",
"jXjXjXjXjXjXjXjXjXjXjXjXjXjXjXjXjXjXjXjXjXjXjXjXjXjXjXjXjXjXjXjXjXjXjXjXjXjXjXjXjXjXjXjXjXjXjXjXjXjXjX)  . . . .Q G p 3 = 6 H ! ;.7.oXoX7.7.0.jXjXjXjXjXjXjXjXjXjXjXjXjXjXjXjXjXjXjX",
"jXjXjXjXjXjXjXjXjXjXjXjXjXjXjXjXjXjXjXjXjXjXjXjXjXjXjXjXjXjXjXjXjXjXjXjXjXjXjXjXjXjXjXjXjXjXjXjXjXjXjXL W Q W W H p 5 = = y d ! ;.8.oXw.7.7.0.jXjXjXjXjXjXjXjXjXjXjXjXjXjXjXjXjXjXjX",
"jXjXjXjXjXjXjXjXjXjXjXjXjXjXjXjXjXjXjXjXjXjXjXjXjXjXjXjXjXjXjXjXjXjXjXx b b x t x jXjXjXjXjXjXjXc n V F D D D D p 4 * * * w G ) :.6.0.7.8.0.7.jXjXjXjXjXjXjXjXjXjXjXjXjXjXjXjXjXjXjX",
"jXjXjXjXjXjXjXjXjXjXjXjXjXjXjXjXjXjXjXjXjXjXjXjXjXjXjXjXjXjXjXjXjXjXjXx x x c x x x x c c c c c b j z g jXjX3 3 2 * @ + * w d Q  .;.2.6.7.7.0.jXjXjXjXjXjXjXjXjXjXjXjXjXjXjXjXjXjXjX",
"jXjXjXjXjXjXjXjXjXjXjXjXjXjXjXjXjXjXjXjXjXjXjXjXjXjXjXjXjXjXjXjXjXjXj c c c c x x x x c c c y c b z g f jXjXjX3 = @ @ + + w d ~ ) O.,.6.0.0.jXjXjXjXjXjXjXjXjXjXjXjXjXjXjXjXjXjXjXjX",
"jXjXjXjXjXjXjXjXjXjXjXjXjXjXjXjXjXjXjXjXjXjXjXjXjXjXjXjXjXjXjXjXjXjXj v y c c c x x x t c n v c b g g 3 jXjXjX3 = * @ + @ w s G ! X.,.6.0.jXjXjXjXjXjXjXjXjXjXjXjXjXjXjXjXjXjXjXjXjX",
"jXjXjXjXjXjXjXjXjXjXjXjXjXjXjXjXjXjXjXjXjXjXjXjXjXjXjXjXjXjXjXjXjXjXj x v c c c t x x c c c c c b j g g jXjXf 2 2 = * @ * 8 s d ~ X.;.jXjXjXjXjXjXjXjXjXjXjXjXjXjXjXjXjXjXjXjXjXjXjX",
"jXjXjXjXjXjXjXjXjXjXjXjXjXjXjXjXjXjXjXjXjXjXjXjXjXjXjXjXjXjXjXjXjXj x x c c x x c x c c c c x x b b j g jXjXg 4 3 2 = * - 8 w s d jXjXjXjXjXjXjXjXjXjXjXjXjXjXjXjXjXjXjXjXjXjXjXjXjX",
"jXjXjXjXjXjXjXjXjXjXjXjXjXjXjXjXjXjXjXjXjXjXjXjXjXjXjXjXjXx x x b x x x b c c t x x x x x x x x b b b b jXjXb q 0 6 ; ; > 1 8 w p jXjXjXjXjXjXjXjXjXjXjXjXjXjXjXjXjXjXjXjXjXjXjXjXjX",
"jXjXjXjXjXjXjXjXjXjXjXjXjXjXjXjXjXjXjXjXjXjXjXjXjXjXjXjXc c x x x x x x b x x x x x x x x x x x b b b v jXjXx b e 0 < 1 1 : 7 @ jXjXjXjXjXjXjXjXjXjXjXjXjXjXjXjXjXjXjXjXjXjXjXjXjXjX",
"jXjXjXjXjXjXjXjXjXjXjXjXjXjXjXjXjXjXjXjXjXjXjXjXjXjXjXjXx x x x x x x x x b x x x x x x x x x x b b b v jXjXv r r e 8 8 , 7 @ + jXjXjXjXjXjXjXjXjXjXjXjXjXjXjXjXjXjXjXjXjXjXjXjXjXjX",
"jXjXjXjXjXjXjXjXjXjXjXjXjXjXjXjXjXjXjXjXjXjXjXjXjXjXjXjXx x x x b t x b x x x x x x x x x x x x b b c v jXjXx b r e e < 8 7 @ + jXjXjXjXjXjXjXjXjXjXjXjXjXjXjXjXjXjXjXjXjXjXjXjXjXjX",
"jXjXjXjXjXjXjXjXjXjXjXjXjXjXjXjXjXjXjXjXjXjXjXjXjXjXjXjXc x x x x b x x x x x x x x x x b t x x x b c v jXjXc t r e 9 8 1 : * @ jXjXjXjXjXjXjXjXjXjXjXjXjXjXjXjXjXjXjXjXjXjXjXjXjXjX",
"jXjXjXjXjXjXjXjXjXjXjXjXjXjXjXjXjXjXjXjXjXjXjXjXjXjXjXjXx x x x b b t x x x x x x x x x x x x x x b b v jXjXb j e 0 < < 1 : 7 @ jXjXjXjXjXjXjXjXjXjXjXjXjXjXjXjXjXjXjXjXjXjXjXjXjXjX",
"jXjXjXjXjXjXjXjXjXjXjXjXjXjXjXjXjXjXjXjXjXjXjXjXjXjXjXjXx x x x x x b b x x x x x x b x x b x x x x c v jXjXc t q 5 < , 1 : : 7 jXjXjXjXjXjXjXjXjXjXjXjXjXjXjXjXjXjXjXjXjXjXjXjXjXjX",
"jXjXjXjXjXjXjXjXjXjXjXjXjXjXjXjXjXjXjXjXjXjXjXjXjXjXjXjXx x x x x x x b x x x x x x x t x x x x x x c v jXjXc t r 5 < 1 1 > : > jXjXjXjXjXjXjXjXjXjXjXjXjXjXjXjXjXjXjXjXjXjXjXjXjXjX",
"jXjXjXjXjXjXjXjXjXjXjXjXjXjXjXjXjXjXjXjXjXjXjXjXjXjXjXjXjXjXx x c b x b x x x x b b x x x x x x x x x c jXv c j 0 5 < < 1 : : % jXjXjXjXjXjXjXjXjXjXjXjXjXjXjXjXjXjXjXjXjXjXjXjXjXjX",
"jXjXjXjXjXjXjXjXjXjXjXjXjXjXjXjXjXjXjXjXjXjXjXjXjXjXjXjXjXjXjXjXjXc x x x x x x x x x x x x x x x x v b v b b t r 0 < < 1 : : : : jXjXjXjXjXjXjXjXjXjXjXjXjXjXjXjXjXjXjXjXjXjXjXjXjX",
"jXjXjXjXjXjXjXjXjXjXjXjXjXjXjXjXjXjXjXjXjXjXjXjXjXjXjXjXjXjXjXjXjXjXb x x x x x x b c b x b b b x x x x v v b b 0 0 < < , > : : : jXjXjXjXjXjXjXjXjXjXjXjXjXjXjXjXjXjXjXjXjXjXjXjXjX",
"jXjXjXjXjXjXjXjXjXjXjXjXjXjXjXjXjXjXjXjXjXjXjXjXjXjXjXjXjXjXjXjXjXjXx c t x x x x x x x x x x x x x x v x b b t r 5 < < 8 > : : : jXjXjXjXjXjXjXjXjXjXjXjXjXjXjXjXjXjXjXjXjXjXjXjXjX",
"jXjXjXjXjXjXjXjXjXjXjXjXjXjXjXjXjXjXjXjXjXjXjXjXjXjXjXjXjXjXjXjXjXjXx x x x x x x x x x x x x x x x c v v c c q q 0 < < , > : : : jXjXjXjXjXjXjXjXjXjXjXjXjXjXjXjXjXjXjXjXjXjXjXjXjX",
"jXjXjXjXjXjXjXjXjXjXjXjXjXjXjXjXjXjXjXjXjXjXjXjXjXjXjXjXjXjXjXjXjXjXjXc x x x c x x x x x x x c x x v v jXv x x 0 5 5 , 1 : : : jXjXjXjXjXjXjXjXjXjXjXjXjXjXjXjXjXjXjXjXjXjXjXjXjXjX",
"jXjXjXjXjXjXjXjXjXjXjXjXjXjXjXjXjXjXjXjXjXjXjXjXjXjXjXjXjXjXjXjXjXjXjXjXx x x jXjXjXjXjXjXjXjXjXjXjXjXjXjXjXjXt e 5 < , 1 : : : jXjXjXjXjXjXjXjXjXjXjXjXjXjXjXjXjXjXjXjXjXjXjXjXjXjX",
"jXjXjXjXjXjXjXjXjXjXjXjXjXjXjXjXjXjXjXjXjXjXjXjXjXjXjXjXjXjXjXjXjXjXjXjXjXjXjXjXjXjXjXjXjXjXjXjXjXjXjXjXjXjXjXjXjX5 5 < 1 : : jXjXjXjXjXjXjXjXjXjXjXjXjXjXjXjXjXjXjXjXjXjXjXjXjXjXjX",
"jXjXjXjXjXjXjXjXjXjXjXjXjXjXjXjXjXjXjXjXjXjXjXjXjXjXjXjXjXjXjXjXjXjXjXjXjXjXjXjXjXjXjXjXjXjXjXjXjXjXjXjXjXjXjXjXjXjXjX, > > jXjXjXjXjXjXjXjXjXjXjXjXjXjXjXjXjXjXjXjXjXjXjXjXjXjXjXjX",
"jXjXjXjXjXjXjXjXjXjXjXjXjXjXjXjXjXjXjXjXjXjXjXjXjXjXjXjXjXjXjXjXjXjXjXjXjXjXjXjXjXjXjXjXjXjXjXjXjXjXjXjXjXjXjXjXjXjXjXjXjXjXjXjXjXjXjXjXjXjXjXjXjXjXjXjXjXjXjXjXjXjXjXjXjXjXjXjXjXjX",
"jXjXjXjXjXjXjXjXjXjXjXjXjXjXjXjXjXjXjXjXjXjXjXjXjXjXjXjXjXjXjXjXjXjXjXjXjXjXjXjXjXjXjXjXjXjXjXjXjXjXjXjXjXjXjXjXjXjXjXjXjXjXjXjXjXjXjXjXjXjXjXjXjXjXjXjXjXjXjXjXjXjXjXjXjXjXjXjXjXjX",
"jXjXjXjXjXjXjXjXjXjXjXjXjXjXjXjXjXjXjXjXjXjXjXjXjXjXjXjXjXjXjXjXjXjXjXjXjXjXjXjXjXjXjXjXjXjXjXjXjXjXjXjXjXjXjXjXjXjXjXjXjXjXjXjXjXjXjXjXjXjXjXjXjXjXjXjXjXjXjXjXjXjXjXjXjXjXjXjXjXjX",
"jXjXjXjXjXjXjXjXjXjXjXjXjXjXjXjXjXjXjXjXjXjXjXjXjXjXjXjXjXjXjXjXjXjXjXjXjXjXjXjXjXjXjXjXjXjXjXjXjXjXjXjXjXjXjXjXjXjXjXjXjXjXjXjXjXjXjXjXjXjXjXjXjXjXjXjXjXjXjXjXjXjXjXjXjXjXjXjXjXjX",
"jXjXjXjXjXjXjXjXjXjXjXjXjXjXjXjXjXjXjXjXjXjXjXjXjXjXjXjXjXjXjXjXjXjXjXjXjXjXjXjXjXjXjXjXjXjXjXjXjXjXjXjXjXjXjXjXjXjXjXjXjXjXjXjXjXjXjXjXjXjXjXjXjXjXjXjXjXjXjXjXjXjXjXjXjXjXjXjXjXjX",
"jXjXjXjXjXjXjXjXjXjXjXjXjXjXjXjXjXjXjXjXjXjXjXjXjXjXjXjXjXjXjXjXjXjXjXjXjXjXjXjXjXjXjXjXjXjXjXjXjXjXjXjXjXjXjXjXjXjXjXjXjXjXjXjXjXjXjXjXjXjXjXjXjXjXjXjXjXjXjXjXjXjXjXjXjXjXjXjXjXjX",
"jXjXjXjXjXjXjXjXjXjXjXjXjXjXjXjXjXjXjXjXjXjXjXjXjXjXjXjXjXjXjXjXjXjXjXjXjXjXjXjXjXjXjXjXjXjXjXjXjXjXjXjXjXjXjXjXjXjXjXjXjXjXjXjXjXjXjXjXjXjXjXjXjXjXjXjXjXjXjXjXjXjXjXjXjXjXjXjXjXjX",
"jXjXjXjXjXjXjXjXjXjXjXjXjXjXjXjXjXjXjXjXjXjXjXjXjXjXjXjXjXjXjXjXjXjXjXjXjXjXjXjXjXjXjXjXjXjXjXjXjXjXjXjXjXjXjXjXjXjXjXjXjXjXjXjXjXjXjXjXjXjXjXjXjXjXjXjXjXjXjXjXjXjXjXjXjXjXjXjXjXjX",
"jXjXjXjXjXjXjXjXjXjXjXjXjXjXjXjXjXjXjXjXjXjXjXjXjXjXjXjXjXjXjXjXjXjXjXjXjXjXjXjXjXjXjXjXjXjXjXjXjXjXjXjXjXjXjXjXjXjXjXjXjXjXjXjXjXjXjXjXjXjXjXjXjXjXjXjXjXjXjXjXjXjXjXjXjXjXjXjXjXjX",
"jXjXjXjXjXjXjXjXjXjXjXjXjXjXjXjXjXjXjXjXjXjXjXjXjXjXjXjXjXjXjXjXjXjXjXjXjXjXjXjXjXjXjXjXjXjXjXjXjXjXjXjXjXjXjXjXjXjXjXjXjXjXjXjXjXjXjXjXjXjXjXjXjXjXjXjXjXjXjXjXjXjXjXjXjXjXjXjXjXjX",
"jXjXjXjXjXjXjXjXjXjXjXjXjXjXjXjXjXjXjXjXjXjXjXjXjXjXjXjXjXjXjXjXjXjXjXjXjXjXjXjXjXjXjXjXjXjXjXjXjXjXjXjXjXjXjXjXjXjXjXjXjXjXjXjXjXjXjXjXjXjXjXjXjXjXjXjXjXjXjXjXjXjXjXjXjXjXjXjXjXjX",
"jXjXjXjXjXjXjXjXjXjXjXjXjXjXjXjXjXjXjXjXjXjXjXjXjXjXjXjXjXjXjXjXjXjXjXjXjXjXjXjXjXjXjXjXjXjXjXjXjXjXjXjXjXjXjXjXjXjXjXjXjXjXjXjXjXjXjXjXjXjXjXjXjXjXjXjXjXjXjXjXjXjXjXjXjXjXjXjXjXjX"
};
