/* XPM */
static char *result[] = {
/* columns rows colors chars-per-pixel */
"90 105 221 2 ",
"   c #000002",
".  c #00000C",
"X  c #1A0000",
"o  c #000014",
"O  c #00001C",
"+  c #180B17",
"@  c #000023",
"#  c #00002C",
"$  c #020D29",
"%  c #191425",
"&  c #181425",
"*  c #000034",
"=  c #00003C",
"-  c #000B39",
";  c #000934",
":  c #00133C",
">  c #011938",
",  c #151831",
"<  c #2B1F26",
"1  c #291F2A",
"2  c #2D1D37",
"3  c #1C263D",
"4  c #2C212A",
"5  c #3A292A",
"6  c #272538",
"7  c #372F39",
"8  c #48332E",
"9  c #473637",
"0  c #533B32",
"q  c #533E3B",
"w  c #4B313A",
"e  c #5B4239",
"r  c #634636",
"t  c #664939",
"y  c #6B4D3A",
"u  c #634738",
"i  c #754F32",
"p  c #73533E",
"a  c #69442C",
"s  c #000141",
"d  c #000D41",
"f  c #001442",
"g  c #001C43",
"h  c #012344",
"j  c #0B2443",
"k  c #0F2844",
"l  c #142543",
"z  c #1A2643",
"x  c #1D2944",
"c  c #162846",
"v  c #09345B",
"b  c #002E54",
"n  c #262B44",
"m  c #2A2D44",
"M  c #282E48",
"N  c #3B3344",
"B  c #363044",
"V  c #332E42",
"C  c #033B6E",
"Z  c #493945",
"A  c #553B46",
"S  c #583D47",
"D  c #613A41",
"F  c #00447C",
"G  c #00426E",
"H  c #53434A",
"J  c #5A474B",
"K  c #594547",
"L  c #5C4950",
"P  c #644D4C",
"I  c #674745",
"U  c #764947",
"Y  c #6A524C",
"T  c #7C5943",
"R  c #765646",
"E  c #7A5B52",
"W  c #73655F",
"Q  c #986434",
"!  c #A9713F",
"~  c #B5783B",
"^  c #925F2F",
"/  c #834F47",
"(  c #875748",
")  c #995A4A",
"_  c #835E56",
"`  c #8B6345",
"'  c #8B6549",
"]  c #856149",
"[  c #946A4B",
"{  c #966949",
"}  c #836354",
"|  c #8B6656",
" . c #956C55",
".. c #9D7251",
"X. c #9B725A",
"o. c #A9634C",
"O. c #B76C4E",
"+. c #B87E48",
"@. c #A47654",
"#. c #AA7B56",
"$. c #A5795D",
"%. c #AC7D5C",
"&. c #A57757",
"*. c #B57A55",
"=. c #AB724F",
"-. c #8B7971",
";. c #AB7D61",
":. c #A67D61",
">. c #A05D49",
",. c #C87C57",
"<. c #B4825B",
"1. c #BA865D",
"2. c #BC885F",
"3. c #B38362",
"4. c #BD8A65",
"5. c #BA8562",
"6. c #B38A6E",
"7. c #C9894A",
"8. c #D28F4F",
"9. c #C68857",
"0. c #CD915E",
"q. c #D99556",
"w. c #D6895E",
"e. c #E39D5A",
"r. c #E89F5B",
"t. c #E7A05C",
"y. c #C28D63",
"u. c #C58E67",
"i. c #D88D62",
"p. c #CB9366",
"a. c #C69169",
"s. c #CC956A",
"d. c #C69064",
"f. c #DF9F66",
"g. c #D49A6B",
"h. c #DA9E6D",
"j. c #D39564",
"k. c #D99E71",
"l. c #E49C66",
"z. c #DDA16F",
"x. c #DEA271",
"c. c #D2A07A",
"v. c #E2A26A",
"b. c #E9A569",
"n. c #E3A572",
"m. c #E6A974",
"M. c #ECAC75",
"N. c #EEA975",
"B. c #F1AF78",
"V. c #F3AB75",
"C. c #F3B179",
"Z. c #FCB57C",
"A. c #F7B47B",
"S. c #EFB077",
"D. c #003F94",
"F. c #00518E",
"G. c #00569B",
"H. c #004E93",
"J. c #0057B2",
"K. c #0060AC",
"L. c #0064B5",
"P. c #006AC7",
"I. c #0071CB",
"U. c #0075D2",
"Y. c #007DDB",
"T. c #007FE4",
"R. c #0083E3",
"E. c #0084EA",
"W. c #008BE4",
"Q. c #0090E8",
"!. c #0099F5",
"~. c #55ABFA",
"^. c #55A7F3",
"/. c #56B1FF",
"(. c #66ACF2",
"). c #9E8B81",
"_. c #BBA599",
"`. c #B3A6A0",
"'. c #D0AB92",
"]. c #E5AE84",
"[. c #EAB286",
"{. c #EAB287",
"}. c #F6B987",
"|. c #D1BBAE",
" X c #E9BFA3",
".X c #ECC2A3",
"XX c #F3C6A5",
"oX c #F9CCAC",
"OX c #F6D6BF",
"+X c #E2C7B8",
"@X c #CDC0B7",
"#X c #89BFFB",
"$X c #8EC6FE",
"%X c #8FCAFF",
"&X c #98C6FB",
"*X c #B7DCFF",
"=X c #BADCFF",
"-X c #B6D6FE",
";X c #A7CDFC",
":X c #DFD0C8",
">X c #FCDBC2",
",X c #F6D7C3",
"<X c #E6DBD4",
"1X c #FEEAD9",
"2X c #FFE8D3",
"3X c #FFE4CD",
"4X c #D6ECFF",
"5X c #D8EBFF",
"6X c #CBE4FF",
"7X c #FAEDE5",
"8X c #FFF7EC",
"9X c #FFF9ED",
"0X c #FFF2E2",
"qX c #EBF7FF",
"wX c #ECF9FF",
"eX c #E3F2FF",
"rX c #FFFDF5",
"tX c #FEFEFE",
"yX c #F5F9F9",
"uX c #EDE4E1",
"iX c None",
/* pixels */
"iXiXiXiXiXiXiXiXiXiXiXiXiXiXiXiXiXiXiXiXiXiXiXiXiXiXiXiXiXiXiXiXiXiXiXiXiXiXiXiXiXiXiXiXiXiXiXiXiXiXiXiXiXiXiXiXiXiXiXiXiXiXiXiXiXiXiXiXiXiXiXiXiXiXiXiXiXiXiXiXiXiXiXiXiXiXiXiXiXiX",
"iXiXiXiXiXiXiXiXiXiXiXiXiXiXiXiXiXiXiXiXiXiXiXiXiXiXiXiXiXiXiXiXiXiXiXiXiXiXiXiXiXiXiXiXiXiXiXiXiXiXiXiXiXiXiXiXiXiXiXiXiXiXiXiXiXiXiXiXiXiXiXiXiXiXiXiXiXiXiXiXiXiXiXiXiXiXiXiXiXiX",
"iXiXiXiXiXiXiXiXiXiXiXiXiXiXiXiXiXiXiXiXiXiXiXiXiXiXiXiXiXiXiXiXiXiXiXiXiXiXiXiXiXiXiXiXiXiXiXiXiXiXiXiXiXiXiXiXiXiXiXiXiXiXiXiXiXiXiXiXiXiXiXiXiXiXiXiXiXiXiXiXiXiXiXiXiXiXiXiXiXiX",
"iXiXiXiXiXiXiXiXiXiXiXiXiXiXiXiXiXiXiXiXiXiXiXiXiXiXiXiXiXiXiXiXiXiXiXiXiXiXiXiXiXiXiXiXiXiXiXiXiXiXiXiXiXiXiXiXiXiXiXiXiXiXiXiXiXiXiXiXiXiXiXiXiXiXiXiXiXiXiXiXiXiXiXiXiXiXiXiXiXiX",
"iXiXiXiXiXiXiXiXiXiXiXiXiXiXiXiXiXiXiXiXiXiXiXiXiXiXiXiXiXiXiXiXiXiXiXiXiXiXiXiXiXiXiXiXiXiXiXiXiXiXiXiXiXiXiXiXiXiXiXiXiXiXiXiXiXiXiXiXiXiXiXiXiXiXiXiXiXiXiXiXiXiXiXiXiXiXiXiXiXiX",
"iXiXiXiXiXiXiXiXiXiXiXiXiXiXiXiXiXiXiXiXiXiXiXiXiXiXiXiXiXiXiXiXiXiXiXiXiXiXiXiXiXiXiXiXiXiXiXiXiXiXiXiXiXiXiXiXiXiXiXiXiXiXiXiXiXiXiXiXiXiXiXiXiXiXiXiXiXiXiXiXiXiXiXiXiXiXiXiXiXiX",
"iXiXiXiXiXiXiXiXiXiXiXiXiXiXiXiXiXiXiXiXiXiXiXiXiXiXiXiXiXiXiXiXiXiXiXiXiXiXiXiXiXiXiXiXiXiXiXiXiXiXiXiXiXiXiXiXiXiXiXiXiXiXiXiXiXiXiXiXiXiXiXiXiXiXiXiXiXiXiXiXiXiXiXiXiXiXiXiXiXiX",
"iXiXiXiXiXiXiXiXiXiXiXiXiXiXiXiXiXiXiXiXiXiXiXiXiXiXiXiXiXiXiXiXiXiXiXiXiXiXiXiXiXiXiXiXiXiXiXiXiXiXiXiXiXiXiXiXiXiXiXiXiXiXiXiXiXiXiXiXiXiXiXiXiXiXiXiXiXiXiXiXiXiXiXiXiXiXiXiXiXiX",
"iXiXiXiXiXiXiXiXiXiXiXiXiXiXiXiXiXiXiXiXiXiXiXiXiXiXiXiXiXiXiXiXiXiXiXiXiXiXiXiXiXiXiXiXiXiXiXiXiXiXiXiXiXiXiXiXiXiXiXiXiXiXiXiXiXiXiXiXiXiXiXiXiXiXiXiXiXiXiXiXiXiXiXiXiXiXiXiXiXiX",
"iXiXiXiXiXiXiXiXiXiXiXiXiXiXiXiXiXiXiXiXiXiXiXiXiXiXiXiXiXiXiXiXiXiXiXiXiXiXiXiXiXiXiXiXiXiXiXiXiXiXiXiXiXiXiXiXiXiXiXiXiXiXiXiXiXiXiXiXiXiXiXiXiXiXiXiXiXiXiXiXiXiXiXiXiXiXiXiXiXiX",
"iXiXiXiXiXiXiXiXiXiXiXiXiXiXiXiXiXiXiXiXiXiXiXiXiXiXiXiXiXiXiXiXiXiXiXiXiXiXiXiXiXiXiXiXiXiXiXiXiXiXiXiXiXiXiXiXiXiXiXiXiXiXiXiXiXiXiXiXiXiXiXiXiXiXiXiXiXiXiXiXiXiXiXiXiXiXiXiXiXiX",
"iXiXiXiXiXiXiXiXiXiXiXiXiXiXiXiXiXiXiXiXiXiXiXiXiXiXiXiXiXiXiXiXiXiXiXiXiXiXiXiXiXiXiXiXiXiXiXiXiXiXiXiXiXiXiXiXiXiXiXiXiXiXiXiXiXiXiXiXiXiXiXiXiXiXiXiXiXiXiXiXiXiXiXiXiXiXiXiXiXiX",
"iXiXiXiXiXiXiXiXiXiXiXiXiXiXiXiXiXiXiXiXiXiXiXiXiXiXiXiXiXiXiXiXiXiXiXiXiXiXiXiXiXiXiXiXiXiXiXiXiXiXiXiXiXiXiXiXiXiXiXiXiXiXiXiXiXiXiXiXiXiXiXiXiXiXiXiXiXiXiXiXiXiXiXiXiXiXiXiXiXiX",
"iXiXiXiXiXiXiXiXiXiXiXiXiXiXiXiXiXiXiXiXiXiXiXiXiXiXiXiXiXiXiXiXiXiXiXiXiXiXiXiXiXiXiXiXiXiXiXiXiXiXiXiXiXiXiXiXiXiXiXiXiXiXiXiXiXiXiXiXiXiXiXiXiXiXiXiXiXiXiXiXiXiXiXiXiXiXiXiXiXiX",
"iXiXiXiXiXiXiXiXiXiXiXiXiXiXiXiXiXiXiXiXiXiXiXiXiXiXiXiXiXiXiXiXiXiXiXiXiXiXiXiXiXiXiXiXiXiXiXiXiXiXiXiXiXiXiXiXiXiXiXiXiXiXiXiXiXiXiXiXiXiXiXiXiXiXiXiXiXiXiXiXiXiXiXiXiXiXiXiXiXiX",
"iXiXiXiXiXiXiXiXiXiXiXiXiXiXiXiXiXiXiXiXiXiXiXiXiXiXiXiXiXiXiXiXiXiXiXiXiXiXiXiXiXiXiXiXiXiXiXiXiXiXiXiXiXiXiXiXiXiXiXiXiXiXiXiXiXiXiXiXiXiXiXiXiXiXiXiXiXiXiXiXiXiXiXiXiXiXiXiXiXiX",
"iXiXiXiXiXiXiXiXiXiXiXiXiXiXiXiXiXiXiXiXiXiXiXiXiXiXiXiXiXiXiXiXiXiXiXiXiXiXiXiXiXiXiXiXiXiXiXiXiXiXiXiXiXiXiXiXiXiXiXiXiXiXiXiXiXiXiXiXiXiXiXiXiXiXiXiXiXiXiXiXiXiXiXiXiXiXiXiXiXiX",
"iXiXiXiXiXiXiXiXiXiXiXiXiXiXiXiXiXiXiXiXiXiXiXiXiXiXiXiXiXiXiXiXiXiXiXiXiXiXiXiXiXiXiXiXiXiXiXiXiXiXiXiXiXiXiXiXiXiXiXiXiXiXiXiXiXiXiXiXiXiXiXiXiXiXiXiXiXiXiXiXiXiXiXiXiXiXiXiXiXiX",
"iXiXiXiXiXiXiXiXiXiXiXiXiXiXiXiXiXiXiXiXiXiXiXiXiXiXiXiXiXiXiXiXiXiXiXiXiXiXiXiXiXiXiXiXiXiXiXiXiXiXiXiXiXiXiXiXiXiXiXiXiXiXiXiXiXiXiXiXiXiXiXiXiXiXiXiXiXiXiXiXiXiXiXiXiXiXiXiXiXiX",
"iXiXiXiXiXiXiXiXiXiXiXiXiXiXiXiXiXiXiXiXiXiXiXiXiXiXiXiXiXiXiXiXiXX X X X X iXiXiXiXiXiXiXiXiXiXiXiXiXiXX X X X X iXiXiXiXiXiXiXiXiXiXiXiXiXiXiXiXiXiXiXiXiXiXiXiXiXiXiXiXiXiXiXiXiX",
"iXiXiXiXiXiXiXiXiXiXiXiXiXiXiXiXiXiXiXiXiXiXiXiXiXiXiXiXiXiXiXiXX X X X X X iXiXiXiXiXiXiXiXiXiXiXiXiXiXX X X X X X iXiXiXiXiXiXiXiXiXiXiXiXiXiXiXiXiXiXiXiXiXiXiXiXiXiXiXiXiXiXiXiX",
"iXiXiXiXiXiXiXiXiXiXiXiXiXiXiXiXiXiXiXiXiXiXiXiXiXiXiXiXiXiXiXiX+ + + + + + X iXiXiXiXiXiXiXiXiXiXiXiXX + + + + + + iXiXiXiXiXiXiXiXiXiXiXiXiXiXiXiXiXiXiXiXiXiXiXiXiXiXiXiXiXiXiXiX",
"iXiXiXiXiXiXiXiXiXiXiXiXiXiXiXiXiXiXiXiXiXiXiXiXiXiXiXiXiXiXiXiXb v v v v C G iXiXiXiXiXiXiXiXiXiXiXiXG v v v v v b iXiXiXiXiXiXiXiXiXiXiXiXiXiXiXiXiXiXiXiXiXiXiXiXiXiXiXiXiXiXiXiX",
"iXiXiXiXiXiXiXiXiXiXiXiXiXiXiXiXiXiXiXiXiXiXiXiXiXiXiXiXiXiXiXiXC C F.F.F.F.G.K.iXiXiXiXiXiXiXiXiXiXK.G.F.F.F.F.F C iXiXiXiXiXiXiXiXiXiXiXiXiXiXiXiXiXiXiXiXiXiXiXiXiXiXiXiXiXiXiXiX",
"iXiXiXiXiXiXiXiXiXiXiXiXiXiXiXiXiXiXiXiXiXiXiXiXiXiXiXiXiXiXiXiXD.H.G.L.L.K.L.P.U.iXiXiXiXiXiXiXiXU.P.L.K.L.K.G.H.D.iXiXiXiXiXiXiXiXiXiXiXiXiXiXiXiXiXiXiXiXiXiXiXiXiXiXiXiXiXiXiXiX",
"iXiXiXiXiXiXiXiXiXiXiXiXiXiXiXiXiXiXiXiXiXiXiXiXiXiXiXiXiXiXiXiXJ.J.L.P.I.P.I.U.Y.R.E.E.E.E.E.E.R.Y.U.I.I.I.P.L.J.J.iXiXiXiXiXiXiXiXiXiXiXiXiXiXiXiXiXiXiXiXiXiXiXiXiXiXiXiXiXiXiXiX",
"iXiXiXiXiXiXiXiXiXiXiXiXiXiXiXiXiXiXiXiXiXiXiXiXiXiXiXiXiXiXiXiXP.U.U.Y.R.R.R.R.R.R.E.E.E.E.E.E.E.R.R.Y.R.R.Y.U.U.P.iXiXiXiXiXiXiXiXiXiXiXiXiXiXiXiXiXiXiXiXiXiXiXiXiXiXiXiXiXiXiXiX",
"iXiXiXiXiXiXiXiXiXiXiXiXiXiXiXiXiXiXiXiXiXiXiXiXiXiXiXiXiXiXiXiXE.E.E.Q.!.!.!.Q.Q.Q.Q.Q.Q.Q.Q.Q.Q.Q.Q.!.!.!.W.W.E.E.iXiXiXiXiXiXiXiXiXiXiXiXiXiXiXiXiXiXiXiXiXiXiXiXiXiXiXiXiXiXiXiX",
"iXiXiXiXiXiXiXiXiXiXiXiXiXiXiXiXiXiXiXiXiXiXiXiXiXiXiXiXiXiXiXiX(.^.^.^./././.~.~.~.~.~.~.~.~.~.~.~.~./././.^.^.(.(.iXiXiXiXiXiXiXiXiXiXiXiXiXiXiXiXiXiXiXiXiXiXiXiXiXiXiXiXiXiXiXiX",
"iXiXiXiXiXiXiXiXiXiXiXiXiXiXiXiXiXiXiXiXiXiXiXiXiXiXiXiXiXiXiX=X;X&X$X$X%X%X%X%X$X$X$X$X$X%X$X$X$X$X%X%X%X$X#X$X&X;X=XiXiXiXiXiXiXiXiXiXiXiXiXiXiXiXiXiXiXiXiXiXiXiXiXiXiXiXiXiXiXiX",
"iXiXiXiXiXiXiXiXiXiXiXiXiXiXiXiXiXiXiXiXiXiXiXiXiXiXiXiXiXiXqX5X6X6X-X;X=X=X*X*X*X*X=X=X=X=X=X=X=X*X*X*X*X*X-X-X=X6X5XwXiXiXiXiXiXiXiXiXiXiXiXiXiXiXiXiXiXiXiXiXiXiXiXiXiXiXiXiXiXiX",
"iXiXiXiXiXiXiXiXiXiXiXiXiXiXiXiXiXiXiXiXiXiXiXiXiXiXiXiXtXtXyXwXeX5X4X4X4X4X4X4X4X4X4X4X4X4X4X4X4X4X4X4X4X4X6X5XeXeXwXyXtXtXiXiXiXiXiXiXiXiXiXiXiXiXiXiXiXiXiXiXiXiXiXiXiXiXiXiXiXiX",
"iXiXiXiXiXiXiXiXiXiXiXiXiXiXiXiXiXiXiXiXiXiXiXiXiXiXiXtXtXtXtXtXyXwXqXqXqXwXwXwXqXqXqXwXwXqXqXqXqXwXwXwXwXwXqXwXwXwXtXtXtXtXtXiXiXiXiXiXiXiXiXiXiXiXiXiXiXiXiXiXiXiXiXiXiXiXiXiXiXiX",
"iXiXiXiXiXiXiXiXiXiXiXiXiXiXiXiXiXiXiXiXiXiXiXiXiXiXtXtXtXtXtXtXtXtXtXtXyXtXtXyXtXtXtXyXyXtXtXtXyXtXtXyXtXtXyXtXtXtXtXtXtXtXtXtXiXiXiXiXiXiXiXiXiXiXiXiXiXiXiXiXiXiXiXiXiXiXiXiXiXiX",
"iXiXiXiXiXiXiXiXiXiXiXiXiXiXiXiXiXiXiXiXiXiXiXiXiXyXyXyXrXtXtXtXtXtXtXtXrXtXtXtXtXtXrXtXtXtXtXrXrXtXtXtXtXrXrXtXtXtXtXtXtXyXrXyXyXiXiXiXiXiXiXiXiXiXiXiXiXiXiXiXiXiXiXiXiXiXiXiXiXiX",
"iXiXiXiXiXiXiXiXiXiXiXiXiXiXiXiXiXiXiXiXiXiXiXiXiX<XuX7XrXtXtXtXtXrX9X9X9X8X8X8X8X8X8X8X9X8X8X8X8X8X8X8X8X8X8X8XrXtXtXtXtXrX7XuX<XiXiXiXiXiXiXiXiXiXiXiXiXiXiXiXiXiXiXiXiXiXiXiXiXiX",
"iXiXiXiXiXiXiXiXiXiXiXiXiXiXiXiXiXiXiXiXiXiXiX6.`.|.:X<X7XrXrXrX9X0X0X1X1X1X1X1X1X1X1X1X1X1X1X1X1X1X1X1X1X1X1X0X0X8XrXtXrX7X<X:X@X`.-.iXiXiXiXiXiXiXiXiXiXiXiXiXiXiXiXiXiXiXiXiXiXiX",
"iXiXiXiXiXiXiXiXiXiXiXiXiXiXiXiXiXiXiXiXiXiX& W )._.|.+X,X2X1X2X3X3XOX>X>X>X>XOXOXOXOXOXOXOXOX,XOXOXOXOX>X>X>XOX3X3X1X1X3X,X+X|.`.6.W > iXiXiXiXiXiXiXiXiXiXiXiXiXiXiXiXiXiXiXiXiXiX",
"iXiXiXiXiXiXiXiXiXiXiXiXiXiXiXiXiXiXiXiX    & Y -.).'.'..XoXoXoXoXXXXXXXXXXXXXXX.X.X.X.X X X.X.X.X.XXXXXXXXXXXoXXXoXoXoXoX X'.'.6.-.P &     iXiXiXiXiXiXiXiXiXiXiXiXiXiXiXiXiXiXiXiX",
"iXiXiXiXiXiXiXiXiXiXiXiXiXiXiXiXiXiXiXiX    & u ' :.4.c.].{.}.}.{.}.{.{.[.[.[.].[.].].].].].].M.[.].].[.[.[.{.{.{.}.}.{.{.].c.a.3.} e %     iXiXiXiXiXiXiXiXiXiXiXiXiXiXiXiXiXiXiXiX",
"iXiXiXiXiXiXiXiXiXiXiXiXiXiXiXiXiXiXiX. . o & u ' #.2.p.z.b.b.b.b.v.v.z.t.z.z.t.v.v.v.v.b.v.v.v.v.v.v.t.z.e.z.v.v.v.b.b.b.z.0.9.=.` r % o . . iXiXiXiXiXiXiXiXiXiXiXiXiXiXiXiXiXiXiX",
"iXiXiXiXiXiXiXiXiXiXiXiXiXiXiXiXiXiXiXO O O & r ^ =.7.q.q.t.t.t.q.8.7.7.8.q.8.q.q.t.e.t.e.e.e.e.e.e.q.8.8.8.7.7.8.q.e.t.t.e.8.9.=.` r % O O O iXiXiXiXiXiXiXiXiXiXiXiXiXiXiXiXiXiXiX",
"iXiXiXiXiXiXiXiXiXiXiXiXiXiXiXiXiXiXiXo o O & r Q #.9.q.t.t.t.q.7.+.~ ~ ~ ~ 7.8.q.q.t.t.r.t.e.e.q.q.8.7.+.~ ~ ~ 7.7.q.e.t.t.q.0.+.` u & O o o iXiXiXiXiXiXiXiXiXiXiXiXiXiXiXiXiXiXiX",
"iXiXiXiXiXiXiXiXiXiXiXiXiXiXiXiXiXiXiX.   o % r { <.0.e.v.t.t.q.7.~ Q ^ ^ ! <.7.q.e.v.t.b.b.b.b.t.q.7.<.! Q ^ Q ! 7.8.t.b.b.q.0.<.{ u & O o o iXiXiXiXiXiXiXiXiXiXiXiXiXiXiXiXiXiXiX",
"iXiXiXiXiXiXiXiXiXiXiXiXiXiXiXiXiXiXiX    . % r ' <.g.v.b.b.z.0.+.Q i a i Q #.9.g.v.b.M.M.b.m.b.v.j.9.#.Q i r i Q <.0.z.b.b.v.s.<.[ u & O     iXiXiXiXiXiXiXiXiXiXiXiXiXiXiXiXiXiXiX",
"iXiXiXiXiXiXiXiXiXiXiXiXiXiXiXiXiXiXiX    . % r [ <.p.x.m.m.z.0...R 8 5 0 R ..2.g.v.M.M.B.B.M.M.z.j.2...p e 5 8 R ..9.z.M.M.v.s.<.[ u & o     iXiXiXiXiXiXiXiXiXiXiXiXiXiXiXiXiXiXiX",
"iXiXiXiXiXiXiXiXiXiXiXiXiXiXiXiXiXiXiX    O & e [ <.d.z.x.x.g.1...p 5 & 8 R ..2.g.x.M.M.B.B.S.M.z.g.2...p 8 & 5 y ..2.g.x.x.z.d.<.' e & o     iXiXiXiXiXiXiXiXiXiXiXiXiXiXiXiXiXiXiX",
"iXiXiXiXiXiXiXiXiXiXiXiXiXiXiXiXiXiXiXO O @ % e ] ..1.d.g.z.4.<. .p e 0 t ] #.4.g.n.M.M.B.B.M.M.n.g.2.#.] u e e p  .<.p.g.g.p.2.@.( e & o .   iXiXiXiXiXiXiXiXiXiXiXiXiXiXiXiXiXiXiX",
"iXiXiXiXiXiXiXiXiXiXiXiXiXiXiXiXiXiXiX# # # , H R  .&.<.2.2.2.<...' T T [ ..<.p.k.n.M.S.S.B.C.M.m.z.p.1.<.' T T ' ..<.<.2.1.<.<.[ R 0 & O o   iXiXiXiXiXiXiXiXiXiXiXiXiXiXiXiXiXiXiX",
"iXiXiXiXiXiXiXiXiXiXiXiXiXiXiXiXiXiXiX* * ; 6 9 I T '  ...<.<.@.#.@.#.<.<.0.s.z.n.N.M.B.B.B.S.M.m.v.z.p.4.<.<.@...<.@.<.<...[ T R u 8 & O o   iXiXiXiXiXiXiXiXiXiXiXiXiXiXiXiXiXiXiX",
"iXiXiXiXiXiXiXiXiXiXiXiXiXiXiXiXiXiXiXf : > 6 N H e I p T [ ..@.<.1.4.p.g.z.x.n.M.M.M.S.B.B.C.M.M.m.x.x.z.j.p.2.1.<.....` p p t e 0 5 & O o iXiXiXiXiXiXiXiXiXiXiXiXiXiXiXiXiXiXiXiX",
"iXiXiXiXiXiXiXiXiXiXiXiXiXiXiXiXiXiXiXc l z n m 6 7 6 7 9 y ^ @.<.y.g.z.m.m.M.m.n.M.M.M.S.M.M.S.M.M.m.M.m.m.z.g.0.<...] y e 5 4 1 4 1 & @ O o iXiXiXiXiXiXiXiXiXiXiXiXiXiXiXiXiXiXiX",
"iXiXiXiXiXiXiXiXiXiXiXiXiXiXiXiXiXiXiXM M n n n h * # O @ 8 p [ <.p.z.n.M.M.M.m.n.n.n.n.v.m.n.n.n.n.m.M.M.M.n.z.a.<.[ R 8 O o o O @ & & % & % iXiXiXiXiXiXiXiXiXiXiXiXiXiXiXiXiXiXiX",
"iXiXiXiXiXiXiXiXiXiXiXiXiXiXiXiXiXiXiXM M M x k - * # O o $ e ' @.2.g.x.n.n.x.x.h.h.g.h.g.g.g.g.g.z.z.x.n.n.z.g.y.#.] e $ .   . o O @ & 4 8 e iXiXiXiXiXiXiXiXiXiXiXiXiXiXiXiXiXiXiX",
"iXiXiXiXiXiXiXiXiXiXiXiXiXiXiXiXiXiXiXc k j g g s * # @ O # 9 T [ 3.0.p.j.g.j.p.d.y.y.y.y.y.y.d.0.4.p.p.g.g.p.2.<. .R 9 # o . . o O O % 5 e p [ iXiXiXiXiXiXiXiXiXiXiXiXiXiXiXiXiXiX",
"iXiXiXiXiXiXiXiXiXiXiXiXiXiXiXiXiXiXiXf f d d s s = * # # * 7 I E [ <.<.2.1.<.<.#.#.#.#.#.#.#.#.#.<.<.<.1.1.1.<...T t 6 # $ O O o o O % 8 y ` #.y.z.iXiXiXiXiXiXiXiXiXiXiXiXiXiXiXiX",
"iXiXiXiXiXiXiXiXiXiXiXiXiXiXiXiXiXiXiXs s s s s s s = = * : 6 A p T ' [ [ [ { { ' ' ` ` ' ' ` ' ' ' { { [ [ [ ' T P Z > * # # @ @ O O % 8 p [ <.p.z.M.C.iXiXiXiXiXiXiXiXiXiXiXiXiXiX",
"iXiXiXiXiXiXiXiXiXiXiXiXiXiXiXiXiXiXiXs s = s s s s s s : > c 7 e e u u y y y r u u r u r r r u r r r y y y t u q 9 6 : = * * # @ O o % 0 ` @.1.s.x.M.S.C.iXiXiXiXiXiXiXiXiXiXiXiXiX",
"iXiXiXiXiXiXiXiXiXiXiXiXiXiXiXiXiXiXiXl l l l c c c c c z x 6 6 3 4 4 < < 4 4 4 < < < < 4 4 4 4 4 4 4 4 4 4 4 4 4 6 3 l l l g = # @ O % a ] #.p.x.n.M.M.C.iXiXiXiXiXiXiXiXiXiXiXiXiX",
"iXiXiXiXiXiXiXiXiXiXiXiXiXiXiXiXiXiXiXJ H J H L L L H A Z Z B 2 > # @ @ o o O o O @ O @ O O O O O O O o o o O @ > 6 9 Z H L H 7 > # @ , e ' 1.h.S.A.M.M.B.iXiXiXiXiXiXiXiXiXiXiXiXiX",
"iXiXiXiXiXiXiXiXiXiXiXiXiXiXiXiXiXiXiX} _ _ _ _ | _ _ U U I A Z 2 * # @ O O O @ @ @ @ @ @ @ @ @ @ @ O O O O @ # 6 A Y E } } E Y Z > @ $ e ' 3.x.A.}.A.V.B.iXiXiXiXiXiXiXiXiXiXiXiXiX",
"iXiXiXiXiXiXiXiXiXiXiXiXiXiXiXiXiXiXiX:.:.:.$.;.:.X. .| _ U D D w 2 # # # # # # * # # # # * # # # # # # # @ # , e E | $.3.;.X.| P 7 * # Z } 3.x.}.Z.A.M.B.iXiXiXiXiXiXiXiXiXiXiXiXiX",
"iXiXiXiXiXiXiXiXiXiXiXiXiXiXiXiXiXiXiXu.4.4.u.u.u.,.*.o.>.) / U D w 6 = = * = * ; - - - - - - - - * * * # * = 7 Y  .3.6.a.s.4.$.E 9 * * 6 E 3.x.Z.}.C.S.M.iXiXiXiXiXiXiXiXiXiXiXiXiX",
"iXiXiXiXiXiXiXiXiXiXiXiXiXiXiXiXiXiXiXk.g.k.s.k.c.c.,.*.o.) ) / U S N j : : g g j 3 z l 3 l l 3 z h : = = = h H E $.4.g.x.x.s.5. .J : = n E ;.x.A.Z.M.V.B.iXiXiXiXiXiXiXiXiXiXiXiXiX",
"iXiXiXiXiXiXiXiXiXiXiXiXiXiXiXiXiXiXiXm.m.n.x.m.N.l.i.,.,.o.>./ U D Z x g g g k n n n n n n n n n x g = = = l J } ;.a.k.n.n.h.4.X.E N g N E :.s.m.B.m.S.B.iXiXiXiXiXiXiXiXiXiXiXiXiX",
"iXiXiXiXiXiXiXiXiXiXiXiXiXiXiXiXiXiXiXS.S.M.M.C.V.b.l.,.,.O.o.) / I Z M g g h h x M n n n n n m n x h s s s l L } :.y.k.n.n.h.a.:.} P H L } :.a.g.x.M.M.S.iXiXiXiXiXiXiXiXiXiXiXiXiX",
"iXiXiXiXiXiXiXiXiXiXiXiXiXiXiXiXiXiXiXC.C.S.M.Z.A.N.l.w.,.O.o.) / U A x b g h h x M M M M M M M n x h d s s x J E :.4.s.x.x.h.a.3.X.| E } X.;.4.g.x.M.B.iXiXiXiXiXiXiXiXiXiXiXiXiXiX",
"iXiXiXiXiXiXiXiXiXiXiXiXiXiXiXiXiXiXiXC.C.B.A.Z.Z.V.l.,.,.O.o.>./ I A x f f g b x M n M M n M n n x h f s d x H E  .3.4.s.g.s.a.5.;.;.:.:.;.4.s.g.x.m.iXiXiXiXiXiXiXiXiXiXiXiXiXiXiX",
"iXiXiXiXiXiXiXiXiXiXiXiXiXiXiXiXiXiXiXC.S.S.A.Z.}.V.V.i.,.O.o.>.( U A z g f g h x n M n n M n n n n j g f f x Z Y _  .:.3.4.y.4.4.4.a.a.4.y.s.s.h.iXiXiXiXiXiXiXiXiXiXiXiXiXiXiXiXiX",
"iXiXiXiXiXiXiXiXiXiXiXiXiXiXiXiXiXiXiXB.S.S.A.Z.V.V.l.l.,.,.o.>.( U A z f d f h x n n n n n n n n n z h h h M N Z J Y E | X.;.4.a.s.k.x.k.h.k.x.iXiXiXiXiXiXiXiXiXiXiXiXiXiXiXiXiXiX",
"iXiXiXiXiXiXiXiXiXiXiXiXiXiXiXiXiXiXiXM.M.m.M.A.V.N.l.,.,.O.o.>.) U S c d s f h c n n n n n n n n n n x x n M n x g d f N Y  .3.a.g.x.n.n.n.n.iXiXiXiXiXiXiXiXiXiXiXiXiXiXiXiXiXiXiX",
"iXiXiXiXiXiXiXiXiXiXiXiXiXiXiXiXiXiXiXm.m.m.x.m.N.i.,.,.O.O.>.) ( U S c iXiXiXiXc n n n n n n n n n m m n n n l s iXiXiXiXB _ :.a.g.x.n.M.M.S.iXiXiXiXiXiXiXiXiXiXiXiXiXiXiXiXiXiXiX",
"iXiXiXiXiXiXiXiXiXiXiXiXiXiXiXiXiXiXiXiXx.k.g.g.i.,.,.*.O.o.>.) / U A iXiXiXiXiXiXiXiXiXiXiXiXiXiXiXiXiXiXiXiXiXiXiXiXiXiXs Y $.5.s.k.n.n.m.iXiXiXiXiXiXiXiXiXiXiXiXiXiXiXiXiXiXiXiX",
"iXiXiXiXiXiXiXiXiXiXiXiXiXiXiXiXiXiXiXiXs.s.a.u.u.,.;.O.o.>.) / U I Z iXiXiXiXiXiXiXiXiXiXiXiXiXiXiXiXiXiXiXiXiXiXiXiXiXiXs P | ;.4.a.g.h.h.iXiXiXiXiXiXiXiXiXiXiXiXiXiXiXiXiXiXiXiX",
"iXiXiXiXiXiXiXiXiXiXiXiXiXiXiXiXiXiXiXiX5.3.3.;.:.&.o. .) _ / U I S Z n iXiXiXk n n n n m n n n n n n m m m n l f iXiXiXiXf H E X.:.3.4.4.y.iXiXiXiXiXiXiXiXiXiXiXiXiXiXiXiXiXiXiXiX",
"iXiXiXiXiXiXiXiXiXiXiXiXiXiXiXiXiXiXiXiX . . .| _ | _ / / U U S A Z V n l h k x n n n n m n n n n n n n m m n n h f s = s x Z P E } | X.X.X.iXiXiXiXiXiXiXiXiXiXiXiXiXiXiXiXiXiXiXiX",
"iXiXiXiXiXiXiXiXiXiXiXiXiXiXiXiXiXiXiXiXiXP P P L P J L S A Z Z N B m n n z n n n n n n n n n n n n n n n n n n n z c l x n B Z H H P P Y iXiXiXiXiXiXiXiXiXiXiXiXiXiXiXiXiXiXiXiXiX",
"iXiXiXiXiXiXiXiXiXiXiXiXiXiXiXiXiXiXiXiXiXiXf f f f g g g h h k c x n n n n n n n n n n n n n n n n n n n n n n n m m M n n x j h g f d iXiXiXiXiXiXiXiXiXiXiXiXiXiXiXiXiXiXiXiXiXiX",
"iXiXiXiXiXiXiXiXiXiXiXiXiXiXiXiXiXiXiXiXiXiXiXiXiXiXiXiXiXf g g h j 6 n n m m m n n n n n n n n m n n m m n n n m m V m m n h - iXiXiXiXiXiXiXiXiXiXiXiXiXiXiXiXiXiXiXiXiXiXiXiXiXiX",
"iXiXiXiXiXiXiXiXiXiXiXiXiXiXiXiXiXiXiXiXiXiXiXiXiXiXiXiXs f g g h j x n m m n n m n n n n n n n n n n n m n n n m m m V m x g iXiXiXiXiXiXiXiXiXiXiXiXiXiXiXiXiXiXiXiXiXiXiXiXiXiXiX",
"iXiXiXiXiXiXiXiXiXiXiXiXiXiXiXiXiXiXiXiXiXiXiXiXiXiXiXiXg g h h h z x n n m m n n n m n n n n n n n n n m n m n n m m m n n j iXiXiXiXiXiXiXiXiXiXiXiXiXiXiXiXiXiXiXiXiXiXiXiXiXiXiX",
"iXiXiXiXiXiXiXiXiXiXiXiXiXiXiXiXiXiXiXiXiXiXiXiXiXiXiXiXh h k c z x n n m m n n n n n n n n n n n n n n n n n n m m m m n n iXiXiXiXiXiXiXiXiXiXiXiXiXiXiXiXiXiXiXiXiXiXiXiXiXiXiXiX",
"iXiXiXiXiXiXiXiXiXiXiXiXiXiXiXiXiXiXiXiXiXiXiXiXiXiXiXiXx n n n n n n m n m n n n m n n m n m m n n m n n n n n n n n n n n iXiXiXiXiXiXiXiXiXiXiXiXiXiXiXiXiXiXiXiXiXiXiXiXiXiXiXiX",
"iXiXiXiXiXiXiXiXiXiXiXiXiXiXiXiXiXiXiXiXiXiXiXiXiXiXiXiXn n n n n n m n n n n n n n n n n n n n n n n n n n n n n n n n n n iXiXiXiXiXiXiXiXiXiXiXiXiXiXiXiXiXiXiXiXiXiXiXiXiXiXiXiX",
"iXiXiXiXiXiXiXiXiXiXiXiXiXiXiXiXiXiXiXiXiXiXiXiXiXiXiXiXiXiXiXiXiXiXiXiXiXiXiXiXiXiXiXiXiXiXiXiXiXiXiXiXiXiXiXiXiXiXiXiXiXiXiXiXiXiXiXiXiXiXiXiXiXiXiXiXiXiXiXiXiXiXiXiXiXiXiXiXiXiX",
"iXiXiXiXiXiXiXiXiXiXiXiXiXiXiXiXiXiXiXiXiXiXiXiXiXiXiXiXiXiXiXiXiXiXiXiXiXiXiXiXiXiXiXiXiXiXiXiXiXiXiXiXiXiXiXiXiXiXiXiXiXiXiXiXiXiXiXiXiXiXiXiXiXiXiXiXiXiXiXiXiXiXiXiXiXiXiXiXiXiX",
"iXiXiXiXiXiXiXiXiXiXiXiXiXiXiXiXiXiXiXiXiXiXiXiXiXiXiXiXiXiXiXiXiXiXiXiXiXiXiXiXiXiXiXiXiXiXiXiXiXiXiXiXiXiXiXiXiXiXiXiXiXiXiXiXiXiXiXiXiXiXiXiXiXiXiXiXiXiXiXiXiXiXiXiXiXiXiXiXiXiX",
"iXiXiXiXiXiXiXiXiXiXiXiXiXiXiXiXiXiXiXiXiXiXiXiXiXiXiXiXiXiXiXiXiXiXiXiXiXiXiXiXiXiXiXiXiXiXiXiXiXiXiXiXiXiXiXiXiXiXiXiXiXiXiXiXiXiXiXiXiXiXiXiXiXiXiXiXiXiXiXiXiXiXiXiXiXiXiXiXiXiX",
"iXiXiXiXiXiXiXiXiXiXiXiXiXiXiXiXiXiXiXiXiXiXiXiXiXiXiXiXiXiXiXiXiXiXiXiXiXiXiXiXiXiXiXiXiXiXiXiXiXiXiXiXiXiXiXiXiXiXiXiXiXiXiXiXiXiXiXiXiXiXiXiXiXiXiXiXiXiXiXiXiXiXiXiXiXiXiXiXiXiX",
"iXiXiXiXiXiXiXiXiXiXiXiXiXiXiXiXiXiXiXiXiXiXiXiXiXiXiXiXiXiXiXiXiXiXiXiXiXiXiXiXiXiXiXiXiXiXiXiXiXiXiXiXiXiXiXiXiXiXiXiXiXiXiXiXiXiXiXiXiXiXiXiXiXiXiXiXiXiXiXiXiXiXiXiXiXiXiXiXiXiX",
"iXiXiXiXiXiXiXiXiXiXiXiXiXiXiXiXiXiXiXiXiXiXiXiXiXiXiXiXiXiXiXiXiXiXiXiXiXiXiXiXiXiXiXiXiXiXiXiXiXiXiXiXiXiXiXiXiXiXiXiXiXiXiXiXiXiXiXiXiXiXiXiXiXiXiXiXiXiXiXiXiXiXiXiXiXiXiXiXiXiX",
"iXiXiXiXiXiXiXiXiXiXiXiXiXiXiXiXiXiXiXiXiXiXiXiXiXiXiXiXiXiXiXiXiXiXiXiXiXiXiXiXiXiXiXiXiXiXiXiXiXiXiXiXiXiXiXiXiXiXiXiXiXiXiXiXiXiXiXiXiXiXiXiXiXiXiXiXiXiXiXiXiXiXiXiXiXiXiXiXiXiX",
"iXiXiXiXiXiXiXiXiXiXiXiXiXiXiXiXiXiXiXiXiXiXiXiXiXiXiXiXiXiXiXiXiXiXiXiXiXiXiXiXiXiXiXiXiXiXiXiXiXiXiXiXiXiXiXiXiXiXiXiXiXiXiXiXiXiXiXiXiXiXiXiXiXiXiXiXiXiXiXiXiXiXiXiXiXiXiXiXiXiX",
"iXiXiXiXiXiXiXiXiXiXiXiXiXiXiXiXiXiXiXiXiXiXiXiXiXiXiXiXiXiXiXiXiXiXiXiXiXiXiXiXiXiXiXiXiXiXiXiXiXiXiXiXiXiXiXiXiXiXiXiXiXiXiXiXiXiXiXiXiXiXiXiXiXiXiXiXiXiXiXiXiXiXiXiXiXiXiXiXiXiX",
"iXiXiXiXiXiXiXiXiXiXiXiXiXiXiXiXiXiXiXiXiXiXiXiXiXiXiXiXiXiXiXiXiXiXiXiXiXiXiXiXiXiXiXiXiXiXiXiXiXiXiXiXiXiXiXiXiXiXiXiXiXiXiXiXiXiXiXiXiXiXiXiXiXiXiXiXiXiXiXiXiXiXiXiXiXiXiXiXiXiX",
"iXiXiXiXiXiXiXiXiXiXiXiXiXiXiXiXiXiXiXiXiXiXiXiXiXiXiXiXiXiXiXiXiXiXiXiXiXiXiXiXiXiXiXiXiXiXiXiXiXiXiXiXiXiXiXiXiXiXiXiXiXiXiXiXiXiXiXiXiXiXiXiXiXiXiXiXiXiXiXiXiXiXiXiXiXiXiXiXiXiX",
"iXiXiXiXiXiXiXiXiXiXiXiXiXiXiXiXiXiXiXiXiXiXiXiXiXiXiXiXiXiXiXiXiXiXiXiXiXiXiXiXiXiXiXiXiXiXiXiXiXiXiXiXiXiXiXiXiXiXiXiXiXiXiXiXiXiXiXiXiXiXiXiXiXiXiXiXiXiXiXiXiXiXiXiXiXiXiXiXiXiX",
"iXiXiXiXiXiXiXiXiXiXiXiXiXiXiXiXiXiXiXiXiXiXiXiXiXiXiXiXiXiXiXiXiXiXiXiXiXiXiXiXiXiXiXiXiXiXiXiXiXiXiXiXiXiXiXiXiXiXiXiXiXiXiXiXiXiXiXiXiXiXiXiXiXiXiXiXiXiXiXiXiXiXiXiXiXiXiXiXiXiX",
"iXiXiXiXiXiXiXiXiXiXiXiXiXiXiXiXiXiXiXiXiXiXiXiXiXiXiXiXiXiXiXiXiXiXiXiXiXiXiXiXiXiXiXiXiXiXiXiXiXiXiXiXiXiXiXiXiXiXiXiXiXiXiXiXiXiXiXiXiXiXiXiXiXiXiXiXiXiXiXiXiXiXiXiXiXiXiXiXiXiX",
"iXiXiXiXiXiXiXiXiXiXiXiXiXiXiXiXiXiXiXiXiXiXiXiXiXiXiXiXiXiXiXiXiXiXiXiXiXiXiXiXiXiXiXiXiXiXiXiXiXiXiXiXiXiXiXiXiXiXiXiXiXiXiXiXiXiXiXiXiXiXiXiXiXiXiXiXiXiXiXiXiXiXiXiXiXiXiXiXiXiX",
"iXiXiXiXiXiXiXiXiXiXiXiXiXiXiXiXiXiXiXiXiXiXiXiXiXiXiXiXiXiXiXiXiXiXiXiXiXiXiXiXiXiXiXiXiXiXiXiXiXiXiXiXiXiXiXiXiXiXiXiXiXiXiXiXiXiXiXiXiXiXiXiXiXiXiXiXiXiXiXiXiXiXiXiXiXiXiXiXiXiX",
"iXiXiXiXiXiXiXiXiXiXiXiXiXiXiXiXiXiXiXiXiXiXiXiXiXiXiXiXiXiXiXiXiXiXiXiXiXiXiXiXiXiXiXiXiXiXiXiXiXiXiXiXiXiXiXiXiXiXiXiXiXiXiXiXiXiXiXiXiXiXiXiXiXiXiXiXiXiXiXiXiXiXiXiXiXiXiXiXiXiX",
"iXiXiXiXiXiXiXiXiXiXiXiXiXiXiXiXiXiXiXiXiXiXiXiXiXiXiXiXiXiXiXiXiXiXiXiXiXiXiXiXiXiXiXiXiXiXiXiXiXiXiXiXiXiXiXiXiXiXiXiXiXiXiXiXiXiXiXiXiXiXiXiXiXiXiXiXiXiXiXiXiXiXiXiXiXiXiXiXiXiX",
"iXiXiXiXiXiXiXiXiXiXiXiXiXiXiXiXiXiXiXiXiXiXiXiXiXiXiXiXiXiXiXiXiXiXiXiXiXiXiXiXiXiXiXiXiXiXiXiXiXiXiXiXiXiXiXiXiXiXiXiXiXiXiXiXiXiXiXiXiXiXiXiXiXiXiXiXiXiXiXiXiXiXiXiXiXiXiXiXiXiX",
"iXiXiXiXiXiXiXiXiXiXiXiXiXiXiXiXiXiXiXiXiXiXiXiXiXiXiXiXiXiXiXiXiXiXiXiXiXiXiXiXiXiXiXiXiXiXiXiXiXiXiXiXiXiXiXiXiXiXiXiXiXiXiXiXiXiXiXiXiXiXiXiXiXiXiXiXiXiXiXiXiXiXiXiXiXiXiXiXiXiX"
};
