/* XPM */
static char *result[] = {
/* columns rows colors chars-per-pixel */
"90 105 247 2 ",
"   c #000000",
".  c #000E00",
"X  c #070808",
"o  c #011200",
"O  c #0D130C",
"+  c #041506",
"@  c #15150D",
"#  c #081313",
"$  c #141513",
"%  c #1A161B",
"&  c #1D181E",
"*  c #171615",
"=  c #000D1B",
"-  c #2A1B0A",
";  c #21171B",
":  c #311E11",
">  c #362618",
",  c #000723",
"<  c #181526",
"1  c #15062C",
"2  c #251A24",
"3  c #2B1C2B",
"4  c #261625",
"5  c #311C2E",
"6  c #341D33",
"7  c #391A38",
"8  c #2E0B32",
"9  c #2B2625",
"0  c #3D223B",
"q  c #352135",
"w  c #3A2E29",
"e  c #142500",
"r  c #452705",
"t  c #503211",
"y  c #6F390A",
"u  c #410039",
"i  c #492C27",
"p  c #40233E",
"a  c #4D2A36",
"s  c #51362E",
"d  c #693C29",
"f  c #6D3D32",
"g  c #3E402C",
"h  c #7A4701",
"j  c #794714",
"k  c #6F4011",
"l  c #4D4F37",
"z  c #7A4623",
"x  c #784537",
"c  c #714E30",
"v  c #370D47",
"b  c #13004A",
"n  c #4B1C46",
"m  c #4A1C46",
"M  c #531E4E",
"N  c #571E53",
"B  c #4D0652",
"V  c #660D5F",
"C  c #442443",
"Z  c #4C264B",
"A  c #4D294B",
"S  c #482548",
"D  c #522A4E",
"F  c #52234E",
"G  c #5A3549",
"H  c #552B53",
"J  c #592D57",
"K  c #5C2D5B",
"L  c #582557",
"P  c #5D3156",
"I  c #4E2651",
"U  c #6B394A",
"Y  c #76384A",
"T  c #612E5E",
"R  c #64235D",
"E  c #62315A",
"W  c #6A3454",
"Q  c #763759",
"!  c #65274A",
"~  c #5A076C",
"^  c #540C67",
"/  c #780379",
"(  c #6D1476",
")  c #75187B",
"_  c #6A0F6A",
"`  c #5E2861",
"'  c #642362",
"]  c #652D62",
"[  c #6A2D65",
"{  c #6D2D6A",
"}  c #6B2567",
"|  c #73256C",
" . c #732D6E",
".. c #673163",
"X. c #7A2674",
"o. c #762D71",
"O. c #7B2C75",
"+. c #7E2D78",
"@. c #7B2379",
"#. c #7A3475",
"$. c #72306D",
"%. c #334243",
"&. c #595249",
"*. c #745E52",
"=. c #6F4E4D",
"-. c #766758",
";. c #776B58",
":. c #79526B",
">. c #757069",
",. c #873D00",
"<. c #844B04",
"1. c #834C1B",
"2. c #844D14",
"3. c #94580D",
"4. c #AB6A1B",
"5. c #895629",
"6. c #865537",
"7. c #8D562A",
"8. c #A66A3A",
"9. c #B06F2F",
"0. c #A36218",
"q. c #CD7606",
"w. c #85007C",
"e. c #87007E",
"r. c #88376D",
"t. c #832C7D",
"y. c #86297D",
"u. c #8A387A",
"i. c #8D326F",
"p. c #844648",
"a. c #925955",
"s. c #915649",
"d. c #8A6B53",
"f. c #B0734E",
"g. c #8B4774",
"h. c #AA5774",
"j. c #85716B",
"k. c #B6716D",
"l. c #C47D54",
"z. c #C3794B",
"x. c #C26C79",
"c. c #C26E76",
"v. c #C9756F",
"b. c #ED8D1B",
"n. c #F08F1F",
"m. c #CB823B",
"M. c #D48438",
"N. c #F49328",
"B. c #F69637",
"V. c #EF902E",
"C. c #B58F77",
"Z. c #97816C",
"A. c #D58845",
"S. c #D38852",
"D. c #EA964A",
"F. c #F59C49",
"G. c #EB9652",
"H. c #E99655",
"J. c #F39C52",
"K. c #F99F53",
"L. c #E28D42",
"P. c #F9A24B",
"I. c #FBA155",
"U. c #DE8A64",
"Y. c #DB8763",
"T. c #E18C64",
"R. c #EF9B63",
"E. c #F2A368",
"W. c #EBA371",
"Q. c #D4A07F",
"!. c #7D1383",
"~. c #8C0083",
"^. c #890C8F",
"/. c #850989",
"(. c #84118A",
"). c #8A168A",
"_. c #941D8E",
"`. c #8B0991",
"'. c #910D8E",
"]. c #872D80",
"[. c #8C2C85",
"{. c #8A2484",
"}. c #93248C",
"|. c #942D8C",
" X c #982E8F",
".X c #912F86",
"XX c #93338A",
"oX c #933386",
"OX c #992E91",
"+X c #942890",
"@X c #9B3292",
"#X c #8B3782",
"$X c #9E4186",
"%X c #91538C",
"&X c #A24489",
"*X c #A15C9B",
"=X c #94738D",
"-X c #A87094",
";X c #A777A2",
":X c #C86E80",
">X c #858585",
",X c #8C8C8C",
"<X c #888785",
"1X c #9E998D",
"2X c #908E89",
"3X c #A5988A",
"4X c #A89B92",
"5X c #A88E90",
"6X c #AEA29C",
"7X c #B993B5",
"8X c #B292AA",
"9X c #B9A9A7",
"0X c #B3A9AC",
"qX c #D4AC93",
"wX c #EAB493",
"eX c #C7B7AC",
"rX c #C5BCB5",
"tX c #C6B9B4",
"yX c #D3B6AC",
"uX c #E8BEA7",
"iX c #C9C3BB",
"pX c #D6C2B6",
"aX c #F9CBB2",
"sX c #F3C6AE",
"dX c #C9B4C5",
"fX c #CDCAC7",
"gX c #D3CCC8",
"hX c #D6D2CD",
"jX c #D5D5D5",
"kX c #DBDAD8",
"lX c #CFC9D0",
"zX c #E2DBD9",
"xX c #ECD6CA",
"cX c #EEE3DD",
"vX c #DEDFE0",
"bX c #E5DDE4",
"nX c #E5E5E5",
"mX c #EDEBEA",
"MX c #E9E6E6",
"NX c #FAEBE5",
"BX c #F7F1ED",
"VX c #F4F3F2",
"CX c #FEFEFE",
"ZX c #FBFAF6",
"AX c #EFF1ED",
"SX c #DDE1DF",
"DX c None",
/* pixels */
"DXDXDXDXDXDXDXDXDXDXDXDXDXDXDXDXDXDXDXDXDXDXDXDXDXDXDXDXDXDXDXDXo o o o o . o . . o o o o o . . DXDXDXDXDXDXDXDXDXDXDXDXDXDXDXDXDXDXDXDXDXDXDXDXDXDXDXDXDXDXDXDXDXDXDXDXDXDXDXDXDXDX",
"DXDXDXDXDXDXDXDXDXDXDXDXDXDXDXDXDXDXDXDXDXDXDXDXDXDXDXDXDXDXDXDXo o o o o o o o o o o o o O O O DXDXDXDXDXDXDXDXDXDXDXDXDXDXDXDXDXDXDXDXDXDXDXDXDXDXDXDXDXDXDXDXDXDXDXDXDXDXDXDXDXDX",
"DXDXDXDXDXDXDXDXDXDXDXDXDXDXDXDXDXDXDXDXDXDXDXDXDXDXDXDXDXDXDXm n M M m n n n n m m m M m 7 3 2 DXDXDXDXDXDXDXDXDXDXDXDXDXDXDXDXDXDXDXDXDXDXDXDXDXDXDXDXDXDXDXDXDXDXDXDXDXDXDXDXDXDX",
"DXDXDXDXDXDXDXDXDXDXDXDXDXDXDXDXDXDXDXDXDXDXDXDXDXDXDXDXDXDX3 L | X.X.| | | | | | | X.| } H p 9 o DXDXDXDXDXDXDXDXDXDXDXDXDXDXDXDXDXDXDXDXDXDXDXDXDXDXDXDXDXDXDXDXDXDXDXDXDXDXDXDXDX",
"DXDXDXDXDXDXDXDXDXDXDXDXDXDXDXDXDXDXDXDXDXDXDXDXDXDXDXDXDXo 3 R y.|.|.[.[.[.[.[.[.[.[.[.+.{ A q + . DXDXDXDXDXDXDXDXDXDXDXDXDXDXDXDXDXDXDXDXDXDXDXDXDXDXDXDXDXDXDXDXDXDXDXDXDXDXDXDX",
"DXDXDXDXDXDXDXDXDXDXDXDXDXDXDXDXDXDXDXDXDXDXDXDXDXDXDXDXDXo 3 ' ]. X X XOXOX XOX XOXOXOX[.+...K n 6 4 DXDXDXDXDXDXDXDXDXDXDXDXDXDXDXDXDXDXDXDXDXDXDXDXDXDXDXDXDXDXDXDXDXDXDXDXDXDXDX",
"DXDXDXDXDXDXDXDXDXDXDXDXDXDXDXDXDXDXDXDXDXDXDXDXDXDXDXDXDX+ 9 K o.[.XXOXOX X X XOX XOX|.XX[.O.O.o.R m . DXDXDXDXDXDXDXDXDXDXDXDXDXDXDXDXDXDXDXDXDXDXDXDXDXDXDXDXDXDXDXDXDXDXDXDXDXDX",
"DXDXDXDXDXDXDXDXDXDXDXDXDXDXDXDXDXDXDXDXDXDXDXDXDXDXDXDXDXO 3 Z ] o.t. XOX X|.|.|.|.|.|.XX[.[.[.[.X.M . X DXDXDXDXDXDXDXDXDXDXDXDXDXDXDXDXDXDXDXDXDXDXDXDXDXDXDXDXDXDXDXDXDXDXDXDXDX",
"DXDXDXDXDXDXDXDXDXDXDXDXDXDXDXDXDXDXDXDXDXDXDXDXDXDXDXDXDX* 2 0 A ] #.[.XX|.|.|.|.|.|.|.|.|.|.OXOX[.| 5 o DXDXDXDXDXDXDXDXDXDXDXDXDXDXDXDXDXDXDXDXDXDXDXDXDXDXDXDXDXDXDXDXDXDXDXDXDX",
"DXDXDXDXDXDXDXDXDXDXDXDXDXDXDXDXDXDXDXDXDXDXDXDXDXDXDXDXDX< 3 q q H [ O.[.[.|.|.|.|.|.|.|. X XOXOX|.y.} n 7 DXDXDXDXDXDXDXDXDXDXDXDXDXDXDXDXDXDXDXDXDXDXDXDXDXDXDXDXDXDXDXDXDXDXDXDX",
"DXDXDXDXDXDXDXDXDXDXDXDXDXDXDXDXDXDXDXDXDXDXDXDXDXDXDXDXDX2 2 9 3 0 H ] o.[.|.|.|.|.|.|.|.|.|. XOX X|.{.| m . DXDXDXDXDXDXDXDXDXDXDXDXDXDXDXDXDXDXDXDXDXDXDXDXDXDXDXDXDXDXDXDXDXDXDX",
"DXDXDXDXDXDXDXDXDXDXDXDXDXDXDXDXDXDXDXDXDXDXDXDXDXDXDXDXDX2 2 2 % 6 C H o.].|. X|.|.|.[.[.|.|.|.|.|.OX|.X.M o o DXDXDXDXDXDXDXDXDXDXDXDXDXDXDXDXDXDXDXDXDXDXDXDXDXDXDXDXDXDXDXDXDXDX",
"DXDXDXDXDXDXDXDXDXDXDXDXDXDXDXDXDXDXDXDXDXDXDXDXDXDXDXDXDX2 3 3 3 0 H ] O.].|.|.|.|.|.[.|.|.|.[.y.t..X.X+.L 3 o DXDXDXDXDXDXDXDXDXDXDXDXDXDXDXDXDXDXDXDXDXDXDXDXDXDXDXDXDXDXDXDXDXDX",
"DXDXDXDXDXDXDXDXDXDXDXDXDXDXDXDXDXDXDXDXDXDXDXDXDXDXDXDXDX< 2 q q D [ +.].|.|.|.|.|.|.|.|.|.XX#XO. .$.$.[ K p 9 + DXDXDXDXDXDXDXDXDXDXDXDXDXDXDXDXDXDXDXDXDXDXDXDXDXDXDXDXDXDXDXDXDX",
"DXDXDXDXDXDXDXDXDXDXDXDXDXDXDXDXDXDXDXDXDXDXDXDXDXDXDXDXDX% 4 p A ..#.[.|.|.|.|.|.|.[.|.|.|.|.#.[ K K E ` K H C * . DXDXDXDXDXDXDXDXDXDXDXDXDXDXDXDXDXDXDXDXDXDXDXDXDXDXDXDXDXDXDXDX",
"DXDXDXDXDXDXDXDXDXDXDXDXDXDXDXDXDXDXDXDXDXDXDXDXDXDXDXDXDX# 4 Z ] o.].|.OX|.|.|.|.|.+X|.+X+X[.!.[ ` ` ] [ { [ ' N 8 1 DXDXDXDXDXDXDXDXDXDXDXDXDXDXDXDXDXDXDXDXDXDXDXDXDXDXDXDXDXDXDX",
"DXDXDXDXDXDXDXDXDXDXDXDXDXDXDXDXDXDXDXDXDXDXDXDXDXDXDXDXDX. < N o.[.|. XOX+X|. X|.+X_.).^.).).!.) ( ( ( ) !.) !./ ^ b   DXDXDXDXDXDXDXDXDXDXDXDXDXDXDXDXDXDXDXDXDXDXDXDXDXDXDXDXDXDX",
"DXDXDXDXDXDXDXDXDXDXDXDXDXDXDXDXDXDXDXDXDXDXDXDXDXDXDXDXDX. 4 R {.}. X X+X+X|. X+X+X_.).^.^.^.(.(.(.!./.(.).!.(.`.~ v     DXDXDXDXDXDXDXDXDXDXDXDXDXDXDXDXDXDXDXDXDXDXDXDXDXDXDXDXDX",
"DXDXDXDXDXDXDXDXDXDXDXDXDXDXDXDXDXDXDXDXDXDXDXDXDXDXDXDXDXe i } t.XXoXoX.X.XoXoX[.#X$X&X&X$X&X&X&X&X&X&X&X&X&X&X&X$Xg.d r DXDXDXDXDXDXDXDXDXDXDXDXDXDXDXDXDXDXDXDXDXDXDXDXDXDXDXDXDX",
"DXDXDXDXDXDXDXDXDXDXDXDXDXDXDXDXDXDXDXDXDXDXDXDXDXDXDXDXw r s Y r.u.r.r.g.r.r.r.r.g.h.c.x.c.c.c.:Xx.x.:Xx.x.x.x.:Xx.f.f.5.t DXDXDXDXDXDXDXDXDXDXDXDXDXDXDXDXDXDXDXDXDXDXDXDXDXDXDXDX",
"DXDXDXDXDXDXDXDXDXDXDXDXDXDXDXDXDXDXDXDXDXDXDXDXDXDXDX< i y d 6.6.p.p.p.s.=.p.Y Y s.l.T.T.T.T.U.U.T.Y.U.U.U.U.U.T.T.H.S.9.c   DXDXDXDXDXDXDXDXDXDXDXDXDXDXDXDXDXDXDXDXDXDXDXDXDXDXDX",
"DXDXDXDXDXDXDXDXDXDXDXDXDXDXDXDXDXDXDXDXDXDXDXDXDXDX, < i d 2.1.2.2.j 2.j 2.<.h h 7.z.G.I.I.P.J.J.J.J.F.J.P.F.D.J.K.I.J.S.7.X   DXDXDXDXDXDXDXDXDXDXDXDXDXDXDXDXDXDXDXDXDXDXDXDXDXDX",
"DXDXDXDXDXDXDXDXDXDXDXDXDXDXDXDXDXDXDXDXDXDXDXDXDXDX, < s j 2.<.<.h <.h <.h h h h 3.M.B.I.P.K.P.P.F.P.P.P.P.P.P.P.P.I.I.H.m.5.j DXDXDXDXDXDXDXDXDXDXDXDXDXDXDXDXDXDXDXDXDXDXDXDXDXDX",
"DXDXDXDXDXDXDXDXDXDXDXDXDXDXDXDXDXDXDXDXDXDXDXDXDX% = = t d 3.<.<.<.<.<.h <.h h h 3.M.P.P.P.P.P.P.P.P.P.P.P.P.P.P.P.P.P.D.D.A.0.r     . DXDXDXDXDXDXDXDXDXDXDXDXDXDXDXDXDXDXDXDXDXDX",
"DXDXDXDXDXDXDXDXDXDXDXDXDXDXDXDXDXDXDXDXDXDXDXDX2 2 < < i d j 2.j 1.1.1.1.1.1.y y 7.z.F.K.J.K.J.J.J.J.H.J.J.J.J.J.J.J.J.J.K.G.8.t     + + DXDXDXDXDXDXDXDXDXDXDXDXDXDXDXDXDXDXDXDXDX",
"DXDXDXDXDXDXDXDXDXDXDXDXDXDXDXDXDXDXDXDXDXDXDXq q p v 6 a f x x x x z x x x x f f 6.l.T.T.Y.S.S.Y.T.T.T.U.U.U.T.U.Y.U.T.T.W.U.v.Y b B F m DXDXDXDXDXDXDXDXDXDXDXDXDXDXDXDXDXDXDXDXDX",
"DXDXDXDXDXDXDXDXDXDXDXDXDXDXDXDXDXDXDX* $ o * q S H A A D U W =.=.U Y U U U Y U U =.h.-Xc.f.f.k.x.x.x.k.x.k.x.k.k.k.:Xk.x.v.c.h.r.( ) X.R 5   X . DXDXDXDXDXDXDXDXDXDXDXDXDXDXDXDXDX",
"DXDXDXDXDXDXDXDXDXDXDXDXDXDXDXDXDXDXDX< & $ < 0 H K K J P K P K E E E E W E E K P Q u.$Xu.g.r.r.oX@X&X&X&X@X$X&X$X$X$X$X&X&X$XoX.X[.|.|.| 7 o . o o DXDXDXDXDXDXDXDXDXDXDXDXDXDXDXDX",
"DXDXDXDXDXDXDXDXDXDXDXDXDXDXDXDXDXDX6 q 0 5 q S J T ..T K T K K K K K ` K ` K K K ` !.!.!.^ ^ ~ ).^.`.^.^.`.^.^.^.`./.`.`./.`._.OXOXOXOXy.N 7 7 m p DXDXDXDXDXDXDXDXDXDXDXDXDXDXDXDX",
"DXDXDXDXDXDXDXDXDXDXDXDXDXDXDX# DX2 7 C A A A H P K K K K K K K I K K K K J ` J K [ !.+X!.^ I ( ).'._.^.^.^.^.^.^.`.`.`.`.`.`._.OXOX@X@X.Xy.| |  .' M DXDXDXDXDXDXDXDXDXDXDXDXDXDXDX",
"DXDXDXDXDXDXDXDXDXDXDXDXDXDX% $ O 2 C H K J J J P J J J J J J K K K J K J K H K P ..{.+X+X{ ` o.|.+X+X+X+X+X+X+X+X+X+X_._._._.+XOXOXOXOX|..X[.|..Xt.N + DXDXDXDXDXDXDXDXDXDXDXDXDXDX",
"DXDXDXDXDXDXDXDXDXDXDXDXDX3 3 q 9 6 A K ] ] K ] T ..T ......T T ..` T T T ..T J P ..!.[.].{ K o.].|.|.|..X[.|.[.|.[.XX#XoXXXXX|..X{..X[.[.|.|. X|.y.N O . DXDXDXDXDXDXDXDXDXDXDXDXDX",
"DXDXDXDXDXDXDXDXDXDXDXDX5 p S A C A J K ....E { $.+.+.o.O.o.X.o.o.o.| X.X.@.X.[ J G ..o.{ L m N _ | t.r.r.r.r.t.i.O.g.g.g.%Xu.u.X.| ) X.t.X.t.y.y.| M @ o DXDXDXDXDXDXDXDXDXDXDXDXDX",
"DXDXDXDXDXDXDXDXDXDXDX& q Z J K J K K ] E K .. .].XX[..X[.{.{.{.{.{.{.{.{.{.{. .P w &.J D 8 1 1 v B ! Y Y Y Y Y Y Y :.d.j.j.:.=.D m n M M M M L M n 7 $ o DXDXDXDXDXDXDXDXDXDXDXDXDX",
"DXDXDXDXDXDXDXDXDXDXDX& 0 D K T E K K K K P K  .[.XX X|.|.|.|.|.+XXX[.XX|. X[.#.G w g g s s r r r t y j 1.1.j 2.<.c d.;.;.j.>.&.9     O @ O @ O O @ $ $ $ DXDXDXDXDXDXDXDXDXDXDXDXDX",
"DXDXDXDXDXDXDXDXDXDX& < 0 Z H K K J J H H A H } @.].y.y.t.t.#Xu.#X#X#X#X#XoXg.$.&.l l l l 7.0.7.3.3.0.4.9.4.4.4.4.8.d.;.;.j.;.l e     o . . X . . o o $ DXDXDXDXDXDXDXDXDXDXDXDXDXDX",
"DXDXDXDXDXDXDXDXDXDX2 2 6 C C A S S C C S C C H K } ' R E Q Q Q Q W Q Q Q Q Q =.&.l &.*.d.f.M.z.A.m.m.A.m.A.A.M.m.A.f.;.>.Z.;.l >     DXDXDXDXDXDXDXDXDXDXDXDXDXDXDXDXDXDXDXDXDXDXDX",
"DXDXDXDXDXDXDXDXDXDXDX2 9 5 3 5 3 3 5 3 3 9 3 5 6 6 8 8 a l *.-.*.-.*.-.*.*.*.*.;.>.>.;.f.S.J.J.H.H.G.G.G.G.H.H.J.A.C.>.>.j.d.&.w   DXDXDXDXDXDXDXDXDXDXDXDXDXDXDXDXDXDXDXDXDXDXDXDX",
"DXDXDXDXDXDXDXDXDXDXDX2 2 < * % % & * * * < % O o o     &.>X4X4X4X1X1X1X1X1X1X2XZ.Z.>.;.f.H.K.K.J.I.I.R.I.I.J.I.I.H.f.-.&.*.-.l 9   DXDXDXDXDXDXDXDXDXDXDXDXDXDXDXDXDXDXDXDXDXDXDXDX",
"DXDXDXDXDXDXDXDXDXDXDXDXDXDXDXDXDXDXDXDXDXDXDXDXDX.     >.0XfXjXgXfXfXgXgXhXlXrX9X1Xj.&.f.S.K.K.J.J.H.I.J.J.J.I.I.S.f.&.%.&.&.l 9 DXDXDXDXDXDXDXDXDXDXDXDXDXDXDXDXDXDXDXDXDXDXDXDXDX",
"DXDXDXDXDXDXDXDXDXDXDXDXDXDXDXDXDXDXDXDXDXDXDXDXDXDX    >XlXVXZXVXAXVXVXVXVXVXvXgX6XZ.c 3.V.J.K.J.G.G.H.J.J.J.K.I.A.f.w , 9 9 9 DXDXDXDXDXDXDXDXDXDXDXDXDXDXDXDXDXDXDXDXDXDXDXDXDXDX",
"DXDXDXDXDXDXDXDXDXDXDXDXDXDXDXDXDXDXDXDXDXDXDXDXDXDXDX  ,XkXCXCXCXCXCXCXCXCXCXAXkXeX3X6.0.A.J.K.J.J.J.H.G.J.G.J.I.L.0.X       DXDXDXDXDXDXDXDXDXDXDXDXDXDXDXDXDXDXDXDXDXDXDXDXDXDXDX",
"DXDXDXDXDXDXDXDXDXDXDXDXDXDXDXDXDXDXDXDXDXDXDXDXDXDXDX  ,XSXCXCXCXCXCXCXCXCXCXAXjXeXQ.9.q.M.J.J.G.F.B.B.V.B.B.B.F.M.3.      DXDXDXDXDXDXDXDXDXDXDXDXDXDXDXDXDXDXDXDXDXDXDXDXDXDXDXDX",
"DXDXDXDXDXDXDXDXDXDXDXDXDXDXDXDXDXDXDXDXDXDXDXDXDXDX    ,XSXCXCXCXCXCXCXCXCXCXmXhXyXQ.A.b.D.J.J.D.B.V.b.b.b.n.N.n.b.<.    DXDXDXDXDXDXDXDXDXDXDXDXDXDXDXDXDXDXDXDXDXDXDXDXDXDXDXDXDX",
"DXDXDXDXDXDXDXDXDXDXDXDXDXDXDXDXDXDXDXDXDXDXDXDXDXDX    ,XkXCXCXCXCXCXCXCXCXCXMXhXyXwXH.F.J.J.H.J.H.H.E.E.E.E.I.E.S.f.s , DXDXDXDXDXDXDXDXDXDXDXDXDXDXDXDXDXDXDXDXDXDXDXDXDXDXDXDXDX",
"DXDXDXDXDXDXDXDXDXDXDXDXDXDXDXDXDXDXDXDXDXDXDXDXDXDXDX  ,XkXCXCXCXCXCXCXCXCXZXmXhXeXqXwXW.J.F.H.W.wXuXsXaXaXaXaXaXsX6X>.&.DXDXDXDXDXDXDXDXDXDXDXDXDXDXDXDXDXDXDXDXDXDXDXDXDXDXDXDXDX",
"DXDXDXDXDXDXDXDXDXDXDXDXDXDXDXDXDXDXDXDXDXDXDXDXDXDXDX  ,XkXCXCXCXCXCXCXCXCXCXMXgXrXyXpXwXG.b.H.qXyXxXNXBXNXNXNXZXNXgX6X>.&.X DXDXDXDXDXDXDXDXDXDXDXDXDXDXDXDXDXDXDXDXDXDXDXDXDXDXDX",
"DXDXDXDXDXDXDXDXDXDXDXDXDXDXDXDXDXDXDXDXDXDXDXDXDXDX    ,XkXCXCXCXCXCXCXCXCXZXMXhXrXiXiXqXW.D.Q.yXhXMXCXCXCXCXCXCXBXzXfX6X>.    DXDXDXDXDXDXDXDXDXDXDXDXDXDXDXDXDXDXDXDXDXDXDXDXDXDX",
"DXDXDXDXDXDXDXDXDXDXDXDXDXDXDXDXDXDXDXDXDXDXDXDXDXDX  8 =XfXMXmXbXbXbXvXnXCXCXAXgXiX0XfXpXwXwXsXhXkXSXnXMXMXMXMXnXnXMXzXrX>.X   DXDXDXDXDXDXDXDXDXDXDXDXDXDXDXDXDXDXDXDXDXDXDXDXDXDX",
"DXDXDXDXDXDXDXDXDXDXDXDXDXDXDXDXDXDXDXDXDXDXDXDXDXo B V %X8XdXdXdXdX7X0XlXVXCXAXhXiXiXiXgXxXcXNXmXSXfX9X6X9X9X6X6XrXzXmXhX<X  DXDXDXDXDXDXDXDXDXDXDXDXDXDXDXDXDXDXDXDXDXDXDXDXDXDXDX",
"DXDXDXDXDXDXDXDXDXDXDXDXDXDXDXDXDXDXDXDXDXDXDXDXX ; V y.@X*X*X*X*X%X#.:.0XSXCXVXhXrXrXiXxXMXZXCXCXcXeXs.y 1.6.h y C.kXZXnX,X  DXDXDXDXDXDXDXDXDXDXDXDXDXDXDXDXDXDXDXDXDXDXDXDXDXDXDX",
"DXDXDXDXDXDXDXDXDXDXDXDXDXDXDXDXDXDXDXDXDXDXDX4 4 M t.oX_.~.e.e.~.w.B 8 =XlXAXSXfXiXeXiXkXVXCXCXCXBXiXj.1.a.d.6.6.5XMXCXnX,X    DXDXDXDXDXDXDXDXDXDXDXDXDXDXDXDXDXDXDXDXDXDXDXDXDXDX",
"DXDXDXDXDXDXDXDXDXDXDXDXDXDXDXDXDXDXDXDXDXDX$ m N t.[. X}.~.e.e.~.w._ V g.0XdXfXiXiXiXpXkXVXCXCXCXVXzXeX9XeXeX9XeXgXVXCXvX,X      DXDXDXDXDXDXDXDXDXDXDXDXDXDXDXDXDXDXDXDXDXDXDXDXDX",
"DXDXDXDXDXDXDXDXDXDXDXDXDXDXDXDXDXDXDXDXDX. $ N X.[. X|. X}.{._.{.}.~.).%Xg.=X6XiXiXiXiXkXBXCXCXCXCXVXmXMXmXmXmXMXAXCXCXkX>X      $ DXDXDXDXDXDXDXDXDXDXDXDXDXDXDXDXDXDXDXDXDXDXDXDX",
"DXDXDXDXDXDXDXDXDXDXDXDXDXDXDXDXDXDXDXDXDX. $ R y.OXOX|.oX|.|.|.|.oX X Xw.B B =X0XrXiXiXhXBXCXCXCXCXCXCXCXCXCXCXCXCXCXCXjX>X    O @ DXDXDXDXDXDXDXDXDXDXDXDXDXDXDXDXDXDXDXDXDXDXDXDX",
"DXDXDXDXDXDXDXDXDXDXDXDXDXDXDXDXDXDXDXDXDX. $ } [.OXOX|.|.|.|.|.|.|.@X Xw.B u :.8XeX8X6XdXMXCXCXCXCXCXCXCXCXCXCXCXCXCXCXjX>X    X $ DXDXDXDXDXDXDXDXDXDXDXDXDXDXDXDXDXDXDXDXDXDXDXDX",
"DXDXDXDXDXDXDXDXDXDXDXDXDXDXDXDXDXDXDXDXDX. $ N ]. X X|.|.|.|.|.|.|. X|.y.V N #.*X-X%X-XtXbXCXCXCXZXCXCXCXCXCXCXCXCXCXCXjX>X    O * DXDXDXDXDXDXDXDXDXDXDXDXDXDXDXDXDXDXDXDXDXDXDXDX",
"DXDXDXDXDXDXDXDXDXDXDXDXDXDXDXDXDXDXDXDXDX. @ R y.|. X|.|.|.|.[.|.|. X|.].{ T  .[._.e.~.7XbXCXCXCXCXCXCXCXCXCXCXCXCXCXCXjX>X    X @ DXDXDXDXDXDXDXDXDXDXDXDXDXDXDXDXDXDXDXDXDXDXDXDX",
"DXDXDXDXDXDXDXDXDXDXDXDXDXDXDXDXDXDXDXDXDXo $ R ].OX X|.|.|.|.|.|.|.|. Xt.$.K _ e.~.w.e.7XbXZXCXCXCXZXCXCXCXCXZXCXCXCXCXjX>X    X @ DXDXDXDXDXDXDXDXDXDXDXDXDXDXDXDXDXDXDXDXDXDXDXDX",
"DXDXDXDXDXDXDXDXDXDXDXDXDXDXDXDXDXDXDXDXDX. $ } [.OX X|.|.|.|.|..X|. XOX[. .T  .).~.w.~.7XbXZXZXCXZXCXCXZXCXCXZXCXCXCXCXjX>X    X $ DXDXDXDXDXDXDXDXDXDXDXDXDXDXDXDXDXDXDXDXDXDXDXDX",
"DXDXDXDXDXDXDXDXDXDXDXDXDXDXDXDXDXDXDXDXDX. $ R ].OXOX|.|.|.|.|.|.|. XXXt.{ E $.[.}.e.~.7XbXCXCXCXCXCXZXCXCXCXCXCXCXCXCXjX>X    O * DXDXDXDXDXDXDXDXDXDXDXDXDXDXDXDXDXDXDXDXDXDXDXDX",
"DXDXDXDXDXDXDXDXDXDXDXDXDXDXDXDXDXDXDXDXDXDX$ M X.{.|.|. XOX X|.|.|.|.[.t...T o.[.}.~.~.7XbXCXCXCXCXCXCXZXCXCXCXCXCXCXCXjX>X    X @ DXDXDXDXDXDXDXDXDXDXDXDXDXDXDXDXDXDXDXDXDXDXDXDX",
"DXDXDXDXDXDXDXDXDXDXDXDXDXDXDXDXDXDXDXDXDXDXDXm N o.]. X@XOX X X X|.].t.{ T T o.[.+X~.~.7XMXCXCXCXCXZXCXCXCXCXZXCXCXCXCXjX>X    X * DXDXDXDXDXDXDXDXDXDXDXDXDXDXDXDXDXDXDXDXDXDXDXDX",
"DXDXDXDXDXDXDXDXDXDXDXDXDXDXDXDXDXDXDXDXDXDXDXDX% n X.|.OXOXXX X X|.t.[ T J T #.|.+X~.~.7XbXCXCXCXZXCXCXCXCXCXCXCXCXCXCXjX>X    X * DXDXDXDXDXDXDXDXDXDXDXDXDXDXDXDXDXDXDXDXDXDXDXDX",
"DXDXDXDXDXDXDXDXDXDXDXDXDXDXDXDXDXDXDXDXDXDXDXDXX % R y..X[.[.{.[.t. .K D H T o.].}.w.~.7XzXZXZXCXCXCXCXCXCXCXZXCXCXCXCXjX>X    X $ DXDXDXDXDXDXDXDXDXDXDXDXDXDXDXDXDXDXDXDXDXDXDXDX",
"DXDXDXDXDXDXDXDXDXDXDXDXDXDXDXDXDXDXDXDXDXDXDXDXDX+ M } X.| | | X.| T D D H E { o.y.w.~.7XlXmXZXCXCXCXCXZXCXCXCXCXCXCXCXkX,X      DXDXDXDXDXDXDXDXDXDXDXDXDXDXDXDXDXDXDXDXDXDXDXDXDX",
"DXDXDXDXDXDXDXDXDXDXDXDXDXDXDXDXDXDXDXDXDXDXDXDXDXDX7 m n m m M L L D S A J E ..E  ./ '.;XtXzXAXZXCXCXCXCXCXZXCXCXCXCXCXkX,X    DXDXDXDXDXDXDXDXDXDXDXDXDXDXDXDXDXDXDXDXDXDXDXDXDXDX",
"DXDXDXDXDXDXDXDXDXDXDXDXDXDXDXDXDXDXDXDXDXDXDXDXDXDXDXo o o o ; q p 0 p S H T K J R / ).-X6XiXzXVXCXCXCXZXZXCXCXCXCXCXCXjX,X  DXDXDXDXDXDXDXDXDXDXDXDXDXDXDXDXDXDXDXDXDXDXDXDXDXDXDX",
"DXDXDXDXDXDXDXDXDXDXDXDXDXDXDXDXDXDXDXDXDXDXDXDXDXDXDX. o . o $ 5 0 0 0 C I L H H T _ !.%X;X0XdXnXZXZXCXCXCXCXCXCXCXCXmXfX>X  DXDXDXDXDXDXDXDXDXDXDXDXDXDXDXDXDXDXDXDXDXDXDXDXDXDXDX",
"DXDXDXDXDXDXDXDXDXDXDXDXDXDXDXDXDXDXDXDXDXDXDXDXDXDXDXDXo o o 2 0 C p C v S S I H ' ` } #.%X*XeXgXMXVXCXCXCXCXCXCXCXAXkX0X>.  DXDXDXDXDXDXDXDXDXDXDXDXDXDXDXDXDXDXDXDXDXDXDXDXDXDXDX",
"DXDXDXDXDXDXDXDXDXDXDXDXDXDXDXDXDXDXDXDXDXDXDXDXDXDXDXDXDXo * q 0 C C C C C Z F K K J P ' w.@X8X9XkXMXZXCXCXCXCXCXVXvXfX6X>.    DXDXDXDXDXDXDXDXDXDXDXDXDXDXDXDXDXDXDXDXDXDXDXDXDXDX",
"DXDXDXDXDXDXDXDXDXDXDXDXDXDXDXDXDXDXDXDXDXDXDXDXDXDXDXDXDXDX$ 2 q 0 0 p a a s ! W W G U Q i.h.-X4XeXxXNXNXNXNXNXNXxXxXqX3X*.    DXDXDXDXDXDXDXDXDXDXDXDXDXDXDXDXDXDXDXDXDXDXDXDXDXDX",
"DXDXDXDXDXDXDXDXDXDXDXDXDXDXDXDXDXDXDXDXDXDXDXDXDXDXDXDXDXDXDX2 3 5 w i a d f f x Y f f s.l.v.k.k.3XwXsXaXaXaXaXaXaXuXW.C.c     DXDXDXDXDXDXDXDXDXDXDXDXDXDXDXDXDXDXDXDXDXDXDXDXDXDX",
"DXDXDXDXDXDXDXDXDXDXDXDXDXDXDXDXDXDXDXDXDXDXDXDXDXDXDXDXDXDXDXDX$ ; : > t y 1.7.1.1.d d 8.A.J.S.6.d.S.W.E.E.E.W.E.E.E.E.S.6.    DXDXDXDXDXDXDXDXDXDXDXDXDXDXDXDXDXDXDXDXDXDXDXDXDXDX",
"DXDXDXDXDXDXDXDXDXDXDXDXDXDXDXDXDXDXDXDXDXDXDXDXDXDXDXDXDXDXDXDXX @ - r y y 1.1.1.2.h <.9.D.F.m.<.<.4.n.N.N.n.N.N.N.B.F.M.5.X   DXDXDXDXDXDXDXDXDXDXDXDXDXDXDXDXDXDXDXDXDXDXDXDXDXDX",
"DXDXDXDXDXDXDXDXDXDXDXDXDXDXDXDXDXDXDXDXDXDXDXDXDXDXDXDXDXDXDXDX. @ - r t 1.2.2.2.<.y y 9.D.P.M.<.<.q.N.B.B.V.N.N.B.B.P.z.5.X   DXDXDXDXDXDXDXDXDXDXDXDXDXDXDXDXDXDXDXDXDXDXDXDXDXDX",
"DXDXDXDXDXDXDXDXDXDXDXDXDXDXDXDXDXDXDXDXDXDXDXDXDXDXDXDXDXDXDXDX# * : r y j 1.1.1.2.y <.9.D.K.m.3.3.z.B.P.I.I.K.P.I.I.I.A.5.    DXDXDXDXDXDXDXDXDXDXDXDXDXDXDXDXDXDXDXDXDXDXDXDXDXDX",
"DXDXDXDXDXDXDXDXDXDXDXDXDXDXDXDXDXDXDXDXDXDXDXDXDXDXDXDXDXDXDXDXX ; - r t d 1.1.z z d z 8.A.H.z.7.7.z.D.J.J.H.H.H.G.J.G.z.c     DXDXDXDXDXDXDXDXDXDXDXDXDXDXDXDXDXDXDXDXDXDXDXDXDXDX",
"DXDXDXDXDXDXDXDXDXDXDXDXDXDXDXDXDXDXDXDXDXDXDXDXDXDXDXDXDXDXDXDX# % - : t s d d d d f f s.f.9.f.p.x f.f.z.S.f.f.l.l.l.l.f.d     DXDXDXDXDXDXDXDXDXDXDXDXDXDXDXDXDXDXDXDXDXDXDXDXDXDX",
"DXDXDXDXDXDXDXDXDXDXDXDXDXDXDXDXDXDXDXDXDXDXDXDXDXDXDXDXDXDXDXDX$ $ $ - : i s i i a G W =.s.x =.! U U 6.s.s.a.a.a.a.a.a.=.s X   DXDXDXDXDXDXDXDXDXDXDXDXDXDXDXDXDXDXDXDXDXDXDXDXDXDX",
"DXDXDXDXDXDXDXDXDXDXDXDXDXDXDXDXDXDXDXDXDXDXDXDXDXDXDXDXDXDXDXDX$ $ O O 2 7 m C C m L ` K S v A K K S v S I ` ` ` ` ` ` I q + o DXDXDXDXDXDXDXDXDXDXDXDXDXDXDXDXDXDXDXDXDXDXDXDXDXDX",
"DXDXDXDXDXDXDXDXDXDXDXDXDXDXDXDXDXDXDXDXDXDXDXDXDXDXDXDXDXDXDXDX$ O . . 6 M ' ' ` ` ` ` ^ B ^ ^ { { ^ ^ ^ ~ ~ ~ ~ ~ ~ ~ ^ 8 o DXDXDXDXDXDXDXDXDXDXDXDXDXDXDXDXDXDXDXDXDXDXDXDXDXDXDX",
"DXDXDXDXDXDXDXDXDXDXDXDXDXDXDXDXDXDXDXDXDXDXDXDXDXDXDXDXDXDXDXDXO o o . v } t.y.+.o.[ ` ` | @.!.!.#X!.X.) !.!.+.!.+.{.@.' v o DXDXDXDXDXDXDXDXDXDXDXDXDXDXDXDXDXDXDXDXDXDXDXDXDXDXDX",
"DXDXDXDXDXDXDXDXDXDXDXDXDXDXDXDXDXDXDXDXDXDXDXDXDXDXDXDXDXDXDXDX@ O o o n O.|.|. X[.$.K { t.oX|.XXXX[.|.[.[.[.|.|.|.|.oXX.F o DXDXDXDXDXDXDXDXDXDXDXDXDXDXDXDXDXDXDXDXDXDXDXDXDXDXDX",
"DXDXDXDXDXDXDXDXDXDXDXDXDXDXDXDXDXDXDXDXDXDXDXDXDXDXDXDXDXDXDX& & 2 $ 2 N y.OX@XOX|.o.K { #X XOX|.|. X X X X|. X X XOX X+.L < o DXDXDXDXDXDXDXDXDXDXDXDXDXDXDXDXDXDXDXDXDXDXDXDXDXDX",
"DXDXDXDXDXDXDXDXDXDXDXDXDXDXDXDXDXDXDXDXDXDXDXDXDXDXDXDXDXDX$ 4 3 q q p ] ].OXOXOX[.$.K ] ]. X X X|.|. X X|.|. X|. X X+X].] p 5 ; DXDXDXDXDXDXDXDXDXDXDXDXDXDXDXDXDXDXDXDXDXDXDXDXDX",
"DXDXDXDXDXDXDXDXDXDXDXDXDXDXDXDXDXDXDXDXDXDXDXDXDXDXDXDXDXo $ 2 6 C S H { ].|.OXOX[.o.K [ ].|.|.[.|.|.|.|.|.[.|.|.|. X|.+.{ D 0 4 o DXDXDXDXDXDXDXDXDXDXDXDXDXDXDXDXDXDXDXDXDXDXDXDX",
"DXDXDXDXDXDXDXDXDXDXDXDXDXDXDXDXDXDXDXDXDXDXDXDXDXDXDXDXDXo * 5 p A H K o.].|. X|.[.O...o.].|. X|.|.XX|.|.|.|.|.|.|. X|.#X$.P C 2 . DXDXDXDXDXDXDXDXDXDXDXDXDXDXDXDXDXDXDXDXDXDXDXDX",
"DXDXDXDXDXDXDXDXDXDXDXDXDXDXDXDXDXDXDXDXDXDXDXDXDXDXDXDXDXo * 0 A H J K $.].|. X X[.].O.+.[.|.|.|.|.|.|.|.|.|.|.|.|.|.|.t.$.J C 2 o DXDXDXDXDXDXDXDXDXDXDXDXDXDXDXDXDXDXDXDXDXDXDXDX",
"DXDXDXDXDXDXDXDXDXDXDXDXDXDXDXDXDXDXDXDXDXDXDXDXDXDXDXDXDX. * 0 H K J P { ].|. X|.|.[.[.[.[.|.|.|.|.|.|.|.|.|.|.|.|. X|.t...D 0 2 . DXDXDXDXDXDXDXDXDXDXDXDXDXDXDXDXDXDXDXDXDXDXDXDX",
"DXDXDXDXDXDXDXDXDXDXDXDXDXDXDXDXDXDXDXDXDXDXDXDXDXDXDXDXDX. * p J T K K $.].|.|.|.|.|.OX|.|.|.|.|.|.|.[.|.|.[.|.|.|.|.|.].$.P C 2 . DXDXDXDXDXDXDXDXDXDXDXDXDXDXDXDXDXDXDXDXDXDXDXDX",
"DXDXDXDXDXDXDXDXDXDXDXDXDXDXDXDXDXDXDXDXDXDXDXDXDXDXDXDXDX  $ p H ..P J [ ].|. X|.|.|.|. X|.|.|.|.|.|.|.|.|.|.|.|.|.|.|..Xt.{ L 3 . DXDXDXDXDXDXDXDXDXDXDXDXDXDXDXDXDXDXDXDXDXDXDXDX",
"DXDXDXDXDXDXDXDXDXDXDXDXDXDXDXDXDXDXDXDXDXDXDXDXDXDXDXDXDX. @ 0 J K J J ..!. X|.|.|.|.|.|.|.|.|.|.|.|.|.|.|.[.|.|.|.|.|.|.|.+.R 6 o DXDXDXDXDXDXDXDXDXDXDXDXDXDXDXDXDXDXDXDXDXDXDXDX",
"DXDXDXDXDXDXDXDXDXDXDXDXDXDXDXDXDXDXDXDXDXDXDXDXDXDXDXDXDX. * p J ` P P $.].|.|.|.|.|.|.|.|.|.|.|.XX|.|.|.|.|.|.|.|.|.|.|.+X[.| 6 . DXDXDXDXDXDXDXDXDXDXDXDXDXDXDXDXDXDXDXDXDXDXDXDX",
"DXDXDXDXDXDXDXDXDXDXDXDXDXDXDXDXDXDXDXDXDXDXDXDXDXDXDXDXDX$ 4 C H ] [ { #.#X|.|.|.|.|.|.|.|.|.|.|.|.|.|.|.|.|.|.|.|.|.|. XOX[.X.7 X DXDXDXDXDXDXDXDXDXDXDXDXDXDXDXDXDXDXDXDXDXDXDXDX",
"DXDXDXDXDXDXDXDXDXDXDXDXDXDXDXDXDXDXDXDXDXDXDXDXDXDXDXO % 2 6 S J ..$.+.#X[.|.|.|.|.|.|.|.|.|.|.[.|.[.|.|.|.|.|.|.[.|.|. XOX[.| 6 . DXDXDXDXDXDXDXDXDXDXDXDXDXDXDXDXDXDXDXDXDXDXDXDX",
"DXDXDXDXDXDXDXDXDXDXDXDXDXDXDXDXDXDXDXDXDXDXDXDXDXDXDX@ 2 5 p A H ..+.[.|.|.|.|.|.|.|. X|.|.|.|.|.|.[.|.|.|.|.|.|.|.|.|.|. X[.| 6 . DXDXDXDXDXDXDXDXDXDXDXDXDXDXDXDXDXDXDXDXDXDXDXDX",
"DXDXDXDXDXDXDXDXDXDXDXDXDXDXDXDXDXDXDXDXDXDXDXDXDXDX. + 3 0 S D H [ t.|. X|.|.|.|.|.[.[.[.|.|.|.|.|.|.|.|.|.|.|.|.|.|.[. X X[.| 7 X DXDXDXDXDXDXDXDXDXDXDXDXDXDXDXDXDXDXDXDXDXDXDXDX",
"DXDXDXDXDXDXDXDXDXDXDXDXDXDXDXDXDXDXDXDXDXDXDXDXDXDXX o 3 S H P J [ t..X+X X|.|.|.[.].#.t.[.|.|.|.|.|.|.|.|.|.|.|.|.|.|.|. X[.} 5 . DXDXDXDXDXDXDXDXDXDXDXDXDXDXDXDXDXDXDXDXDXDXDXDX",
"DXDXDXDXDXDXDXDXDXDXDXDXDXDXDXDXDXDXDXDXDXDXDXDXDXDXDX. 5 A K K J ] +.oX X|.|.|.|.[.O.{  .].|.|.|.|.|.[.|.|.[.|.|.|.|.|. XOX|.} 5 X DXDXDXDXDXDXDXDXDXDXDXDXDXDXDXDXDXDXDXDXDXDXDXDX",
"DXDXDXDXDXDXDXDXDXDXDXDXDXDXDXDXDXDXDXDXDXDXDXDXDXDXO @ 7 D E K P ] +.XX X|.|. X X[.$.P ..t. X X|.|.|.|.|.[.|.|.|.|.|.|.|. X[.X.7 o DXDXDXDXDXDXDXDXDXDXDXDXDXDXDXDXDXDXDXDXDXDXDXDX",
"DXDXDXDXDXDXDXDXDXDXDXDXDXDXDXDXDXDXDXDXDXDXDXDXDX0 5 3 p H T E K ] +.[. X|.|.|.|.[.o.P ] t.|. X|.|.|.|.|.|.|.|.[.|.|.|.|. X[.o.F 3 2 DXDXDXDXDXDXDXDXDXDXDXDXDXDXDXDXDXDXDXDXDXDXDX",
"DXDXDXDXDXDXDXDXDXDXDXDXDXDXDXDXDXDXDXDXDXDXDXDXC p 7 q C H T T J ] +.|.|.|.|.|. X[.o.K [ t.|. X|.|.|.|.|.|.|.|.XX|.|.|.|. X[.O.T C 5 @ DXDXDXDXDXDXDXDXDXDXDXDXDXDXDXDXDXDXDXDXDXDX",
"DXDXDXDXDXDXDXDXDXDXDXDXDXDXDXDXDXDXDXDXDXDXDXDXC S S C Z J K K J ..+.[. X|.|.|. X[.o.K { t.|. X|.[.|.|.|.|.|.|.|.|.|.|.|. X[.t.[ D 0 $ . DXDXDXDXDXDXDXDXDXDXDXDXDXDXDXDXDXDXDXDXDX",
"DXDXDXDXDXDXDXDXDXDXDXDXDXDXDXDXDXDXDXDXDXDXDXDXp A Z C Z H T T K ..+.[. X|.|.|.|.[.$.] { ].|.|.|.|.|.|.|.[.|.|.|.|.|.XX X X[.+...H 0 $ . DXDXDXDXDXDXDXDXDXDXDXDXDXDXDXDXDXDXDXDXDX"
};
