/* XPM */
static char *result[] = {
/* columns rows colors chars-per-pixel */
"100 120 111 2 ",
"   c #010000",
".  c #0A0400",
"X  c #0E0D04",
"o  c #0E0F09",
"O  c #100D03",
"+  c #100F08",
"@  c #0F110D",
"#  c #111006",
"$  c #1B1300",
"%  c #12110D",
"&  c #18120F",
"*  c #1D180B",
"=  c #0F1311",
"-  c #141412",
";  c #1B1514",
":  c #161817",
">  c #1D1B15",
",  c #141718",
"<  c #1C161A",
"1  c #161A1B",
"2  c #1A1B1D",
"3  c #231517",
"4  c #291717",
"5  c #231917",
"6  c #291817",
"7  c #251618",
"8  c #281718",
"9  c #231B1B",
"0  c #2B1B1A",
"q  c #301E1A",
"w  c #26201F",
"e  c #2E211E",
"r  c #32241E",
"t  c #38271F",
"y  c #36291F",
"u  c #39291F",
"i  c #1B1E21",
"p  c #1D2125",
"a  c #1E242A",
"s  c #222426",
"d  c #2F2320",
"f  c #22262B",
"g  c #24292E",
"h  c #332520",
"j  c #362921",
"k  c #3B2D21",
"l  c #3D3222",
"z  c #262B32",
"x  c #292E34",
"c  c #272F38",
"v  c #2B3037",
"b  c #2B323A",
"n  c #30373F",
"m  c #402D21",
"M  c #433325",
"N  c #493627",
"B  c #4B3827",
"V  c #4E3A28",
"C  c #533E2A",
"Z  c #56402B",
"A  c #2D3641",
"S  c #2F3944",
"D  c #303741",
"F  c #323B45",
"G  c #343E4B",
"H  c #36404E",
"J  c #374251",
"K  c #3A4655",
"L  c #3C4857",
"P  c #394658",
"I  c #3D4A5B",
"U  c #3F4E61",
"Y  c #404E5F",
"T  c #404F62",
"R  c #435264",
"E  c #45566B",
"W  c #48576A",
"Q  c #49596D",
"!  c #475970",
"~  c #4C5D72",
"^  c #4C5F78",
"/  c #4D6077",
"(  c #4E617A",
")  c #516176",
"_  c #52647C",
"`  c #56687E",
"'  c #536780",
"]  c #566982",
"[  c #596C82",
"{  c #576D88",
"}  c #586E8B",
"|  c #5A718E",
" . c #5E7593",
".. c #607796",
"X. c #607897",
"o. c #637C9C",
"O. c #657FA0",
"+. c #6780A1",
"@. c #6984A6",
"#. c #6A86A8",
"$. c #6E8AAE",
"%. c #6F8CB0",
"&. c #718DB2",
"*. c #7391B6",
"=. c #7694BA",
"-. c #7897BD",
";. c #7998BF",
":. c #7C9CC3",
">. c #7F9FC8",
",. c #7FA0C9",
"<. c #81A1CB",
/* pixels */
"- - - - - - - - % - - - - - - - - - - - - - - - - : : .           a U { O.%.:.:.:.-.-.:.-.-.-.-.-.-.:.-.;.;.;.;.;.;.:.:.-.=.&.o.{ U a           . , , , - - - - - - - - - % - - - ; % - - - - - - - - - ",
"- - - - & - - - - - - - % - - - - - - & - % - - & + - 1 a z z i i G ^ | O.&.*.:.:.:.-.-.-.:.:.-.:.-.-.-.-.-.;.;.;.;.-.:.:.*.&.@.| ~ J i i z z z i = + + % - - - - - - & - - - - - - - - % - - - % - - - ",
"- - - - - - - - - - - - - - - - - - : : % .           b U { } { { | o.O.$.*.:.:.:.:.:.:.:.:.:.:.:.:.:.:.:.:.:.:.:.:.:.:.:.-.=.&.#.o.| ' ' | ' U A           . = : : - - - + - - - - - - - - - ; - - - % ",
"- - - & - - - - - - - & - & - - - % : < &             P  .%.=.=.*.*.*.:.:.:.:.:.:.:.:.:.:.:.:.:.:.:.:.:.:.:.<.:.:.:.:.:.:.:.:.-.=.=.*.*.*.=.%.| P           . = : - - - - - - - - % - - - - - % - - - ; ",
"- % - - - - % - - - - - - % - - - - .   o c G P P G P ] #.>.,.,.>.:.:.-.*.*.%.%.&.%.%.$.%.$.$.$.%.%.$.$.&.$.$.$.$.&.%.%.&.&.&.=.-.:.:.,.<.<.:.#.' P G P U G z =   . % - - - - - - - % - - - - - - % - - ",
"- - - - - - - - & - - - - - - : 1 X       J { X.+. . .@.*.:.>.,.>.:.-.%.O.o.| { ] ' ` ' ' ' ' ` ' ' ' ` ' ' ' ` ' ' ' ] ]  .o.#.&.-.:.,.<.<.:.*.@.O. .O.o.' P       + : < - - - - - - - - - % - - - ; % ",
"- - - - - - - - - - - - - - - - - -     a ^ #.:.>.:.:.:.:.:.:.:.:.*.$.O.| ( U G A b b x v b b b v b b b v n x b c v b F G T ^ } +.$.=.;.:.;.-.;.:.-.:.>.:.#.^ a     & - - - - - - - - - - - - - - - - - ",
"- & - % & % - - - % % - - - &     - A U ' O.&.:.,.,.>.:.=.*.#.#.#.o. .] ! P G f 5 * $ $ $ $ $ $ $ $ $ $ $ $ $ $ $ $ * 5 f F Y ! ' | o.#.$.$.*.=.:.>.>.>.:.&.o.' I A :     + - - - - ; - + - - - - - - - ",
"& - - % - - - - - - - % - < X     2 E  .&.-.=.:.:.,.:.:.*.@.X.| ( E R L H F n v g v g x x x x x x x x z x x x z z z x x v D F G Y Y W ) } X.#.*.-.<.<.:.:.-.*.&.X.E 1     O : ; - % - % - = % - % - - - ",
"- - : - - - - - - - - - + + :     J { %.>.,.:.:.-.-.*.$.+. ._ R G c g f d f x v v v v v x c x x x x x x x x x c x x v x x x g f f g x H R _  .+.$.*.=.-.-.:.<.:.&.} G     - + = - - , ; : - - ; - - - - ",
"1 : 1 1 < 1 1 1 : : 2 -     - b P ( o.=.>.<.,.:.*.#. .] _ Q Y H b g d g x x v v b v v v g g f f g g g g g f f z x n v x b x x d g g g b J Y Q _ ] ..@.*.:.<.<.<.*.o.' P c -     - , < : : 1 1 : : : - - ",
"2 2 2 2 2 : 2 1 2 i i :     f U ' X.$.*.:.:.,.:.$.| R G F F n v b v b b v v v b b v v g a i 2 2 i i i i 2 2 i p z v v n v x n b v v v v b n F F G R } $.-.<.<.:.*.$.o.' U g     - i i i 2 2 i 1 , < - % ",
"2 p 1 p i i i 1 2 % o i z S U (  .+.$.&.*.*.&.$. .Q b $ 5 s s g v v v z x g g g x x g s 2 : - 1 < : : : : - , i s g z z z z z z z v v x g s e 5 $ b Q  .#.&.*.*.&.$.O. .( T S z i o % 2 2 i i 1 < : - = ",
"2 1 1 1 1 i i i -     p P ^ {  . .o.+.#.#.+.| ` E K b g z x x v v v g f p p p i i i p 2 1 - - - - - - : - - - < 2 i s i w i i s f z v v v x v g f b K W '  .O.#.#.+.o. . .{ ^ P p     - i i i i 1 - - % ",
"2 1 2 2 2 2 1 2 1 X - S !  .o.o.o.X.X.X.| ' R G v v v x x x c b v x s i : - - % % % % - - - - - - - - - - - - - - - - % % - : : 2 f x v v v x v x v b b G R _  .X. .X.X.o.o. .! G = X 1 1 2 2 1 < , - - ",
"i i 1 i 2 : X o z F U ^ {  .o.O.o. . .] _ R H x g x x x z g g g g s p : - % % @ # % % % % - % - - % - - = = - - + + o o o @ % - > i s f g g g z x x x f x J T _ {  .X.O.o.O. .{ ~ U S g o O 1 2 1 ; - - ",
"1 i 1 i 2 :   . A E {  . . .o.o.O. .{ ~ U G F b x x n x f p 1 2 : 1 : : - - - - - = - - % - - - - % - - - - - @ - - - = % - - - - : : 2 2 2 p f c b v x n D G Y ~ {  .O.o.o. . . .{ E A .   - 1 1 : - + ",
"2 1 2 2 1 1 . : J ^  .O.O.o.X. . .} ^ T D x v x x c z g s : - - + # @ - - - - ; - ; - ; ; ; - - - - - - - ; - ; - - - ; ; - - - - % + % = - 1 p g z x x x v x D U ^ }  . . .o.O.O. .^ J ; . 1 i < - - = ",
"p p 1 1 2 2 > g P _  .o.O.X. .{ ' ! T G b x v v c g f i 2 < - @ - @ @ = - ; ; 3 3 3 3 ; ; 3 ; - - = = - - ; < 3 3 ; 3 3 3 3 ; - = = o = @ - : 2 s f z x b v x n G T ! ' }  .X.O.O. .( P f 2 i i : - - - ",
"1 1 1 : 1 f c G T '  .o.o.o. .' R G S D v v v v x p i : : - - % - - - % - 3 3 0 6 3 4 3 0 8 3 : = = = - ; 3 8 0 6 6 4 0 3 3 > ; - = - - - - - - : 2 f z x v x x b F J R '  .o.o.X. ._ T G b f 1 - - - - ",
"X X .   . c J E ' }  .o.o.o. ._ L v x x x x z g p i 1 - - % - ; ; ; ; ; ; 3 8 8 0 0 q 0 0 0 0 3 ; ; ; ; 3 0 0 q 0 0 0 0 0 3 3 3 ; ; ; ; ; - + = - : i p z z z x c x v Y _  .O.O.X. .} ' E P z .   . . . ",
"          c E {  . . .o.O.O. ._ L x d v v z s 2 : < : - - - - ; 3 3 3 3 8 8 8 0 0 r r j h 0 d 0 3 3 3 8 0 0 0 h h h h 0 6 6 3 3 3 3 8 3 ; - - = - - : < i s z v x f x K _ X.O.o.o. . . .{ E c           ",
"z z f 1 a P (  .O.o.X. .X. .} ~ J g s x c g 2 + o + % - - - ; 3 4 0 0 0 8 8 4 0 0 h j h j h d 0 6 4 4 4 0 e j h j j h 0 0 3 6 0 0 0 0 0 8 ; ; - - - + o + i f c x s s J ! } ..X.X.X.o.O. .' P a 1 g c z ",
"! ! ! E ! ( } X.o.o.o. .{ _ R Y F z f g f i : & o o = & ; ; 9 0 0 r r 0 e 0 8 0 0 e h j h h h 0 6 4 3 4 0 d h j h h r 0 0 0 0 0 q r q 0 9 8 ; - - % o + + 1 i f g s x F L E _ }  .X.o.o. .} ( E E ! ! Q ",
" . . . . . . .X.X.o.o. ./ L b c n x z s i 1 - - - @ - - 3 3 0 0 h h h h h 0 0 0 0 h j h h h h 0 0 3 8 4 0 e h h h j h 0 8 8 0 h h h h d 0 0 8 3 ; - = % - - 1 2 s x c n z v Y ~  .X.o.X.X. . . . .|  . .",
"o.o.o.o.O.o.X.X.X.o.o.| ! F $ * f z f i - - - - - - ; 3 9 0 0 h h h h h h 0 9 8 0 r h h h d d 0 4 6 3 4 0 e h h h h e e 8 0 0 h h h j h h e 0 9 ; ; - - - - - : 9 f z z * $ F Q } o.o.X.X.o.o.O.o.O.O. .",
"O.+.o.o.+.o.o.o.o.+.o. .^ G > > s p i < - - = & - > 3 9 0 h h h h h h h h 0 4 0 0 r e j h h e 0 4 8 6 0 0 e d h h h e 0 4 0 e h h h h h h h 0 0 0 3 ; ; - = @ : : i p s > 9 G ~  .o.O.O.o.o.O.O.O.O.O.O.",
" . . . . .X. . .X.X.X.| ~ J s > 2 1 : - - % - - ; 3 6 0 0 h h h h h j h h 0 0 4 e e j j j h 0 0 0 3 3 3 0 r y j h h h 0 0 8 0 h h h h h h h j e 0 3 3 ; - = - - : : : i ; f G ~  . .o. . .X. . . . . . .",
"] ' ' ' ' ' ' ' ' ] ] ( R G f 9 2 - - = - - ; > 3 3 0 0 e h h h h h h h h 0 8 0 e y y u k j j 0 3 3 3 4 0 r y u k y y e 0 8 0 d h h d h h h h h q 4 8 3 ; ; ; % = = - 2 2 f G R ( ] ] ' ' ' ' ' ' ' ' ' ",
"R U U R U R Y R R R R I J F z s 2 - o @ - ; 3 3 6 6 0 0 q h h h d h h h d 0 7 0 r y l l l k y 0 6 3 3 4 e y l l l l u r 0 8 0 h h h h h h h h 0 0 0 3 8 6 3 ; - @ o - 2 s x D K I R R R R T R R R U T R ",
"H G H H H H G H G G J G S b z p 1 % + & ; 3 3 6 4 8 4 0 h h j j j h j j h 0 0 0 r l l l l l j q 0 8 4 8 e y l l l l k r 0 4 e h j j h j h j j r 0 4 3 0 4 3 ; ; - + + 2 s g b D F H H G G G G G G G J G ",
"J J J J J J J J J K J G A z s 2 : % ; ; ; 3 3 6 4 3 4 0 h k k k k k k k j r 0 9 e k l l l l k h e 0 0 q y j l l l l y r 0 9 r j k k k k k k k j 0 4 3 6 6 3 3 3 ; ; & : : s c D G K J K J J J J J J J J ",
"K K K K K K K K K L L G A g , - - - ; 5 0 4 4 4 3 6 6 e j l l l k l l M k y 0 6 d j m l l l j h h h d h j k l l l l j h 0 0 r k l l l l l l l j e 6 3 3 8 8 0 0 8 ; - - % : f A J K L K K K K K K K K K ",
"G H H G G H G G G K G G b i + o = - 5 0 0 e 0 0 0 9 6 0 y j l l k k k k j e 6 0 h M N N N M M k h h d h j m M N N N m j 0 4 e j l l j l k l k y e 6 3 0 0 0 0 0 0 3 - = o o i b F H J H H G H G G H G H ",
"D D D D D D D D F F F b z i % o o : 5 0 h h h d 0 0 0 0 e y j j j j j j r e 6 0 k N C C V V M k d d d h j N C C C C N k 0 9 e r j j j d j j d e 0 3 0 q e h h h w > : = o o i z b F F F D D D D n D n n ",
"x c z x x c x z z x x g a : = + = ; 9 h h h h h r 0 3 0 e h h h r h h h e 0 3 e m C C C C C N l d d d h j N C C C C V k q 3 0 r j d y y h j h e 0 0 0 r j h h h r 0 ; @ o - < p g x x x x x x x x x x x ",
"w i i i i i s s s s p p 2 - - + ; 3 0 e h h h h q 0 4 0 r j k j k y y k y e 6 0 m N C C C C N m h d d d m N C C Z C V m q 3 e y j k k j u y y r 0 0 0 r r j h h r 0 3 ; - % , 2 p s s p s p i i w i i w ",
"- - - - - : - < < : : ; - - - > 3 3 0 r h h h j r 8 0 e y k l l l l l l u e 6 0 m V C C C C N k d d d h m N C C Z C V m 0 6 r u l l l k l l l y 0 8 6 e h j h h r 0 9 3 ; - - - : : : : : - > - - - - - ",
"i i 2 s i 2 < - + = - = - = - 5 0 0 r r h h h h 0 0 8 0 y l l l l l l l y r 6 e m N C C C C N k h e d d m N C C Z C V u w 6 r u l l l l l l l r e 6 6 e h h h h r 0 0 0 < ; - - - % % = % : 2 i p p i i ",
"v b v b b z s 2 , - : : = - ; > 0 0 h h h h j j e 0 6 e y l l l l l l l k e 6 0 m C C C C C V k h d e d m N C C Z C V u 0 6 e k l l l l l l l y e 6 0 e h h h h h j r 0 3 - = - 1 1 - - > f g v v v b b ",
"F F S H H b x i : 1 i 2 , = > 6 h h h h h h h h e 8 8 q k k l l l l l l k r 0 0 k V C C C C N k d d d h k N C C Z C V u q 6 r u M m m l l l l y q 8 8 d h h h h h h h d 0 - - , 1 1 1 1 p z n H F H n n ",
"H H H Z H n x i 1 1 2 1 , = - 9 d h j h h h h d e 8 8 d m M N N l M B B M j 0 r m V C C C C N k d d d h k N C C Z C V m r 0 u M M N N B B B B u d 8 8 e d h h h h j j e 5 ; = , 1 p 1 : p x n H H F Y F ",
"n H n F H n x i : 1 i 1 , = - 9 d h h h h h h h q 8 8 t M V C C Z B Z Z N m h j m V C C C C V k d d d d k V C C Z C V m r y M B C C C C B V V M h 8 8 q h h h d h h h 0 9 : = 1 1 2 1 1 i g n F F F n n ",
"H n H H F n x i : 1 2 1 , , ; 0 h j j h h j h h e 8 8 t N C C C Z B Z Z C M j j m C C C C C N m d d d h k N C C Z C V m j j M V C C C C Z Z Z M t 8 8 d h j x k j j j h 0 ; - : 1 2 1 : p z n H H F H H ",
"H H H H H n z i , 1 1 2 < ; * r j k k j j k k k h 0 8 h N C Z C B Z Z Z V M h h M V C C Z C N k h d d h m N C C C C V m j j m V C C C C C C C N t 8 0 t j k k j k j l y e 6 ; : 2 2 1 - p c n F H F F n ",
"H J J K H H c p - 1 2 2 < 3 0 y k l l l k l l l h 8 8 h N C C C B Z Z V V M h h m V C C C C N m d d d d k N C C C C V M j j M V C C C C C C C M q 8 0 u M k l l k l l k e 0 3 > 2 1 , - p c H L Y H Y Y ",
"Y R R W R L S a o - 1 2 5 9 0 r k l l l l l l l t d 8 q N V C C Z Z Z Z V M h j M V C C C C N k d d d h m N C C C C V m h j M V C C C C C C V M y 6 0 r k k k k k k k j r 6 6 9 2 i - @ a S I R Y Y Y R ",
") ) ) _ ) W J a X @ i 2 5 8 w y y l l l j l l l h q 8 q N C C C Z B V Z V M j h M N C C C C N k d d q h k V C C C C V M h h M V C C C C C C C M r 6 9 e h h h h j j j d e 0 6 < 2 2 @ X a J W ) ) ) ) ) ",
"` ` ` [ ` ) L g X X 1 1 2 8 0 r m N m M m m M v t q 8 h M V C C C C C C V M h h m V C C C C V m h d d d k N C C C C V M h h N V C C C C C C V N d 8 8 q h h h h h h h h 0 0 8 9 1 1 X . f L ) [ ` [ ` ` ",
"` ` ` | ` ) L g   X i > < 3 0 k m N N N N N N N m q 8 q N V C C C C Z C V N m h m V C Z C V N v h q d h m N C C C C N m h h M V C C C C C C V M h 8 0 m M M N M M N M m j 0 3 < 2 1 o . g L ) ` ` ` ` [ ",
"` ` ` ` ` ~ L g X o 1 i < ; 0 m V C C C C C C C N t 8 q M V C C C C C C V M h h m C C Z Z C N m h d d d k N C C C C C M h h M V C C C C C C C N q 8 q M C C C C C C C N k q 3 < 2 1 X . f L ~ ` [ [ ` ` ",
"` ` ` [ ` ~ K g . o 1 1 < 3 r m V C Z C C C Z C N t 8 t N C C C C C C C V M h h m V C Z C V N m d d d d k N C C C C V M h h M V C C C C C C C N h 0 t N C C C C C C C V m q ; < 2 i X X g L / ` [ ` ` ` ",
"` ` ` [ ` ) L a   o i < < 3 0 m V C C C C C C C N t d t N C C C C C C C V N h h N V C C C C N h h d d d m N C C C C C m h m N V C C C C C C V N t h m N C C C C C C C C m 0 3 < 2 1 @ . g L Q ` [ ` ` ` ",
"` ` ` [ ` ) L g . o 1 i < 3 0 m V C C C C C C C N t h h N C C C C C C C V m h h m V C C C C N m h d d h m N C C Z C V m h h M V C C C C C C V N t h t N C C C C C C C V m q 3 < 2 1 o . f L / ` [ ` ` ` ",
"` ` ` [ ` ) L g . @ 1 < : 3 q m N C C C C C C C N m h m N C C C C C C C V N h h m N C C C C N m d d q h k N V C Z C V m h h M V C C C C C C C N m h m N C C C C C C C V m e 3 < 2 1 o . g L / [ [ ` ` ` ",
"` ` ` [ ` ) L f . X i < < 3 q m V C C C C C C C N m h t N V C C C C C C V N h h N C C C C C N m h d q d m N C C C C V m h x M V C C C C C C V N k h k N C C C C C C C N m 0 3 < 2 1 o . g L Q ` [ ` ` ` ",
"` ` ` [ [ ~ P f . @ 1 1 2 < q m N C Z C C C C C N t t v N C C C V C C C C N x h m V C Z C C N m d d d h m N C C Z C V m h h N V C C C C C C V N k h m N C C C C C C C V m q 3 < 2 1 @ X f K Q [ [ ` ` ` ",
"` ` [ [ ` ~ L f . o i > < 3 0 m V C C C C C C C N m t m N C C C C C C C V m h h M V C C C C N m h d q h v N C C Z C V N h h N V C C C C C C C N h h k N C C C C C C C V m q 3 < 1 i o . g K ) ` [ ` ` ` ",
"` ` ` [ [ ~ K z . o 1 2 : 3 q m N C C C C C C C N m h h N C C C C C C C V N h t M N C C C V N m d d d d m N C C Z C V m h h m V C C C C C C C N k h k N C C C C C C C V m 0 3 < > 1 o X g P / ` [ ` ` ` ",
"` ` ` [ [ Q L f . @ 1 2 < 3 q m V C C C C C C C V t h h N V C C V C C C V m t t M V C Z Z C N v d d d h m N C C C C V m h h m V C C C C C C C N m d k N C C C C C C C V m 8 3 < 1 1 o . a P Q [ [ ` ` ` ",
"` _ ` [ [ ~ K g   o i < < 3 8 m V C C C C C C C N m h t N V C C C C C C V m h h m V C C C C N m h d d d m N C C C C C m h h N C C C C C C C V N j h m N C C C C C C C V m q 3 < 2 1 # . w Y ) ` [ ` ` ` ",
"` ` ` [ ` ~ K g . o , i < 3 q m N C C C C C C C N t x m N V C C C C Z C V N h h M V C C C C N h d d d h m N V C C C V m m h m C C C C C C C V N m d j N C C C C C C C N m q 3 < i 1 # . w Y ) ` [ ` ` ` ",
"[ [ [ [ [ ~ L f . o i < < 3 q m V C C C C C C C V t t t N V C C C C C C V N h h m V C C C C N m d d q h m N C C Z C V m h h M V C C C C C C C N j h m N C C C C C C C V m 8 3 < i 1 o . g L ) `  .[ [ ` ",
"` [ [ [ [ ^ L z   X , i < 3 q m V C C C C C C C N m h t N C C C C C C C V N t h m C C C C C N m h q d h m N C C Z C V m h x M V C C C C C C V N k h m N C C C C C C C V m 8 3 < 1 1 X . g L ` ` ` [ ` [ ",
") ) _ ` ) W H s X o 1 2 < < q m N C C C C C C C V m h m N V C C V Z V Z V M h j m V C C C C N M d d d d m N C C C C C M h h M V C C C C C C C N k h m N C C C C C C C C m q 3 < < i o . f G ~ ' ` ) ) ) ",
"R R R R R Y F s @ , i 2 : 3 q m V C C C C C C C N m d k N C C C Z Z Z Z V M j j M V C C C C N k d d d h k N C C C C V m h h m C C C C C C C C N j h j N C C C C C C C V m q 3 < < 1 , % i S Y T R Y R R ",
"K K K K K H b p - , 1 2 < 3 8 m V C C C C C C C N k h k N C C C Z V Z Z V M j j m V C C C C N k h d d d m N V C C C V k j j N V C C C C C C C N k h k N C C C C C C C V m q 3 < i i = , i b G K Y K K K ",
"R R R W R L S p o - i 2 < 3 q m V C C C C C C C N k h j M V V V B B V V N k h h M V C C C C N k h d d d m N C C C C V M h h m N C V N V V V N m j h k N C C C C C C C V m 8 3 < i 1 = = a D Y R W R Y R ",
"_ _ _ ` ` Q K f X o 1 2 : 3 q m N C C C C C C C V k h j j M M l l l M M k j h j M V C C C C N m h d d d k N C C Z C C M j h j l M M l l l l M k h h k N V Z Z V C C C V m q 3 < 2 1 + . f K Q _ _ ` ) ) ",
"_ ` ` ' ` ~ K f . o 1 i < 3 q m V C C C C C C C N k h h k m M l l l l l l j r j M V C C C C N k d d d d k N C C C C V M h h j k l l l l l M k k h h l N V Z Z Z C C C V m q < < 2 i o . f P Q ` [ ` ` ` ",
"W W Q Q W U G p o - i < < 3 q m V C C C C C C C N k h h l V N V V N N V N k h j M V C C Z C V m h d d d m N C C C Z V M j h k N V V N N N V N M j h l N Z Z Z V C C C V m q 3 < 2 i - + f G T Q Q Q W W ",
"K K L L K J b p - , 1 < < < q m V C C C C C C C V k h j N V C C V C C C V M j j m V C C C C V k d d d d M N C C C C V M j h M V Z Z C C Z C V N j h k N V Z Z Z C C C C m 0 < < 2 1 1 - i b G K L K K K ",
"Y Y Y Y Y K A a % - i 2 < 3 0 k M Z Z Z B Z Z V M k h j N V C V Z B Z Z B l h h l N B Z V V M k h d d h k N V V V V N k h j M V V Z V V Z Z Z l k h k l V V V Z V C V M k 0 3 < 2 i - - i A K U Y Y Y Y ",
") ) ) _ ) Q J f X # 1 2 < 3 0 u l l l l l l l N m h h j M M N M M M l M l l j h j l l N M l l j h d d h j k M M N M l j h j j M l N N l l l l l j h j l N l l l M M M M j 0 3 3 1 1 o X g J E _ _ ) ) ) ",
"` ` ` ` ` ~ L g . o 1 2 < 8 0 r k l l l l l l l k j h h k k l l l l l l l j y h j l l l l l l j h h d h j k l k l l k k h h j k l l l l l l k k j h j l l l l l l l l u y 0 3 < 2 1 o . g L Q [ [ ` ` ` ",
"~ ~ ~ _ / R H a X - 1 2 5 3 0 t M M B M N B M M M j h h j l l k k k l l u j h j l l N B N N l j h d d h j M N N N N M k j h j k k l l l l l l k h h j l N N N M B B N M t 0 3 < 2 1 - X f H R ~ ) ) ~ ~ ",
"Y Y Y Y Y K A p - - 1 2 2 3 q m B Z Z B V Z Z Z V k d j j l l l l l l l k j h j M N C C B V N k h q d d m N V C Z C V l h h j l l l l l l l l j h h k V V C C V V V Z B m q 3 < 1 1 - - p A J I Y I I L ",
"H H H H H F c p - , 1 2 < 3 q k B Z Z Z C V V V N k h d j l l l l l l l l h h j l V C C Z Z N k h q d h m N C C C C V l h h j k l l l l l l l k h h l N V C C C Z Z V B k q 3 < 2 i 1 - p c G J J H J J ",
"H H K H J F b p - 1 1 2 < 3 0 k l B M M N N N N l j h j k l l l l l l l k j h j k M N M B N l k h d d d h M N N N N M l h h j l l l l l l l l j j h j l N N N N B M B l t 0 8 < 2 i , : p c G J K K J J ",
"K K K Y K G b p - 1 p 1 < 8 0 r l l l l l l l l k j h j k l l l l l l l l j h j j l l M l l k k h d d t h m m m l l l j h h j l l l l l l l l j h h j k l l l l l l l l y 0 3 2 2 1 , - p b G K K K K K ",
"J L J L P H c p - , 1 2 5 5 0 r k l l l k l l y y y y j j l l l l l l l k u h h j j l l l l y d h d d d d y l l l k l j h h j l l l l l l l l j j j y k l l y l l l l y r 0 6 < 2 2 , - p b H P K K K K ",
"K J L L P H b p - , i 2 < 5 0 r k l l l k l l l l y j d k l l l l l l l l k h h j l l l l l j y h h h y k y l l l l k j h j j k l l l l l l l l y d y k k l l l l l l k r 0 3 < 2 1 1 - p b H K L K K K ",
"J L P L J H b p - 1 i 2 5 8 0 r y l l l l l l l y y r j j l l l l l l l k j j j y k l l l l k j h r d j j l l l l l k j h h k l l l l l l l l y d h y j l l l l l l l k y 6 9 < 2 1 1 - p c H J K K K J ",
"L J L P J G b p - , 1 2 < 3 0 y k l l l l l l l l y y d l l l l l l l l l j h r j l l l l l k j h h d y j j l l l l l j r j j k l l l l l l l l j h y k l l k l l l l k r 0 8 5 2 2 1 - p c H P K K K K ",
"J L K P K H c p - 1 1 1 < 8 0 r k l l l l l l l j j d j j l l l l l l l l j h j j l l l l l k j h h e h j k l l l l l j d j j l l l l l l l l j y h j j l l l l l l l y r w 3 < 1 1 1 - p b H P L K K K ",
"L J L P J H c p - 1 1 i < 8 0 r k l l l l l l l l y j y k l l l l l l l l j h d j k l l l l k j h d h h j k l l l l l j h j j l l l l l l l l j h h y k l l l l l l l k r e 3 5 i 1 1 , p b H K K K K K ",
"K K K L K H b p - 1 1 i < 8 0 r k l l l l l l l j y d j y l l l l l l l k j h j j l l l l l k j h d e h j k l l l l k j h r j k l l l l l l l l h h j j l l l l l l l k r 6 6 > i 1 - - p c G J K K K K ",
"K K K K P H b p - 1 1 2 > 6 0 r k l l l l l l l j j d y l l l l l l l l l k r j j l l l l l k j h h e h j k l l l l l j j h k l l l l l l l l j h h y l l l l k l l l l y 6 5 5 i 1 1 - p c H P K K K K ",
"K J K P L G b p - 1 1 1 < 5 0 y k l l l l l l l l y h h j l l l l l l l k j h h j k l l l l k j h d h t h k m k l l l j j d j l l l l l l l l u j h j l l l l l l l l u h 0 8 5 > i 1 = p b H P P K K K ",
"K K K K K G b p - 1 1 p < 9 0 r k l l l l l l l j j h j l l l l l l l l l k h h j l l l l l k j h d d d h m l M l l k j j j j l l l l l l l l l h h h j l l l l l l l u r 0 3 < 2 1 1 , p b H K L K K K ",
"K K K L P G b p - , 1 2 5 3 0 r u l l l l k l l l j h r j l l l l l l l k j j h j l l l l l k j h d d t j k k l l l l j d d j l l l l l l l l y j r j l l l l l l l l l r 0 8 2 2 1 , - p c G J K K J K ",
"J K K K K G b p - , i 2 < 8 0 y l l l l l l l l j y h j j l l l l l l l l j r j j l l l l l k j h t t d j k l l l l l j j j j l l l l l l l l l h h y j l l l l l l l u y 0 5 5 2 i , - p c H P K K K K ",
"K K K L K G b p - 1 i i > 3 0 y y l l l l l l l k h h h l l l l l l l l l j j j j l l l l l k j h e d h j k l l l l l j h h j k l l l l l l l y j h j k l l l l l l l l r 0 6 < 1 1 1 - p b H P K K K K ",
"K K K P K G c a - , 1 1 < 6 0 r l l l l l l l l k y h j j l l l l l l l l j h d j l l l l l k j h h h h j k l l l l l j h h k l l l l l l l l u j h r k l l l l l l l l y 0 3 < i 1 1 - p b G P L K K K ",
"K K K L P G b p - , 2 2 < 9 0 r u l l l l l l l k y h y u l l l l l l l l j d j j k l l l l k j h e h h j k l l l l l j j h j l l l l l l l l k h r y k l l l l l l l k r 0 8 2 2 1 , - p c G K P L K K ",
"J K P P J G b p - 1 1 2 5 3 0 r l l l l l l l l j j d y l l l l l l l l l j j j j k l l M k k h h h h h j k l l l l j j j r j l l l l l l l l k h h j k l l l l l l l u r 0 8 > i 1 1 - p c H K P K K J ",
"K J K K K G b p , , 1 2 2 8 0 r k l l l l l l l k y h h j l l l l l l l l j j h j l l l l l k j h t d d j m l l l l l j h h j l l l l l l l l j y j j k l l l l l l l k r 0 3 2 2 1 : - p b H P P L J K ",
"K K K L P G b i - , i 2 < 8 0 r k l l l l l l l k y h h l l l l l l l l l j h h j k l l l l k j h d d t h k l l l l l j h h j l l l l l l l l y j h j j l l l l l l l l y 0 8 5 2 2 , , p b G J P L L J ",
"K K K L K G A p - , i 2 < 6 0 y k l l l l l l l k j r j j l l l l l l l k j h h j l l l l l j j h d e h j k m l l l k j r j j k l l l l l l l l r h j k l l l l l l l u r 0 6 < 1 i , - p b G L L K J L ",
"K K K P P G c i , , 1 1 < 3 0 r k l l l l l l l k j h j l l l l l l l l l j j j j l l l l l l j h d h h j k k M l l l j j j j l l l l l l l l y j h j k l l l l l l l l r 0 5 > 2 i , - p c G P L K L J ",
"K J K L K G b a - , 1 2 < 3 0 r k l l l l l l l k j r y u l l l l l l l l j y r j l l l l l k j h e h h j k l l l l l j e j y l l l l l l l l l y r y l l l l l l l l u h 0 3 3 2 1 , - a b G J K K J K ",
"K K K L K G b p - , i 2 9 6 0 y l l l l l l l l j r e r u l l l l l l l l y e e y l l l l l j j h h e h j k l l l l k y e e y l l l l l l l l u r e r u l l l l l l l k r 0 8 2 1 i 1 - p c H P P K K K ",
"K K K K K G b p - 1 1 2 > 5 0 r k l l l l l l l y e 0 e y l l l l l l l u y 0 0 r k l l l l l j h d h h j k l l M l l y 0 e r u l l l l l l l y e 0 e y l l l l l l l l y 0 8 < 2 i , - p b H J L K K K ",
"J K K K K G b p - , 2 2 < 6 0 r k l l k l l l k y e 6 0 y l l l l l l l l r 6 6 r y l l l l k j h h r h y k l l l l j r 6 6 r l l l l l l l l y 0 6 e y j l l l l l l u r 0 3 3 2 1 , - a c H P L K K J ",
"K K K P P G c p - 1 1 i 9 8 0 e j j k j k j j k r 0 6 0 j l M l l l l M u r 9 6 r l l l l l l k h h h h j k l l l l u r 0 6 r k l l l l l l l y e 3 0 r u k j j j k j h 0 0 8 2 1 1 , , a b G K L L K K ",
"K K K K P G b p = 1 1 2 > 9 0 0 h h h h h h h h e 0 6 r y l l M l l l l l y 6 6 e y l l l l l y h h e h j k l l l l k r 6 6 y k l l l l l l l j e 6 6 e y h j j h h h h 0 0 8 2 2 i , - p b G L K K J K ",
"K K L L J J b a - 1 1 2 5 9 0 0 q h h d h h h d e 6 6 0 y k k k l l k k y r 0 0 r k l l l l y y e e q q h k M l l l l r 0 9 r k l l k k l k k r 0 6 0 e h h h d h h h e r 0 8 3 2 i , = p b G K L K J K ",
"K J P P J G c p - 1 1 i 2 8 0 q e h h h h h h h e 0 9 0 e j j h j j j y y e 8 0 r l l l l l y r 0 8 4 6 h h k M l l u r 0 6 0 j j j j j j k j r 0 6 0 e h h h h h h h h 0 0 8 2 1 1 , , i b G P P K K K ",
"K K K K P H b p - , 1 i 9 8 4 0 h h h h h h h h r 0 6 0 e h h h d h h h h 0 9 0 r j l l l l y e 4 3 3 4 e y l l l l k r 0 9 0 r h h h h h h h e 0 8 0 q r h h h h h h d 0 7 8 9 i i , - p c G J L K K K ",
"K J K L J H b p - , i < 9 3 0 0 h h h h h h h h r 0 3 0 0 h h h h d r h h 0 9 9 e j k k l u y 0 4 3 3 4 e r j k l l y e 9 9 w r h h h d h h h e 9 0 0 r h h h h h h h h q 0 3 5 2 1 1 - a b G P K K K K ",
"K K K L J G b p - , , i 9 7 0 0 e h h h h h h h 0 0 9 0 e h h h h h h h r w i 2 w y h j j r e 0 6 6 3 6 0 r h j j y r w 2 2 s d h h h h h h h 0 0 4 0 e h h h h h h h h e 0 8 2 p 1 , - p b G K K K K K ",
"J K K L P H b a - , i i 9 8 8 e e h h h h h j j r 0 6 0 q h h h h h h h r s 2 2 2 d h j h r e 0 9 3 3 5 0 e d j e y e w i 2 0 d h h h h h h h e 0 4 0 e h h d h h h h h 0 8 9 > 1 1 1 - p b H K P K K J ",
"P L P I P H b p - , i 2 2 8 4 0 h h h h h h h h r 0 3 0 e y h h h h h h h w i 2 s r h h h r e 9 9 2 i i i e h h h h e w 2 2 d d h h h h h h h q 0 9 0 0 j j h h h h h h q 0 4 9 2 i , - p b J P L L P K ",
"K K J P P G b p - : 1 2 < 8 0 r h h h h h h h h r 0 6 0 0 h h h r h h t h 9 2 2 9 d h j h h w i 1 i 1 1 i d h h j h h w 2 i 9 d h h h h h h h q 0 0 0 r h h h h h h h q q 8 9 9 2 1 , - a b G P L P K P ",
"F S S G S A z p : 1 1 2 5 8 0 0 h h h h h h h h e w 9 9 e h h j h h h h r s 2 i w h h y h h q w i , 1 1 w e h h j r r w 2 2 0 h j h h h h h h h 9 5 w e h h h h h h h h q 8 3 9 2 2 1 : i z A S G S S S ",
"f g z f z a p i 1 1 i 2 9 8 4 0 h h h j h h h h e w 2 9 d j h h j h h h r d 2 2 w e j y h h d w 1 i 1 1 i e h h j j h 9 2 i s h h h h h j h h e w 2 9 d h h h h h h h h q 4 3 9 i 1 1 1 i p a a g g g f ",
": - : : - : 1 2 i i 1 2 9 9 9 0 r r d d h h h h w 9 1 2 d h h h r r r r e 9 2 2 w e e y h e d 9 i , , i w w h h h h d s 2 i w d h h d d h h h w p 2 2 e d h r r d h h w e 8 9 < 2 1 i i 2 1 : - - : : : ",
": : : 1 , 1 2 1 1 i 1 i 2 2 9 9 9 s w w w w w w s 2 2 p 2 9 s 9 w w s w 9 s p 2 i w s e w w p 2 i i i 1 i 9 w w 0 s w 2 2 2 2 2 s 0 s w w w s 9 i 1 2 w s d 9 s w w w w w 9 9 < 2 i i 1 2 1 1 , : : : 1 ",
"1 2 2 1 1 2 2 1 1 2 1 i i 2 i 2 i 2 , i i i 2 i 1 i 1 1 2 2 1 i 2 2 1 p 2 p 2 2 1 2 2 p 2 i 1 i , i 1 i 1 i i 2 i 1 2 i 1 i i i 2 2 i 1 1 i 2 i i 1 1 i 2 2 1 i i 2 i , 2 i i i i 1 1 i 2 1 1 i 2 1 2 1 ",
"i 2 i 1 i i 1 i i 1 i 2 2 2 1 1 i 1 i i , , i 1 i 1 i i 1 i i 1 i 1 i 1 1 1 1 2 p 1 1 1 1 1 i 1 , i i 1 i 1 i 1 1 i 1 1 i 1 1 i 1 2 1 1 i 1 i < 1 i 2 2 1 1 i 1 i 1 i , i 1 1 i 1 2 i 1 2 i i 1 2 2 i 2 "
};
