/* XPM */
static char *result[] = {
/* columns rows colors chars-per-pixel */
"100 70 178 2 ",
"   c #000002",
".  c #0C0003",
"X  c #01000A",
"o  c #0C020E",
"O  c #0B090F",
"+  c #130000",
"@  c #1D0000",
"#  c #12050E",
"$  c #160A0F",
"%  c #1A0D0F",
"&  c #1D110F",
"*  c #060010",
"=  c #0F0B10",
"-  c #160312",
";  c #1D0211",
":  c #150D10",
">  c #1B0E11",
",  c #1D1210",
"<  c #230000",
"1  c #2C0000",
"2  c #340000",
"3  c #3B0000",
"4  c #310509",
"5  c #28140F",
"6  c #321008",
"7  c #391A0C",
"8  c #230012",
"9  c #221512",
"0  c #2A1415",
"q  c #251913",
"w  c #2A1D14",
"e  c #351C14",
"r  c #351D18",
"t  c #381F19",
"y  c #2D2215",
"u  c #342516",
"i  c #392415",
"p  c #362917",
"a  c #3E2A17",
"s  c #352418",
"d  c #392519",
"f  c #372918",
"g  c #3B2C19",
"h  c #3E301A",
"j  c #430100",
"k  c #450806",
"l  c #490D03",
"z  c #491505",
"x  c #4D1A06",
"c  c #461708",
"v  c #4C1D0A",
"b  c #451B10",
"n  c #44220C",
"m  c #4E200B",
"M  c #4C290F",
"N  c #51230B",
"B  c #53280E",
"V  c #402512",
"C  c #462D15",
"Z  c #4B2E16",
"A  c #422E1B",
"S  c #552E11",
"D  c #44331C",
"F  c #49341E",
"G  c #4C3A1E",
"H  c #4D3217",
"J  c #533315",
"K  c #5C3515",
"L  c #5E3916",
"P  c #533C1E",
"I  c #5D3A19",
"U  c #553319",
"Y  c #623B17",
"T  c #633D19",
"R  c #683E18",
"E  c #4C3720",
"W  c #4E3B20",
"Q  c #503721",
"!  c #523D21",
"~  c #51411F",
"^  c #65421B",
"/  c #6A441C",
"(  c #6C491E",
")  c #754D1F",
"_  c #554222",
"`  c #5B4424",
"'  c #5E4A26",
"]  c #624724",
"[  c #624B26",
"{  c #6C4C22",
"}  c #654E28",
"|  c #694E2A",
" . c #714F24",
".. c #665228",
"X. c #6C542B",
"o. c #6C5A2A",
"O. c #745324",
"+. c #7A5625",
"@. c #775826",
"#. c #7B5926",
"$. c #71562B",
"%. c #785628",
"&. c #735B2D",
"*. c #7B5C2C",
"=. c #765E30",
"-. c #795E30",
";. c #75622F",
":. c #7C622F",
">. c #7C6232",
",. c #7E6932",
"<. c #845E28",
"1. c #815A26",
"2. c #84622C",
"3. c #8A652C",
"4. c #8B692E",
"5. c #826532",
"6. c #856A35",
"7. c #8B6C34",
"8. c #8C6F38",
"9. c #906F31",
"0. c #877236",
"q. c #8D7135",
"w. c #8E7139",
"e. c #947334",
"r. c #987735",
"t. c #9B7936",
"y. c #907339",
"u. c #947B3A",
"i. c #9B7D3B",
"p. c #A27F3A",
"a. c #97803C",
"s. c #9B823D",
"d. c #A4843C",
"f. c #A9853C",
"g. c #A4883F",
"h. c #AD8B3F",
"j. c #B18C3F",
"k. c #A38541",
"l. c #A48A41",
"z. c #AB8E42",
"x. c #B18F41",
"c. c #AF9145",
"v. c #B49344",
"b. c #B89746",
"n. c #B39847",
"m. c #BC9946",
"M. c #B49648",
"N. c #B69948",
"B. c #BB9C4A",
"V. c #BEA04C",
"C. c #C29F49",
"Z. c #C3A34C",
"A. c #C9A54C",
"S. c #CCAA4F",
"D. c #D1AB4E",
"F. c #C7A550",
"G. c #C7A850",
"H. c #CCAB51",
"J. c #D1AE51",
"K. c #CFB053",
"L. c #D5B455",
"P. c #DAB555",
"I. c #DEB957",
"U. c #DDBB59",
"Y. c #E0BB57",
"T. c #E2BE59",
"R. c #E5C25C",
"E. c #EAC65D",
"W. c #EEC95F",
"Q. c #F0CA5F",
"!. c #EECA60",
"~. c #F2CD61",
"^. c #F6D163",
"/. c #FAD464",
"(. c #FED867",
"). c #FFDD69",
"_. c #FFE26C",
"`. c None",
/* pixels */
"`.`.`.`.`.`.`.`.`.`.`.`.`.`.`.`.`.`.`.`.`.`.`.`.`.`.`.`.`.`.`.`.`.`.`.`.`.`.`.`.`.`.`.`.`.`.`.`.`.`.`.`.`.`.`.`.`.`.`.`.`.`.`.`.`.`.`.`.`.`.`.`.`.`.`.`.`.`.`.`.`.`.`.`.`.`.`.`.`.`.`.`.`.`.`.`.`.`.`.`.",
"`.`.`.`.`.`.`.`.`.`.`.`.`.`.`.`.`.`.`.`.`.`.`.`.`.`.`.`.`.`.`.`.`.`.`.`.`.`.`.`.`.`.`.`.`.`.`.`.`.`.`.`.`.`.`.`.`.`.`.`.`.`.`.`.`.`.`.`.`.`.`.`.`.`.`.`.`.`.`.`.`.`.`.`.`.`.`.`.`.`.`.`.`.`.`.`.`.`.`.`.",
"`.`.`.`.`.`.`.`.`.`.`.`.`.`.`.`.`.`.`.`.`.`.`.`.`.`.`.`.`.`.`.`.`.`.`.`.`.`.`.`.`.`.`.`.`.`.`.`.`.`.`.`.`.`.`.`.`.`.`.`.`.`.`.`.`.`.`.`.`.`.`.`.`.`.`.`.`.`.`.`.`.`.`.`.`.`.`.`.`.`.`.`.`.`.`.`.`.`.`.`.",
"`.`.`.`.`.`.`.`.`.`.`.`.`.`.`.`.`.`.`.`.`.`.`.`.`.`.`.`.`.`.`.`.`.`.`.`.`.`.`.`.`.`.`.`.`.`.`.`.`.`.`.`.`.`.`.`.`.`.`.`.`.`.`.`.`.`.`.`.`.`.`.`.`.`.`.`.`.`.`.`.`.`.`.`.`.`.`.`.`.`.`.`.`.`.`.`.`.`.`.`.",
"`.`.`.`.`.`.`.`.`.`.`.`.`.`.`.`.`.`.`.`.`.`.`.`.`.`.`.`.`.`.`.`.`.`.`.`.`.`.`.`.`.`.`.`.`.`.`.`.`.`.`.`.`.`.`.`.`.`.`.`.`.`.`.`.`.`.`.`.`.`.`.`.`.`.`.`.`.`.`.`.`.`.`.`.`.`.`.`.`.`.`.`.`.`.`.`.`.`.`.`.",
"`.`.`.`.`.`.`.`.`.`.`.`.`.`.`.`.`.`.`.`.`.`.`.`.`.`.`.`.`.`.`.`.`.`.`.`.`.`.`.`.`.`.`.`.`.`.`.`.`.`.`.`.`.`.`.`.`.`.`.`.`.`.`.`.`.`.`.`.`.`.`.`.`.`.`.`.`.`.`.`.`.`.`.`.`.`.`.`.`.`.`.`.`.`.`.`.`.`.`.`.",
"`.`.`.`.`.`.`.`.`.`.`.`.`.`.`.`.`.`.`.`.`.`.`.`.`.`.`.`.`.`.`.`.`.`.`.`.`.`.`.`.`.`.`.`.`.`.`.`.`.`.`.`.`.`.`.`.`.`.`.`.`.`.`.`.`.`.`.`.`.`.`.`.`.`.`.`.`.`.`.`.`.`.`.`.`.`.`.`.`.`.`.`.`.`.`.`.`.`.`.`.",
"`.`.`.`.`.`.`.`.`.`.`.`.`.`.`.`.`.`.`.`.`.`.`.`.`.`.`.`.`.`.`.`.`.`.`.`.`.`.`.`.`.`.`.`.`.`.`.`.`.`.`.`.`.`.`.`.`.`.`.`.`.`.`.`.`.`.`.< < < < `.`.`.`.`.`.`.`.`.`.`.`.`.`.`.`.`.`.`.`.`.`.`.`.`.`.`.`.`.",
"`.`.`.`.`.`.`.`.`.`.`.`.`.`.`.`.`.`.`.`.`.`.`.`.`.`.`.`.`.`.`.`.`.`.`.`.`.`.`.`.`.`.`.`.`.`.`.`.`.`.`.`.`.`.`.`.`.`.`.`.`.`.`.`.+ @ @ @ @ @ @ @ @ `.`.`.`.`.`.`.`.`.`.`.`.`.`.`.`.`.`.`.`.`.`.`.`.`.`.`.",
"`.`.`.`.`.`.`.`.`.`.`.`.`.`.`.`.`.`.`.`.`.`.`.`.`.`.`.`.`.`.`.`.`.`.`.`.`.`.`.`.`.`.`.`.`.`.`.`.`.`.`.`.`.`.`.`.`.`.`.`.`.`.`.`.1 1 1 1 1 1 1 1 < 1 `.`.`.`.`.`.`.`.`.`.`.`.`.`.`.`.`.`.`.`.`.`.`.`.`.`.",
"`.`.`.`.`.`.`.`.`.`.`.`.`.`.`.`.`.`.`.`.`.`.`.`.`.`.`.`.`.`.`.`.`.`.`.`.`.`.`.`.`.`.`.`.`.`.`.`.`.`.`.`.`.`.`.`.`.`.`.`.`.`.`.j j j j j j j j j j j `.`.`.`.`.`.`.`.`.`.`.`.`.`.`.`.`.`.`.`.`.`.`.`.`.`.",
"`.`.`.`.`.`.`.`.`.`.`.`.`.`.`.`.`.`.`.`.`.`.`.`.`.`.`.`.`.`.`.`.`.`.`.`.`.`.`.`.`.`.`.`.`.`.`.`.`.`.`.`.`.`.`.`.`.`.`.`.`.`.`.L K Y Y R T T R Y L K K `.`.`.`.`.`.`.`.`.`.`.`.`.`.`.`.`.`.`.`.`.`.`.`.`.",
"`.`.`.`.`.`.`.`.`.`.`.`.`.`.`.`.`.`.`.`.`.`.`.`.`.`.`.`.`.`.`.`.`.`.`.`.`.`.`.`.`.`.`.`.`.`.`.`.`.`.`.`.`.`.`.`.`.`.`.`.`.`.@.+.+.#.3.3.4.3.3.<.#.#.@.`.`.`.`.`.`.`.`.`.`.`.`.`.`.`.`.`.`.`.`.`.`.`.`.`.",
"`.`.`.`.`.`.`.`.`.`.`.`.`.`.`.`.`.`.`.`.`.`.`.`.`.`.`.`.`.`.`.`.`.`.`.`.`.`.`.`.`.`.`.`.`.`.`.`.`.`.`.`.`.`.`.`.`.`.`.`.`.`.4.7.9.p.f.j.j.j.h.d.e.e.4.7.`.`.`.`.`.`.`.`.`.`.`.`.`.`.`.`.`.`.`.`.`.`.`.`.",
"`.`.`.`.`.`.`.`.`.`.`.`.`.`.`.`.`.`.`.`.`.`.`.`.`.`.`.`.`.`.`.`.`.`.`.`.`.`.`.`.`.`.`.`.`.`.`.`.`.`.`.`.`.`.`.`.`.`.`.`.`.4.i.d.j.m.A.D.D.D.S.C.v.h.g.t.3.`.`.`.`.`.`.`.`.`.`.`.`.`.`.`.`.`.`.`.`.`.`.`.",
"`.`.`.`.`.`.`.`.`.`.`.`.`.`.`.`.`.`.`.`.`.`.`.`.`.`.`.`.`.`.`.`.`.`.`.`.`.`.`.`.`.`.`.`.`.`.`.`.`.`.`.`.`.`.`.`.`.`.`.1 ( 9.g.b.C.P.Y.T.T.E.T.P.S.m.b.d.e.O.`.`.`.`.`.`.`.`.`.`.`.`.`.`.`.`.`.`.`.`.`.`.",
"`.`.`.`.`.`.`.`.`.`.`.`.`.`.`.`.`.`.`.`.`.`.`.`.`.`.`.`.`.`.`.`.`.`.`.`.`.`.`.`.`.`.`.`.`.`.`.`.`.`.`.`.`.`.`.`.`.`.  1 { e.c.Z.J.R.Q.~././.~.Q.Y.D.Z.h.e.O.z `.`.`.`.`.`.`.`.`.`.`.`.`.`.`.`.`.`.`.`.`.",
"`.`.`.`.`.`.`.`.`.`.`.`.`.`.`.`.`.`.`.`.`.`.`.`.`.`.`.`.`.`.`.`.`.`.`.`.`.`.`.`.`.`.`.`.`.`.`.`.`.`.`.`.`.`.`.`.`.    3 O.t.b.D.R.^.(.).).).)./.W.P.S.j.r.O.x . `.`.`.`.`.`.`.`.`.`.`.`.`.`.`.`.`.`.`.`.",
"`.`.`.`.`.`.`.`.`.`.`.`.`.`.`.`.`.`.`.`.`.`.`.`.`.`.`.`.`.`.`.`.`.`.`.`.`.`.`.`.`.`.`.`.`.`.`.`.`.`.`.`.`.`.`.`.`.    m #.s.Z.P.W./.)._._._._./.~.R.J.m.r.O.N <   `.`.`.`.`.`.`.`.`.`.`.`.`.`.`.`.`.`.`.",
"`.`.`.`.`.`.`.`.`.`.`.`.`.`.`.`.`.`.`.`.`.`.`.`.`.`.`.`.`.`.`.`.`.`.`.`.`.`.`.`.`.`.`.`.`.`.`.`.`.`.`.`.`.`.`.`.< 1 z / 9.b.S.Y.Q.(.)._._._._.)./.E.P.V.d.1.S 2 @ `.`.`.`.`.`.`.`.`.`.`.`.`.`.`.`.`.`.`.",
"`.`.`.`.`.`.`.`.`.`.`.`.`.`.`.`.`.`.`.`.`.`.`.`.`.`.`.`.`.`.`.`.`.`.`.`.`.`.`.`.`.`.`.`.`.`.`.`.`.`.`.`.`.`.`.`.L ^ ( 3.f.C.P.R.^.^.)._._._._._.~.R.L.Z.f.2.L k 3 3 `.`.`.`.`.`.`.`.`.`.`.`.`.`.`.`.`.`.",
"`.`.`.`.`.`.`.`.`.`.`.`.`.`.`.`.`.`.`.`.`.`.`.`.`.`.`.`.`.`.`.`.`.`.`.`.`.`.`.`.`.`.`.`.`.`.`.`.`.`.`.`.`.`.`.#.:.3.4.f.m.D.P.Y.E.W.^.^.^.^.^.~.E.Y.J.m.f.3.] S b b `.`.`.`.`.`.`.`.`.`.`.`.`.`.`.`.`.`.",
"`.`.`.`.`.`.`.`.`.`.`.`.`.`.`.`.`.`.`.`.`.`.`.`.`.`.`.`.`.`.`.`.`.`.`.`.`.`.`.`.`.`.`.`.`.`.`.`.`.`.`.`.`.`.@.7.r.s.f.C.S.P.P.I.I.T.T.R.R.R.T.U.L.S.Z.n.d.4.{ I U Z H `.`.`.`.`.`.`.`.`.`.`.`.`.`.`.`.`.",
"`.`.`.`.`.`.`.`.`.`.`.`.`.`.`.^ L S v j 2 < . . . + + @ @ @ @ @ @ @ @ @ @ @ @ @ @ @ @ @ @ @ @ +     `.`.`.j +.e.f.b.Z.D.P.P.P.D.S.G.S.S.S.G.G.G.V.n.j.g.r.7.%.{ ] I G f , `.`.`.`.`.`.`.`.`.`.`.`.`.`.`.",
"`.`.`.`.`.`.`.`.`.`.`.`.`.`.^ ^ L S v j 2 < @ . + @ @ @ @ < @ < @ @ < @ < @ < @ < @ < @ < @ < @           j #.s.b.S.P.T.R.I.J.A.m.v.c.h.z.z.h.l.l.s.i.i.w.6.-.$.{ ` G f ,   `.`.`.`.`.`.`.`.`.`.`.`.`.`.",
"`.`.`.`.`.`.`.`.`.`.`.`.`.^ ^ T L K B z j 3 1 2 1 2 2 2 2 2 2 2 2 2 2 2 2 2 2 2 2 2 2 2 2 2 2 2 <         m :.h.Z.L.R.W.E.R.J.m.f.r.4.3.,.,.6.,.,.>.6.6.7.8.5.-.X.] P f , X   `.`.`.`.`.`.`.`.`.`.`.`.`.",
"`.`.`.`.`.`.`.`.`.`.`.`.`.^ ^ T Y Y K S B N N x v v v m m m m N N v N v m m m m m v m m N v m v k 2 +   2 L 4.j.S.R.^.^.^.R.J.j.r.#.^ U J G P ~ _ ' X.-.5.8.6.>.=.| ! g & X X `.`.`.`.`.`.`.`.`.`.`.`.`.",
"`.`.`.`.`.`.`.`.`.`.`.`.T Y L Y / ( ( ( ( ( ( ( ( ( ( ( ( ( ( ( ( ( ( ( ( ( ( ( ( ( ( / ( ( ( ( ^ K N v K @.t.m.P.Q.(.)./.E.J.j.4.Y 1           : h ` $.5.8.8.6.-.X.` g & X X   `.`.`.`.`.`.`.`.`.`.`.`.",
"`.`.`.`.`.`.`.`.`.`.`.`.K L L / ) 1.<.3.3.3.9.9.e.4.4.9.9.4.4.9.7.9.4.4.4.7.9.4.9.9.9.9.4.9.9.4.4.2.#.#.2.r.j.S.R./._._./.E.D.h.:.c               , W X.>.8.8.8.>.o.' g , X     `.`.`.`.`.`.`.`.`.`.`.`.",
"`.`.`.`.`.`.`.`.`.`.`.`.S S K R +.3.9.p.p.j.j.j.v.j.j.h.h.j.h.h.j.h.h.h.h.x.h.j.h.h.h.h.j.h.j.h.f.f.d.p.f.j.A.I.Q.)._._.).E.D.g.*.2               * E X.>.8.w.8.6.*.` D , X   X `.`.`.`.`.`.`.`.`.`.`.`.",
"`.`.`.`.`.`.`.`.`.`.`.`.N N S / 1.9.p.j.C.C.A.D.S.S.A.S.S.A.A.A.A.A.A.A.A.A.A.A.A.A.A.A.A.A.S.A.A.A.C.C.A.D.P.W./._._._.).E.H.g.@.1               - W X.>.8.8.8.6.X.` h , X   X `.`.`.`.`.`.`.`.`.`.`.`.",
"`.`.`.`.`.`.`.`.`.`.`.`.l l B R 1.p.j.C.D.P.Y.T.R.Y.I.I.I.Y.I.I.I.I.P.I.I.I.I.Y.Y.Y.Y.Y.Y.Y.P.Y.Y.P.P.P.P.Y.E.~.)._._._./.R.H.g.@.4             X w _ X.,.8.8.6.>.=.` D , X X   `.`.`.`.`.`.`.`.`.`.`.`.",
"`.`.`.`.`.`.`.`.`.`.`.`.3 j x Y <.p.b.J.P.!.~.~.~.Q.Q.W.W.!.W.E.E.E.E.E.Q.Q.W.Q.W.W.W.W.W.W.W.W.W.W.E.W.W.~.^./._._._._.(.R.G.g.;.7             X g ` o.-.8.8.6.-.$.` g , X X   `.`.`.`.`.`.`.`.`.`.`.`.",
"`.`.`.`.`.`.`.`.`.`.`.`.2 2 k Y 3.f.C.P.R.~./.(.(.(.(./././.^.^.^.^.^.^.^.^.^.^.^.^.(.^././././././.^.^.^.^.(.)._._._.).^.T.G.s.;.u           X q D ' =.5.8.8.6.-.X.` g , *   X `.`.`.`.`.`.`.`.`.`.`.`.",
"`.`.`.`.`.`.`.`.`.`.`.`.`.< 3 Y 3.h.C.I.!.^.).)._.(.(.(.(.(.(.(.(.(.(.(.(.(.(.(.(.(.).^.(.(.(.(.(.(.(.(.(.(.(._._._._.(.!.U.V.s.;.u           o y G ' =.5.8.8.6.>.X.` g , X X   `.`.`.`.`.`.`.`.`.`.`.`.",
"`.`.`.`.`.`.`.`.`.`.`.`.`.@ 3 K <.h.A.I.!./.)._._.).).(.(.(.(.).(.(.(.(.(.(.(.(.(.(.(._.(.(.(.(.(.(.(.(.(.(.(._.).).)./.E.L.V.s.o.y           % u W [ =.5.6.8.6.-.X.` g , X   X `.`.`.`.`.`.`.`.`.`.`.`.",
"`.`.`.`.`.`.`.`.`.`.`.`.`.. 1 J <.g.C.P.!.~.(.).(.(./.^.^.^.^.^./././.(.^.^.^.^.^.^.^.^.^.^.^.^.^.^.^.^.^.^.^.^././.^.!.T.K.n.0.o.q           q g P ..*.5.8.8.6.>.X.` g & X     `.`.`.`.`.`.`.`.`.`.`.`.",
"`.`.`.`.`.`.`.`.`.`.`.`.`.  1 J *.i.m.J.U.!.~.^.~.~.!.E.E.W.!.!.!.!.!.!.W.W.E.R.R.E.R.R.E.E.E.E.E.E.E.E.E.!.E.E.!.!.!.R.L.G.z.0.' ,         + 7 C ` ..*.5.8.w.6.>.X.` h , X   X `.`.`.`.`.`.`.`.`.`.`.`.",
"`.`.`.`.`.`.`.`.`.`.`.`.`.  < C $.e.z.C.K.U.U.!.!.T.P.L.L.L.U.I.U.T.T.U.U.P.P.L.K.K.K.K.K.L.L.P.P.L.L.L.L.K.U.U.U.U.U.L.H.N.s.,._ O         < 7 H ` $.*.6.8.8.6.>.o.` h , X   X `.`.`.`.`.`.`.`.`.`.`.`.",
"`.`.`.`.`.`.`.`.`.`.`.`.`.  @ V ] 6.k.M.V.G.K.K.G.G.V.V.V.V.Z.G.H.K.H.H.H.G.V.N.n.n.n.n.V.V.V.V.V.B.V.V.V.V.V.G.H.H.H.G.V.l.a.;.~ X         4 n U ^ $.2.6.y.y.6.5.$.` A , X X   `.`.`.`.`.`.`.`.`.`.`.`.",
"`.`.`.`.`.`.`.`.`.`.`.`.`.  . i ~ :.y.k.c.N.B.B.M.c.l.s.s.s.l.c.M.B.N.N.M.z.l.s.u.u.u.u.a.a.s.s.s.a.a.a.a.s.l.c.M.N.B.M.c.k.6.X.D X       < 6 B I { %.<.8.w.w.8.>.$.' g , X     `.`.`.`.`.`.`.`.`.`.`.`.",
"`.`.`.`.`.`.`.`.`.`.`.`.`.    w G X.5.y.s.k.k.k.u.w.>.&.;.;.6.u.s.k.k.k.i.y.6.;.o.o.....o.o.o.o.o.o.o.o.o.&.,.q.u.k.k.k.i.8.;.' h X     + 4 n J I { %.5.6.w.w.6.>.=.' D , X X   `.`.`.`.`.`.`.`.`.`.`.`.",
"`.`.`.`.`.`.`.`.`.`.`.`.`.  X q C ` $.>.8.y.y.6.*...~ g h G ' &.6.w.y.8.6.&.[ W h y q y u p p h p y y q y D ~ ..-.6.w.y.8.>.X._ g & o @ 6 n B L ^  .%.5.6.8.8.6.;.X._ g , X   X `.`.`.`.`.`.`.`.`.`.`.`.",
"`.`.`.`.`.`.`.`.`.`.`.`.  X X : u G [ o.-.-.-.$.` A #     X g ` X.-.-.-.X.` g o                             8 D ' X.-.-.>.$.} _ A u u i C J I ^ { O.*.2.6.6.6.>.=.| W f , X   `.`.`.`.`.`.`.`.`.`.`.`.`.",
"`.`.`.`.`.`.`.`.`.`.`.`.* * * = w E ! } X.X.| ] F 8         o A ` | X.| ! F ;                                 8 F ! | X.X.} } ! E D G G ! ^ ] {  .%.*.2.5.5.>.=.X.' W p , X   `.`.`.`.`.`.`.`.`.`.`.`.`.",
"`.`.`.`.`.`.`.`.`.`.`.`.X * * = q A Q ` [ ] ! Q d X           r ! ! [ [ Q t X                                 X r Q ! | } } [ ' ` ` ` [ {  . .$.%.%.*.-.>.>.$.X.} ` E f , X `.`.`.`.`.`.`.`.`.`.`.`.`.`.",
"`.`.`.`.`.`.`.`.`.`.`.`.* * * : q d E Q ] ! ! Q r X           r Q Q ! ! F r * X               `.`.`.`.`.`.    * 0 t Q ! ' } } } } ..X.$.%.-.*.1.-.1.*.-.*.$...[ _ W D f & `.`.`.`.`.`.`.`.`.`.`.`.`.`.`.",
"`.`.`.`.`.`.`.`.`.`.`.`.O O = > w s A Q Q Q Q A s o `.`.`.`.X r A Q Q Q F r ; *             `.`.`.`.`.`.`.`.  * 0 t A Q ` } X.X.=.*.-.5.5.5.5.3.5.5.-.%.$...` ! E E h `.`.`.`.`.`.`.`.`.`.`.`.`.`.`.`.`.",
"`.`.`.`.`.`.`.`.`.`.`.`.$ $ , , w s a A E E A g f 0 `.`.`.`.`.f g A D E A f 0 - X X       `.`.`.`.`.`.`.`.`.`.# q w f F _ } X.=.-.5.6.8.8.8.8.7.5.5.-.$...` F g g p `.`.`.`.`.`.`.`.`.`.`.`.`.`.`.`.`.`.",
"`.`.`.`.`.`.`.`.`.`.`.`., , , q w w f f f f f f s `.`.`.`.`.`.u f f f g f s y q 9 : - # `.`.`.`.`.`.`.`.`.`.`.`.$ , w a ! [ X.-.5.6.8.w.w.8.w.8.6.5.-.| ` D u q , , `.`.`.`.`.`.`.`.`.`.`.`.`.`.`.`.`.`.",
"`.`.`.`.`.`.`.`.`.`.`.`., 9 , q 9 q q q 9 9 9 9 9 `.`.`.`.`.`.`.9 9 9 9 9 9 9 9 9 , & 9 `.`.`.`.`.`.`.`.`.`.`.`.  X X q D ` X.-.5.8.w.y.w.y.y.8.6.-.$.| W f $ X   `.`.`.`.`.`.`.`.`.`.`.`.`.`.`.`.`.`.`.",
"`.`.`.`.`.`.`.`.`.`.`.`.`.9 9 9 9 % $ # o X X X `.`.`.`.`.`.`.`.X X X o o > , , 9 9 q `.`.`.`.`.`.`.`.`.`.`.`.`.`.    o u W } &.5.6.8.8.y.w.8.8.6.-.$.! D q       `.`.`.`.`.`.`.`.`.`.`.`.`.`.`.`.`.`.`.",
"`.`.`.`.`.`.`.`.`.`.`.`.`.q q 9 > $ o X X X   X `.`.`.`.`.`.`.`.    X X X o $ % 9 q q `.`.`.`.`.`.`.`.`.`.`.`.`.`.    X u G ' X.>.,.6.8.8.8.8.6.-.=.} ~ g :     `.`.`.`.`.`.`.`.`.`.`.`.`.`.`.`.`.`.`.`.",
"`.`.`.`.`.`.`.`.`.`.`.`.`.`.q 9 9 # o X   X   `.`.`.`.`.`.`.`.`.`.X X   X X # , & q `.`.`.`.`.`.`.`.`.`.`.`.`.`.`.`.  X w D ` ..$.-.5.6.6.6.>.>.$.X.' ~ f =   `.`.`.`.`.`.`.`.`.`.`.`.`.`.`.`.`.`.`.`.`.",
"`.`.`.`.`.`.`.`.`.`.`.`.`.`.`.`., : X X X   `.`.`.`.`.`.`.`.`.`.`.`.`.  X X # % `.`.`.`.`.`.`.`.`.`.`.`.`.`.`.`.`.`.`.  w D _ ` } X.=.-.=.=.=.X.| ' _ E f : `.`.`.`.`.`.`.`.`.`.`.`.`.`.`.`.`.`.`.`.`.`.",
"`.`.`.`.`.`.`.`.`.`.`.`.`.`.`.`.`.`.`.`.`.`.`.`.`.`.`.`.`.`.`.`.`.`.`.`.`.`.`.`.`.`.`.`.`.`.`.`.`.`.`.`.`.`.`.`.`.`.`.`.`.g G ~ _ ' | ..| X.} [ ` W W E f `.`.`.`.`.`.`.`.`.`.`.`.`.`.`.`.`.`.`.`.`.`.`.",
"`.`.`.`.`.`.`.`.`.`.`.`.`.`.`.`.`.`.`.`.`.`.`.`.`.`.`.`.`.`.`.`.`.`.`.`.`.`.`.`.`.`.`.`.`.`.`.`.`.`.`.`.`.`.`.`.`.`.`.`.`.`.D D D W ! _ _ ! _ W F D D g `.`.`.`.`.`.`.`.`.`.`.`.`.`.`.`.`.`.`.`.`.`.`.`.",
"`.`.`.`.`.`.`.`.`.`.`.`.`.`.`.`.`.`.`.`.`.`.`.`.`.`.`.`.`.`.`.`.`.`.`.`.`.`.`.`.`.`.`.`.`.`.`.`.`.`.`.`.`.`.`.`.`.`.`.`.`.`.u u u f g g g g g f u u u `.`.`.`.`.`.`.`.`.`.`.`.`.`.`.`.`.`.`.`.`.`.`.`.`.",
"`.`.`.`.`.`.`.`.`.`.`.`.`.`.`.`.`.`.`.`.`.`.`.`.`.`.`.`.`.`.`.`.`.`.`.`.`.`.`.`.`.`.`.`.`.`.`.`.`.`.`.`.`.`.`.`.`.`.`.`.`.`.`.& , , , , 9 , , , & , , `.`.`.`.`.`.`.`.`.`.`.`.`.`.`.`.`.`.`.`.`.`.`.`.`.",
"`.`.`.`.`.`.`.`.`.`.`.`.`.`.`.`.`.`.`.`.`.`.`.`.`.`.`.`.`.`.`.`.`.`.`.`.`.`.`.`.`.`.`.`.`.`.`.`.`.`.`.`.`.`.`.`.`.`.`.`.`.`.`.X X X X X X X X X X X `.`.`.`.`.`.`.`.`.`.`.`.`.`.`.`.`.`.`.`.`.`.`.`.`.`.",
"`.`.`.`.`.`.`.`.`.`.`.`.`.`.`.`.`.`.`.`.`.`.`.`.`.`.`.`.`.`.`.`.`.`.`.`.`.`.`.`.`.`.`.`.`.`.`.`.`.`.`.`.`.`.`.`.`.`.`.`.`.`.`.`.X X   X   X X X   X `.`.`.`.`.`.`.`.`.`.`.`.`.`.`.`.`.`.`.`.`.`.`.`.`.`.",
"`.`.`.`.`.`.`.`.`.`.`.`.`.`.`.`.`.`.`.`.`.`.`.`.`.`.`.`.`.`.`.`.`.`.`.`.`.`.`.`.`.`.`.`.`.`.`.`.`.`.`.`.`.`.`.`.`.`.`.`.`.`.`.`.                  `.`.`.`.`.`.`.`.`.`.`.`.`.`.`.`.`.`.`.`.`.`.`.`.`.`.`.",
"`.`.`.`.`.`.`.`.`.`.`.`.`.`.`.`.`.`.`.`.`.`.`.`.`.`.`.`.`.`.`.`.`.`.`.`.`.`.`.`.`.`.`.`.`.`.`.`.`.`.`.`.`.`.`.`.`.`.`.`.`.`.`.`.`.`.`.X X     `.`.`.`.`.`.`.`.`.`.`.`.`.`.`.`.`.`.`.`.`.`.`.`.`.`.`.`.`.",
"`.`.`.`.`.`.`.`.`.`.`.`.`.`.`.`.`.`.`.`.`.`.`.`.`.`.`.`.`.`.`.`.`.`.`.`.`.`.`.`.`.`.`.`.`.`.`.`.`.`.`.`.`.`.`.`.`.`.`.`.`.`.`.`.`.`.`.`.`.`.`.`.`.`.`.`.`.`.`.`.`.`.`.`.`.`.`.`.`.`.`.`.`.`.`.`.`.`.`.`.",
"`.`.`.`.`.`.`.`.`.`.`.`.`.`.`.`.`.`.`.`.`.`.`.`.`.`.`.`.`.`.`.`.`.`.`.`.`.`.`.`.`.`.`.`.`.`.`.`.`.`.`.`.`.`.`.`.`.`.`.`.`.`.`.`.`.`.`.`.`.`.`.`.`.`.`.`.`.`.`.`.`.`.`.`.`.`.`.`.`.`.`.`.`.`.`.`.`.`.`.`.",
"`.`.`.`.`.`.`.`.`.`.`.`.`.`.`.`.`.`.`.`.`.`.`.`.`.`.`.`.`.`.`.`.`.`.`.`.`.`.`.`.`.`.`.`.`.`.`.`.`.`.`.`.`.`.`.`.`.`.`.`.`.`.`.`.`.`.`.`.`.`.`.`.`.`.`.`.`.`.`.`.`.`.`.`.`.`.`.`.`.`.`.`.`.`.`.`.`.`.`.`.",
"`.`.`.`.`.`.`.`.`.`.`.`.`.`.`.`.`.`.`.`.`.`.`.`.`.`.`.`.`.`.`.`.`.`.`.`.`.`.`.`.`.`.`.`.`.`.`.`.`.`.`.`.`.`.`.`.`.`.`.`.`.`.`.`.`.`.`.`.`.`.`.`.`.`.`.`.`.`.`.`.`.`.`.`.`.`.`.`.`.`.`.`.`.`.`.`.`.`.`.`.",
"`.`.`.`.`.`.`.`.`.`.`.`.`.`.`.`.`.`.`.`.`.`.`.`.`.`.`.`.`.`.`.`.`.`.`.`.`.`.`.`.`.`.`.`.`.`.`.`.`.`.`.`.`.`.`.`.`.`.`.`.`.`.`.`.`.`.`.`.`.`.`.`.`.`.`.`.`.`.`.`.`.`.`.`.`.`.`.`.`.`.`.`.`.`.`.`.`.`.`.`.",
"`.`.`.`.`.`.`.`.`.`.`.`.`.`.`.`.`.`.`.`.`.`.`.`.`.`.`.`.`.`.`.`.`.`.`.`.`.`.`.`.`.`.`.`.`.`.`.`.`.`.`.`.`.`.`.`.`.`.`.`.`.`.`.`.`.`.`.`.`.`.`.`.`.`.`.`.`.`.`.`.`.`.`.`.`.`.`.`.`.`.`.`.`.`.`.`.`.`.`.`.",
"`.`.`.`.`.`.`.`.`.`.`.`.`.`.`.`.`.`.`.`.`.`.`.`.`.`.`.`.`.`.`.`.`.`.`.`.`.`.`.`.`.`.`.`.`.`.`.`.`.`.`.`.`.`.`.`.`.`.`.`.`.`.`.`.`.`.`.`.`.`.`.`.`.`.`.`.`.`.`.`.`.`.`.`.`.`.`.`.`.`.`.`.`.`.`.`.`.`.`.`."
};
