/* XPM */
static char *result[] = {
/* columns rows colors chars-per-pixel */
"100 100 41 1 ",
"  c #2F6B05",
". c #2F6D0B",
"X c #306E05",
"o c #306F08",
"O c #2F710E",
"+ c #337504",
"@ c #347903",
"# c #387C00",
"$ c #31750C",
"% c #33790B",
"& c #2D6D12",
"* c #2A6E1B",
"= c #2E7515",
"- c #2F7817",
"; c #2C751C",
": c #2E791B",
"> c #307611",
", c #317914",
"< c #307A19",
"1 c #1A6F2F",
"2 c #1E722E",
"3 c #166E32",
"4 c #196F30",
"5 c #167234",
"6 c #1A7433",
"7 c #1C7A36",
"8 c #177738",
"9 c #177839",
"0 c #1D7E38",
"q c #256E23",
"w c #206E2A",
"e c #267325",
"r c #297521",
"t c #277827",
"y c #2B7923",
"u c #22742A",
"i c #25792C",
"p c #287928",
"a c #217730",
"s c #217B32",
"d c #1E8039",
/* pixels */
"++++++XXXoX+@@@@@#%d#+X+++++++++oo++$++++oXo++%@#%@d%#$X++++@@@@++XoX++++XX+++++@@#%###%X++++++##++X",
"+X+++++++++@%@#d%##%+XX++++#+##+X+++++++X+++++#@%####+XXX++++@+@+++++++++++X+++%#%%#%#+$XX+++++++%+X",
"+@+++@++XX@%d@###%%+XXX++++++%+++++++@++++++@##@%###+XXX++#@@@@++++++@@@@@+X++@@@####+XXXX++%+#+++++",
"@@+@@@@@@o@@#@@@@++XXXX+++++++++++#+@@@@++O+@d###%##XXXXX++++@++++++@+@@@@@o%@@#%d##%oXXX+++++++++++",
"++++++@@+@@@###%@++Xo+++++++++++++o+@@@++++@@##d%#+oXX+X+++@+++++++++@@+@@@++d###@#++XoX+++++++++++%",
" +++@@@@@@@%##%#++o+++++++++++++++X++@@@@+@@@##@#%+++++@++$$%++++++X++@+@@@+@@#d%@%+X+++++++++++++++",
" +.++@@@@@@@@@@++%@@+%@##oX+++++++ +X+@+@@@@@@@@$++%%%+@#@;u=@@++++X+o++@+@++@@@@%$+%@+%+%%+X+++++++",
"+++++@@@+@@+@++++%#%@#%#+XX+#+++++++++@@+@@@@@@+X++##@#%#$w4q+++$O++X+++@@@+@@+@@+++#%###%#+XX++++++",
"+++@+++@@@++@++++@@@##%+XXX++++@++++++++@@+@@+++++@@@@#@<e44wq>+-r;O+++@@++@@+@+++++@%@##@+XXX++++@@",
"@@@@+$@@+@+@+++@@@+@%%@XXXX++++%+++@@++@@@@@$++@@+@+@@#,u34434r$r2u%@@+++@@@@@@@+@+@@@@d#@XXX$++++@+",
"@@@@@++@@@+@+@@@@+@@@%+XXXX+$;eu;-@@@+@+++@>;;+@@@+@#%;e433444we25u@@@@@+++@@++++@@@+@@+%+XX++++++++",
"+@@+@@+++@++++@@@@@@@++XX+++>e535;@@@++@++@;22=@@@@@#=e34444464655r%@@@+@++@@++@@@@+@@++XXX+++++++X+",
"+@@@@@+++@+++@@++++++Xo++++@$=e252;-@@@@@>;242r;e;$++%;e;;u16645552r=+@@@@+@@++++@@+++++X++%++++++++",
"oXX@@@@@+++++++++++$XX++++++++>e552;@@+@@;23113332-@@@+++%e646162525e%@@@+++++++++++++o+X+++++++++++",
"X+@@@++@@++++++++++++$+##+@#@,ru255u;;;;;e3334322;+@@@@@=;u5466152352r;r;%@+++++++++++++++#++#++++++",
"@+@X++++++++@++++++++#%#%+@#%e45525252523434433e$@@@@@@%r552616626256265uO++++++++++++++#%%##%#%+o++",
"++++@o@++++++++++++++%#%##%,ya556665888655522352;-;rrrrrw34646262622552u;+++++++++++++@@%#@@@@$+XX++",
"+++++++++++++++++++@##%#@#%u652566676666676633222526a24444646464525525u>+++@++++++++++@@@%#@d@XXXX++",
"+o@++++++#+%#%+++++@@@#@%,t233444676696776653256852equuququ65116556655u;=;=%@@@@@@@+++@@@d@@@@XXoX++",
"+@+++++@+%##%##%#%+@@@@@,u555544467667798833352687;+$>>++>u456522626976u46w,##%#%@@@+++@##@@+XXX++++",
"++++++++#+#%#%##@+++@@@@=euueee266676aiuiuuee226ut++++++%;u55525256976654ar>@@%%##%#++@@#+@++X++++++",
"+++++++oXX%#@@##@+@@@@@++%>>%+=u66787e%%>>>%%r66;+++@++$e255641125667765w*X$+##@@%@@@++@@@@@@@@@#++X",
"++@++++XXX+#%#d#@@@@%==+@@@@@@:i87686p>+@@@@@=it$@+++++$r1uuuu2132699696u*oo+@+@@@@@@+@@+@@@@@@++++o",
"++$+++++++X+#d@+@@@@=we>@@@@%ta7667766u;@@@@@%-$%+++++XX>>,>%$r45226766766u&XX+@d%@@@@+@++@+@@@++oX+",
"+++++++++++++@@++@@=e32=@@@%;2897778784u;%+@@+@+++++++XX+@@@@>e25666767666e-++++##@+@@+@+@@+@@++++++",
"+@++++++@++++++@@@=e332O@@%;215677s66444u;@@@@@+++++XX++@@@@;e2527007769i;+++++++#@@@+++++@@@+o+++++",
"++++++++@@$++XO=+@;133e=@O;13327707666655u,%@@@@@+>=XX@@@@+=e535770776982-++@@+++++@@@++++@@@+++@@+@",
"++++++++@@@@@@;2r@=235e@@;u12690s756466666u;+@@++$ee$@@@@+;u25426076252622;%+@@+++++++++++@+++++@+@@",
"oXo++++o+@+@@@;5e=;235u--2566707s644666s965u;+@@+;64;%$>%=e5525660752225852:@@@@@++@@+++++@+++@@++$+",
"X++++++++@@@@@+-;e22352ui7677077566666777686iy@+rw46ueuequ245666762256966522e$@@@@@+++++++@%@+@@+@++",
"+o++++++O$$%%$+@;3352258800007764666768676766i,-256654533351257s666269776525u;@@+@@+++@+++++@@@@++++",
"++++++++;22eeeee2332555889977707s6666767667996uu6441655665566670d667666768855wr$++++++++@++++++@@@++",
"+++++++%q65544344411a22isasa700s0777676766s9a999a646666676a96s9s777767767s6645arX++++++++++++++++@@@",
"X+++++++>;u5545444652q;*r;es99076666766666569s909s9ss966a99as90077666466ar:*r68ae>+@@#++o++++++@@@++",
"XX+++++++$r455616466eO++++=s00s644666676546669sdddsd006469699009a6465468i=++>p79sr+@%##$XX++++@@@X+X",
"+X++++++>ru66555562r=$#++*u4879666760777a646s0ddsddds64466a9ss9s666446662e>++;uasr@##++XX+++++++@@+X",
"+++++++$e556255264u>#+++>u44a667777707079s660dd0ddd063446aa999a97664666664u=++>uay@@#$XXXX++++++++++",
"++++++>qw446uq;qqq;++#o;eeerqa76667707700s9add00dds64446699a9aa967766444454u=+%ua<#-r*XX+X++++++++++",
"++++@$u34445q++XX+X+++;2w>@+>a8774670ss000000d00ds6444679a96999a766761466444u>$w6<#e4*X++@+++%++++++",
"++#+;q433446u;.+++++>;qer++>ea666644790090s0000099s9s7s9s9a66a695776a665a6684erw6ey13q+@++@++++++@++",
"#++$q444464646qXX+++=a2=++$w666776444ss00s00000a66s0d0d0006169a9676676767666211144141;@+@@@+ +++o@++",
"++@%rweereu555uroXo;e4w$+>rw56777667699s09900s9a6900dddds9641a966777776777665546434we=@@@++X  +++++@",
"++#++%%$@$u55662rX=a66u$$u6466770ss09s6s0ss0099as9000dd0944469a97007775666662525534r@@@+++X  ++@++@@",
"++%@@@@@@+;qw535w*q454urr636667699000s9999000a990s0000sa64466a9a6770777767666652541;@@++++XX ++++@++",
"@@@@@@@+XXXoq6554265564a44a666754s00099ss9009a0s000s9096556a9a96666007777677a655552;@@@++XoX+++++++o",
"++@+@@++XXo*reuuuuuuu4548466776657s90s009ss9a9099s99sa641669a99a666s70s66667762uuu6;@@@++X+++++++@oX",
"++@@@+XXXXq2e>%%>>$@;w5667676776646s0000s9sa9a9a9as966556a969a9a766660761666552;,u2;@+XXo++++++@++++",
"+++@+++XXXeu;@@@@@@$ra867667676776669s9s9s9969a9a99a6166a0s9a9a966656766646655u>@e5e>=&>+++++@@+++++",
"++++++++++>-+@+@@@,u165664567767a969a99a9a99966799a99as000d00096676677766644432>@e31u4wr@#@#@@d%++++",
"+++@+++@+++@@@@@@@;43655241666669a9a9a96a9aas6799a9a9s00d0ddd064667666676643331;=e3334w;%#%%d@@@XX++",
"++@@@+@++++@@@@@+X*63555546445666696a9a999969a66a96990000ddda644476797644433335621133u>%#@###@@  Xo@",
"++++@@@@++@@@@@@+X*u2uuuuu54421646a9a99a9as9a9799a9as000000s64446676766422w2uuuu2511w;@@#d@@@@  XX+@",
" X ++@@++@@@@@+X+@,,,%--;u51666666a99a99a9s00000s9a9s0000076446676785654ur%<--<<;u4u>%@@#@@@+   +++@",
"XX ++++@@@+@+@+++@@###d#:u556666669aa9a99a0ddsddd099s99s0s64666776676444e<@@#@##@eu;@@+@#@@++o@++++@",
"++   +X+@@@@@+X@+@####%yu6566664666a9696469s0d0dd0ss0090077777s074667666auy%###@@>;$@+@@@@+@++++@@Xo",
"@+   ++@+@$$$XX@@@%%##;25566a5111699a9aa64560dd0d00000s07077770774667765452<#%@#@@@+@@+@+@+@@@@@@+o+",
"+++XXXX+@@-e=@+@@+@@>e2266a4444466a9aa9666356a0d0s000s9a7077s07861667676655uy%#@@@+@@@@+@++@@@@+++oX",
"+++++X+$+$e32@@$++@@;u5266664444669996a9a966660s009s0s9977070074656676676655a<@@@@@@@+@+++d@@@@++X+X",
"+@++@+*w12234;2e;%@@%=r256464446a9ss9a9s9s9sa66s00099s9a7070766667777777s6654ue>@@@@@+++@+@@@@++++++",
"@@+++>e133113434e+@@@@;243464680s00999a900s0096690ss996s7707647s070s7660007443w;@@++@@+++++++XX+@@@@",
"@++XXX*qqq23332;>@@@$ywa54446a90s9a6669a6a0009a9a9s066690s77767700776667707e&q;>+@@@+++++@@@++++@@@@",
"++XXXXXXX *255r@@+@@;u5546a469sssa511a9666s9s00s9ss9769s7778770s7066446770a-+++++@+++++++++@++@@X@+@",
"XXXXX XX.qe3552;;rr;e54664669s0s9646669669s000099s9s7866787707007661666678sp;@@@+++@+@+++@+++@@@@@++",
"XXXXXXX q33326256256166676470s9644669a9a9a99s9s009s9767767707700a61666676765w>++++++++++++++@@@+@++X",
"XXXXXo*q145454455555456666677707666676667776777777967s69767777707666667666756e;$+++++++++++++#%+@@++",
"oXXXX.q344454646555565666767777777766787766767677666699a6776677000767667776625u;++++++++++++++++@@@+",
"XX+XXoqqquqqppeyeeeyuu567676700767767776767886678767a9676766666a766667766662552;@@@@@@++++++++++@@++",
"XX++++o.Oo$+>%%%%%%#;u5676777076666766676766767a446s9a9676778464666666776652552:@@+@%#%+X+++++@@@$+o",
"+++@++@++X+@@#####@,r146677s77762679968668866666446a6666766661666657697865556it-###%#%+XXX%#++@+++++",
"@+++@@@++X+#@#@###=u411566876776766666553344644666644a6666661666667s707555552:@@##@@%@ XXX++++++++++",
"+@@@@@@+++##@###%<u2355546668776699ituuewqq2656666465644666125666667aipueuuue%##%#%@@XXoX++++@++++++",
"+++@@+@@+@##d%dd:a55586546666677796t%%$$>%%y686676646s64166526166665p,%>>>>>$%#@#%#%++X+X+++++++++++",
"X+++@@@@@@@@@@@@:uuupiapu4487676767t$@@@@@@,pa6866489766562564466655u;+@@@@++@@@@@+%+%+%+#@+++++++++",
"XXo++@+@+@@@@@+X$,<,<,,%-u4567679666u;@@@++@,ts88454696666526461666444e>@@@@@@@@++++@@@@#%%+XX++++++",
"+X++@@@+@@+@@@++@@####@#;w47787676685e=%@@@+@,u6uuuuuaa65262666667auuay%@@@@+@@@++++@##%%#++XX++++++",
"@+@++++@@d++++++@@@@##%e244777770006222;+@@@@;54r>--%:u56615666590i,%-,%@@@+@@@++++@@%%##%+oXX++++@@",
"@@@+++@@@@+@X@+@@+@@#,;1546777677d76555e+++@@=ue$@@@@=e54666667777p<d##%@@@@@+@++@@@+@@@%+XXXo++++@@",
"@@@@@@++@@@+@@@++@@@>eu54766444467d7983e+++@++==+@@@;u266667676766as<####@@@@+++@@@+@@@@+XXo++++++X+",
"@@@@+@++X@X+X@+@++@%r634877444442977si2q ++@@@@@@@+;2555667666766569p<%#+#%@@++@@@@@++++XX+++++++++o",
"X++@+@@+@@@@@@++@@=e655878844446662t::==++X+@@@@@%;w1535688899676688sa:,@#%@++++++++++++X+++++++++++",
"o++@+#%#++++++++@+;w626ss2222625646r+@@@@+XX$%@++=133522a777i776966u16p,###++++++++++++o++@@+@++++++",
"+++@++++++++++++++$;;;:yy:;-:u56766au,@@@@@>ey@+;21332t;:::;::t667i<,y<%@#%++++++++++++++%@%@%#@++++",
"+++++++++#+++++++++++#######,e5676686e%@%+@;6w>,233132-######%;586p,@@#@%##%+++++++++++@@@#@@#%@+o++",
"+++++++++++++%++++@+@##@##@:e23666789aeeeeuw34uu5332e=%#####,ru556ue,@##@%++++++%+++++@@@%%##%+X  +@",
"+%+++++++++++++++++@@@@#@#=u533166677655444444665252=@@#@@#%u5525645u,#%@+++@++++++++++@@%@@%+XX X++",
"+++++++++%%#%@@@@++@@@@@,ru2533346a666665uy<<rey;t32-@@@@%:u25866655au<%@++#@@@%@@@%++@+@@@+%+XXX++@",
"++++++++%##%%###@++@++@@=u552311667676698p%@+##@#-u2-@@@@$e6526d756665p%@++%@%##@#%@+@@@@@@++o+X++++",
"+++++++X+$#####d++@@@@@@$;err;;25577686ue-+@@####%r;O@+@@@;rrryye269aw;%@+++@@##%@#@@+@@@@++++++@$++",
"+++++++XX+@@d@@@@+@++@@@@@@+@+%e5669765q.+++@#@@@@++@@@+@@+@@+@@y286i>@@++o+++@d@d@@@@@@@@@@+++@@+XX",
"++++++++X+$@@@@@@@@@@@+@@@@@@-e25566652u;& +@@d@@@@@+@+@+@@@@@=;u52u;+++++oX++++@@@@+@+@@@@+@@@+@++X",
"+++%++++XX+X@@@@@@@@++@+++@@%u65525266255eOX++@@@@@@@@++@@@@@+;236e$++++++++oo+@d#@@+@@+++@@@@@+oXXo",
"++#++++++@XX+@@@++@+@+++@@@+%;2eree15552u;+X+++%@@@@+@+++@+@@@;uue;@@+++++++++++@@@+@+++++@@+@++++@@",
"+#++++++++@@+oX@@@+++++@@@@+++%%%+.e555e$@+@@+X+@@@@+++++@@+@#%%%%%@+++++@+@@@++++@@@+++++@@@$+++@+@",
"%++X+++++@d@+++@+@@++++@@++@++@+@@X;eue=+@@@@++++@@++++@@+@@%%###@@++++++++@@@++++@@@+++++@@+@X+@@@@",
"+X+++++$+@+@@@+++@@++@+@@++@+@+@+++XO,%O+X@@+@@++@@@@+@@#+###@#@@++++X+++XX@@++@++++@@+++@@+++@@@@@+",
"+XX+++X++@@@@@@++@++++++@++@@@+@+X++@@++X+@+@@@@++@++++++###d%%#+++XX+X+++++@@+@@@+@+@+++++@+@@@++++",
"Xo+++++++%+@@@@@#++%++++#+#+@@++X+++++@+++++@+@@@@+++++#%%#%%#%+++++++++++++++#+@@+++%+++++#@@++@+++",
"++++++++++++@@@+++++++++++@+@@++++++++++++%#@@@+@++++++++#@##+++++++++++++++++#++#@++++++++%+#@@@+++",
"++++++++++++++++++++++++++++++@@++++++++++++++++++++++++++%++++@+#++%+++++++++%++++++++++++++++++@++",
"+++++++++++++++++++++++++++%+@@@++++++++++++++++++++++++++++++@@@+++++++++++++++++++++++++++++++@@+@"
};
