/* XPM */
static char *result[] = {
/* columns rows colors chars-per-pixel */
"80 100 97 2 ",
"   c #16292B",
".  c #1E2B2C",
"X  c #0F2D31",
"o  c #132E32",
"O  c #073036",
"+  c #0F3135",
"@  c #1E3032",
"#  c #113438",
"$  c #1B373B",
"%  c #1F393C",
"&  c #212E2F",
"*  c #222F30",
"=  c #243233",
"-  c #293637",
";  c #233639",
":  c #2A3738",
">  c #253A3D",
",  c #2C3A3C",
"<  c #313735",
"1  c #313E3E",
"2  c #383B39",
"3  c #443F3A",
"4  c #3E403D",
"5  c #273D40",
"6  c #2B3F41",
"7  c #313F40",
"8  c #2E4143",
"9  c #354344",
"0  c #3A4545",
"q  c #374648",
"w  c #384748",
"e  c #374849",
"r  c #3C4A4A",
"t  c #404746",
"y  c #494641",
"u  c #434847",
"i  c #4A4945",
"p  c #444A49",
"a  c #494D4B",
"s  c #524C45",
"d  c #534E48",
"f  c #4E504E",
"g  c #54524D",
"h  c #5B544E",
"j  c #475150",
"k  c #4C5351",
"l  c #555551",
"z  c #5C5650",
"x  c #575A57",
"c  c #5D5953",
"v  c #5C5E5B",
"b  c #635D56",
"n  c #665F58",
"m  c #685F58",
"M  c #5E615D",
"N  c #676057",
"B  c #66615A",
"V  c #6B635C",
"C  c #676560",
"Z  c #6E6760",
"A  c #6E6861",
"S  c #746C64",
"D  c #796F67",
"F  c #776F68",
"G  c #777067",
"H  c #76716A",
"J  c #7C746C",
"K  c #7D7770",
"L  c #80776F",
"P  c #80786F",
"I  c #847C74",
"U  c #887F76",
"Y  c #898077",
"T  c #8C847A",
"R  c #90877E",
"E  c #91887E",
"W  c #908780",
"Q  c #968D83",
"!  c #988F85",
"~  c #9A9186",
"^  c #9C938A",
"/  c #A0978D",
"(  c #A2998F",
")  c #A59B92",
"_  c #A89F95",
"`  c #AAA096",
"'  c #ADA49A",
"]  c #B0A69C",
"[  c #B2A89F",
"{  c #B5ABA2",
"}  c #B8AEA5",
"|  c #BAB0A7",
" . c #BCB2A9",
".. c #C0B6AD",
"X. c #C3B8AF",
"o. c #C4BAB1",
"O. c None",
/* pixels */
"O.O.O.O.O.O.O.O.O.O.O.O.O.O.O.O.O.O.O.O.O.O.O.O.O.O.O.O.O.O.O.O.O.O.O.O.O.O.O.O.O.O.O.O.O.O.O.O.O.O.O.O.O.O.O.O.O.O.O.O.O.O.O.O.O.O.O.O.O.O.O.O.O.O.O.O.O.O.O.O.",
"O.O.O.O.O.O.O.O.O.O.O.O.O.O.O.O.O.O.O.O.O.O.O.O.O.O.O.O.O.O.O.O.O.O.O.O.O.O.O.O.O.O.O.O.O.O.O.O.O.O.O.O.O.O.O.O.O.O.O.O.O.O.O.O.O.O.O.O.O.O.O.O.O.O.O.O.O.O.O.O.",
"O.O.O.O.O.O.O.O.O.O.O.O.O.O.O.O.O.O.O.O.O.O.O.O.O.O.O.O.O.O.O.O.O.O.O.O.Q Q E E R E R R Q ! ^ O.O.O.O.O.O.O.O.O.O.O.O.O.O.O.O.O.O.O.O.O.O.O.O.O.O.O.O.O.O.O.O.O.",
"O.O.O.O.O.O.O.O.O.O.O.O.O.O.O.O.O.O.O.O.O.O.O.O.O.O.O.O.O.O.O.O.O.O.O.! ) ` ( ( ( ( ( ) ( ` Q T O.O.O.O.O.O.O.O.O.O.O.O.O.O.O.O.O.O.O.O.O.O.O.O.O.O.O.O.O.O.O.O.",
"O.O.O.O.O.O.O.O.O.O.O.O.O.O.O.O.O.O.O.O.O.O.O.O.O.O.O.O.O.O.O.O.O.~ E E ( ' [ } } { } } _ Q D V m O.O.O.O.O.O.O.O.O.O.O.O.O.O.O.O.O.O.O.O.O.O.O.O.O.O.O.O.O.O.O.",
"O.O.O.O.O.O.O.O.O.O.O.O.O.O.O.O.O.O.O.O.O.O.O.O.O.O.O.O.O.O.O.O.! ! ) ! ~ ` | .. . .....' I z b V b O.O.O.O.O.O.O.O.O.O.O.O.O.O.O.O.O.O.O.O.O.O.O.O.O.O.O.O.O.O.",
"O.O.O.O.O.O.O.O.O.O.O.O.O.O.O.O.O.O.O.O.O.O.O.O.O.O.O.O.O.O.O.! E ! _ _ ' }  ... . .....{ ) R K V d b O.O.O.O.O.O.O.O.O.O.O.O.O.O.O.O.O.O.O.O.O.O.O.O.O.O.O.O.O.",
"O.O.O.O.O.O.O.O.O.O.O.O.O.O.O.O.O.O.O.O.O.O.O.O.O.O.O.O.O.O.! ~ ~ E / [  . . . . . . . . . .{ ! V h b b O.O.O.O.O.O.O.O.O.O.O.O.O.O.O.O.O.O.O.O.O.O.O.O.O.O.O.O.",
"O.O.O.O.O.O.O.O.O.O.O.O.O.O.O.O.O.O.O.O.O.O.O.O.O.O.O.O.O.O.E ` ] ) ] } .. . . . .|  . ...X. .' ! I H b c O.O.O.O.O.O.O.O.O.O.O.O.O.O.O.O.O.O.O.O.O.O.O.O.O.O.O.",
"O.O.O.O.O.O.O.O.O.O.O.O.O.O.O.O.O.O.O.O.O.O.O.O.O.O.O.O.O.O.E / [ }  .|  . . . . . . . . . . . .} ) L h h b n O.O.O.O.O.O.O.O.O.O.O.O.O.O.O.O.O.O.O.O.O.O.O.O.O.",
"O.O.O.O.O.O.O.O.O.O.O.O.O.O.O.O.O.O.O.O.O.O.O.O.O.O.O.O.O.! E / [ | X...|  . . . . . . . . . .X.o.{ E Z S S b O.O.O.O.O.O.O.O.O.O.O.O.O.O.O.O.O.O.O.O.O.O.O.O.O.",
"O.O.O.O.O.O.O.O.O.O.O.O.O.O.O.O.O.O.O.O.O.O.O.O.O.O.O.O.~ E E ~ ` | ..|  . . .|  . . .|  .|  ... .[ ^ U J V b O.O.O.O.O.O.O.O.O.O.O.O.O.O.O.O.O.O.O.O.O.O.O.O.O.",
"O.O.O.O.O.O.O.O.O.O.O.O.O.O.O.O.O.O.O.O.O.O.O.O.O.O.O.! ~ ] ( ) ] | .. . . . . . .|  .|  . . . . .} ' ^ T Z g O.O.O.O.O.O.O.O.O.O.O.O.O.O.O.O.O.O.O.O.O.O.O.O.O.",
"O.O.O.O.O.O.O.O.O.O.O.O.O.O.O.O.O.O.O.O.O.O.O.O.O.O.O.O.E [ [ [ |  . . . .|  . . . . . . . . .|  .| | [ Q V y t 9 O.O.O.O.O.O.O.O.O.O.O.O.O.O.O.O.O.O.O.O.O.O.O.",
"O.O.O.O.O.O.O.O.O.O.O.O.O.O.O.O.O.O.O.O.O.O.O.O.O.O.O.E E ] } .... . .|  . . . . . .|  . . . . . ...X.} ^ H z k 7 5 O.O.O.O.O.O.O.O.O.O.O.O.O.O.O.O.O.O.O.O.O.O.",
"O.O.O.O.O.O.O.O.O.O.O.O.O.O.O.O.O.O.O.O.O.O.O.O.O.O.! E E ( [ ....|  . . . .|  . . . . .|  . . . . ...| ` T H v 5 O.O.O.O.O.O.O.O.O.O.O.O.O.O.O.O.O.O.O.O.O.O.O.",
"O.O.O.O.O.O.O.O.O.O.O.O.O.O.O.O.O.O.O.O.O.O.O.O.O.~ ) ( ! ( [  ...|  . . . . . .|  . . . . . .| |  ...| [ ^ I C > O O.O.O.O.O.O.O.O.O.O.O.O.O.O.O.O.O.O.O.O.O.O.",
"O.O.O.O.O.O.O.O.O.O.O.O.O.O.O.O.O.O.O.O.O.O.O.O.E E ( ` ` [ } .. . . . .|  . .|  . . . . . . . . . . .| ' ^ I M $ $ 9 O.O.O.O.O.O.O.O.O.O.O.O.O.O.O.O.O.O.O.O.O.",
"O.O.O.O.O.O.O.O.O.O.O.O.O.O.O.O.O.O.O.O.O.O.Q Q ( ! ~ ] | ..| |  .| |  . . . . . . . .| |  . . . . ...| ' ^ I v 5 5 w 9 O.O.O.O.O.O.O.O.O.O.O.O.O.O.O.O.O.O.O.O.",
"O.O.O.O.O.O.O.O.O.O.O.O.O.O.O.O.O.O.O.O.O.O.Q Q [ ` ` [ ......|  . . . . . . . . . . . . . . . . . ...| ' ^ I V a r r 9 O.O.O.O.O.O.O.O.O.O.O.O.O.O.O.O.O.O.O.O.",
"O.O.O.O.O.O.O.O.O.O.O.O.O.O.O.O.O.O.O.O.O.O.O.Q ] [ |  ...| | |  . . .|  . . . . . . . . . . . . . . .| ' ^ U S c f r 6 O.O.O.O.O.O.O.O.O.O.O.O.O.O.O.O.O.O.O.O.",
"O.O.O.O.O.O.O.O.O.O.O.O.O.O.O.O.O.O.O.O.O.O.O.Q ] | ....| | .... . . . . . .|  .|  .|  . .|  .|  . ...| ' ^ U D b g t 6 O.O.O.O.O.O.O.O.O.O.O.O.O.O.O.O.O.O.O.O.",
"O.O.O.O.O.O.O.O.O.O.O.O.O.O.O.O.O.O.O.O.O.O.O.Q ] } | ..| ..| |  . . . .|  . . . . . . . . . . . . ...| ] ^ T D c f r 6 O.O.O.O.O.O.O.O.O.O.O.O.O.O.O.O.O.O.O.O.",
"O.O.O.O.O.O.O.O.O.O.O.O.O.O.O.O.O.O.O.O.O.O.E E ` [ ....| | ..|  .|  . . . . . .|  . . . . . . . . ...} _ W J S b f r 5 O.O.O.O.O.O.O.O.O.O.O.O.O.O.O.O.O.O.O.O.",
"O.O.O.O.O.O.O.O.O.O.O.O.O.O.O.O.O.O.O.O.! ! E E ( [ ....| ..| |  . . . . . . . .|  . . . .|  . . . .o.| / H b b b a q 5 9 9 O.O.O.O.O.O.O.O.O.O.O.O.O.O.O.O.O.O.",
"O.O.O.O.O.O.O.O.O.O.O.O.O.O.O.O.O.O.O.O.~ ` _ / _ [  .| | ..| ..|  . . .|  . . . . . . . . . . . . . .[ Q V d b b l t r r q 9 O.O.O.O.O.O.O.O.O.O.O.O.O.O.O.O.O.",
"O.O.O.O.O.O.O.O.O.O.O.O.O.O.O.O.O.O.O.O.E ( ] ] } |  .| | | ..|  . . . .| | | .. . . . . . .|  . .} [ ^ I V h b b b c l j 9 O.O.O.O.O.O.O.O.O.O.O.O.O.O.O.O.O.O.",
"O.O.O.O.O.O.O.O.O.O.O.O.O.O.O.O.O.O.O.O.E ( }  .....| ....| |  . . . .|  ...| |  . .|  . . . . . .[ / T D N b b n N N b f 9 5 O.O.O.O.O.O.O.O.O.O.O.O.O.O.O.O.O.",
"O.O.O.O.O.O.O.O.O.O.O.O.O.O.O.O.O.O.O.O.W ( } | ..| | | ..| |  .| | | .. . .| .. . . . . . . . ...' W S N m b b n N B c p 5 5 q O.O.O.O.O.O.O.O.O.O.O.O.O.O.O.O.",
"O.O.O.O.O.O.O.O.O.O.O.O.O.O.O.O.O.O.O.O.E ( [ | .. ...| ..| | ......| |  . .| |  . .|  . . . ....._ I h h b b n n n n c p q e r 9 O.O.O.O.O.O.O.O.O.O.O.O.O.O.O.",
"O.O.O.O.O.O.O.O.O.O.O.O.O.O.O.O.O.O.O.D Y ^ ' | .. .|  .| | | | | | ..|  .| ..| |  . . . . . .....' P h h b n n b n b b z k f r 9 O.O.O.O.O.O.O.O.O.O.O.O.O.O.O.",
"O.O.O.O.O.O.O.O.O.O.O.O.O.O.O.O.O.O.b J Y ^ ' | ..|  . .| ....| | ..|  . .| ..|  . . . .|  . ....._ I z h n b b n b n b B b l r 8 O.O.O.O.O.O.O.O.O.O.O.O.O.O.O.",
"O.O.O.O.O.O.O.O.O.O.O.O.O.O.O.O.O.h b Y / ' {  . . . . . . .|  .| ....| | | ..|  . . . . . .| } { ^ J c h N b n b n b n N n x r 5 O.O.O.O.O.O.O.O.O.O.O.O.O.O.O.",
"O.O.O.O.O.O.O.O.O.O.O.O.O.O.O.O.O.s z T '  . . . . . .|  . . . .| | | | ..| ..| |  . . . . .| ' ^ Y S b c b b N b n n n V n x t 8 O.O.O.O.O.O.O.O.O.O.O.O.O.O.O.",
"O.O.O.O.O.O.O.O.O.O.O.O.O.O.O.O.O.O.h T '  .o. . . . . . .|  . .....| | | ..| |  . .|  . . .| ' ~ I S b b b b N N m m b b g a 9 > O.O.O.O.O.O.O.O.O.O.O.O.O.O.O.",
"O.O.O.O.O.O.O.O.O.O.O.O.O.O.O.O.O.O.x W [  . . . .|  . . . . .| | | | ..| | | .. . . . . .o.| ' ^ I S c b B b B N V N b a 0 1 - * O.O.O.O.O.O.O.O.O.O.O.O.O.O.O.",
"O.O.O.O.O.O.O.O.O.O.O.O.O.O.O.O.O.O.h T [  . . . . . .|  . . . ...| | | ....| | |  . . . . .| ' ^ Y D b c b b c c c z g t 5 ; * . O.O.O.O.O.O.O.O.O.O.O.O.O.O.O.",
"O.O.O.O.O.O.O.O.O.O.O.O.O.O.O.O.O.O.z R [  .o. . . . . . . . . .} | ....| | | .. . . . . . .| ' ( Y G b b N b f r p t r w 9 : * . . & O.O.O.O.O.O.O.O.O.O.O.O.O.",
"O.O.O.O.O.O.O.O.O.O.O.O.O.O.O.O.O.d z T '  . . . . . . . . . . ...} | | ..} | .. . . . .....| _ Q K V c c b g t 5 5 6 9 9 9 , - = - & & O.O.O.O.O.O.O.O.O.O.O.O.",
"O.O.O.O.O.O.O.O.O.O.O.O.O.O.O.O.b h z U ' ..o. . .|  . . . . . ...| ..| } ..| |  . .|  . .o.| ) L b l p p a p 0 9 9 7 9 9 9 9 7 , - & & O.O.O.O.O.O.O.O.O.O.O.O.",
"O.O.O.O.O.O.O.O.O.O.O.O.O.O.O.b S b z I _ } .. . . . . . . . . .| | | .. . . . .|  . . . . .{ Q V y 0 5 , 9 9 9 9 9 9 9 9 9 q q 4 >   O.O.O.O.O.O.O.O.O.O.O.O.O.",
"O.O.O.O.O.O.O.O.O.O.O.O.O.O.O.b Z N b H ! ' } ..o. . .o. . . . .| ..| |  .|  . . . . ...| ' ) Y V d u 8 8 7 9 9 9 9 9 9 0 9 q 9 9 : . O.O.O.O.O.O.O.O.O.O.O.O.O.",
"O.O.O.O.O.O.O.O.O.O.O.O.O.O.O.B V N b S I ! _ }  . .| }  .|  . .| } ..| |  . .|  . . . .{ ) W J V g t 9 8 9 9 9 9 9 9 9 9 9 9 9 5 > . . O.O.O.O.O.O.O.O.O.O.O.O.",
"O.O.O.O.O.O.O.O.O.O.O.O.O.O.O.n V N b b S J T Q ! Q ^ / ' { |  .X......... ....... .} ' ) ^ R H c 0 0 8 9 9 9 9 9 9 9 9 9 9 9 0 4 - . . * O.O.O.O.O.O.O.O.O.O.O.",
"O.O.O.O.O.O.O.O.O.O.O.O.O.O.O.b V V n b b b m m b b V I Q ) |  ..... . . .| |  ...| _ ^ Q ~ W H p > 6 9 9 9 9 9 9 9 9 9 9 9 0 9 9 - . = * * O.O.O.O.O.O.O.O.O.O.",
"O.O.O.O.O.O.O.O.O.O.O.O.O.O.O.b V H J J J D N h s s h N H T ~ ^ / ~ ) _ ' { ' ' { _ / Q Q ~ Q F r # 6 9 9 9 9 9 0 9 9 9 q 9 q q , - . = - & O.O.O.O.O.O.O.O.O.O.",
"O.O.O.O.O.O.O.O.O.O.O.O.O.O.O.h S I W ~ ! W J n h h c b B B V V m m K W ~ ^ ~ ~ ~ ! ~ Q ! / W H t $ 7 9 9 9 9 9 9 9 9 9 9 q 9 0 7 - . * * & O.O.O.O.O.O.O.O.O.O.",
"O.O.O.O.O.O.O.O.O.O.O.O.O.O.b h V U ! ^ ^ ! T J D H G D S S S V V V J U Q Q W Q W Q Q Q Q W I Z p > 7 q 9 9 9 9 q 9 9 9 7 1 , 1 : - & & = & O.O.O.O.O.O.O.O.O.O.",
"O.O.O.O.O.O.O.O.O.O.O.O.O.n b h N K E ^ ~ Q E E E E E E R R R R R R R Q Q Q Q Q Q ! ~ ! T J B l r 6 9 9 9 9 9 0 9 0 9 1 , * = = = * & = * * O.O.O.O.O.O.O.O.O.O.",
"O.O.O.O.O.O.O.O.O.O.O.O.b n D S G Y Q ~ ! Q ~ ~ ~ ~ ~ ~ ~ ~ ~ ~ ~ ~ ! ! ! ! Q ! Q Q ~ ! T S h i 0 8 9 9 9 q 9 1 1 1 9 , = . . & . & & * * * O.O.O.O.O.O.O.O.O.O.",
"O.O.O.O.O.O.O.O.O.O.O.O.h b H I R E Q ! Q Q ! ~ ! ! ~ ! ! ! ! ~ ! ! ! Q Q Q Q Q ! Q ! ! T D b a r 9 9 q q 9 7 , - = - = & & & & & & * * = & O.O.O.O.O.O.O.O.O.O.",
"O.O.O.O.O.O.O.O.O.O.O.O.O.b L R ^ ~ Q ! Q ! Q Q Q Q Q Q Q Q ! Q Q Q ! Q Q Q Q Q Q ! ^ ! Y D z u 9 , 6 7 7 9 1 = . . . . & & & & & & & = * * O.O.O.O.O.O.O.O.O.O.",
"O.O.O.O.O.O.O.O.O.O.O.O.O.b J T ~ ~ Q Q ! Q Q Q Q E Q E E Q E W E Q E Q W Q E Q Q Q ^ ! Y C r , - - - - - - - & & . & & & & & & & & * * * & & * O.O.O.O.O.O.O.O.",
"O.O.O.O.O.O.O.O.O.O.O.O.O.b J R ~ ! ! Q Q Q ! ~ ~ ~ ^ ^ ~ ~ ^ ^ ~ ~ ~ ! ~ ^ ~ ~ ! Q ~ ~ U v > X . . . . . & . & & & & & & & & & & & & & * = = * & O.O.O.O.O.O.O.",
"O.O.O.O.O.O.O.O.O.O.O.O.O.b K E ~ ~ ! Q Q ! W E ~ ) ' ] ' ' ' ' [ ' ' ' [ ' ] _ ~ E ! ^ T v > o & . . & & & & & & & & & & & & & & & & & & * = * & O.O.O.O.O.O.O.",
"O.O.O.O.O.O.O.O.O.O.O.O.h b J T ~ ~ Q Q ! Q Q Q ) {  . . . . . . . . . . . . .{ ( ! ! ~ U v > o * . & & & & & & & & & & & & & & & & & * * * = & O.O.O.O.O.O.O.O.",
"O.O.O.O.O.O.O.O.O.O.O.b z h D Y ~ ~ Q Q E Q ^ _ [ } .. ... . . . . . . ..... .| { _ ! U A k =   & & & & & & & & & & & & & & & & & & & & & = = & * O.O.O.O.O.O.O.",
"O.O.O.O.O.O.O.O.O.O.b b b b D T ~ ~ Q Q E ~ ` |  . . . . . . . . . .|  . . . . . .} ^ A i 2     & & & & & & & & & & & & & & & & & * & & & & = & * O.O.O.O.O.O.O.",
"O.O.O.O.O.O.O.O.O.O.b S H H I R ~ Q Q ^ / ` {  ... . . . . . . . . . . . . . ...o.| ^ Z 3 <     & & & & & & & & & & & & & & & & & & & & & * = & O.O.O.O.O.O.O.O.",
"O.O.O.O.O.O.O.O.O.O.h S U W Q Q ! W Q ( ' |  .|  . .|  . . . . . . . . . . . . .o.| ^ S y 2     & & & & & & & & & & & & & & & & & & & & & * = & O.O.O.O.O.O.O.O.",
"O.O.O.O.O.O.O.O.O.O.c V Y ! ^ ~ ! Q Q ( } o...|  . . . . . . . . . . . . . . .| | ' W B 3 < .   & & & & & & & & & & & & & & & & & & & & & & = & O.O.O.O.O.O.O.O.",
"O.O.O.O.O.O.O.O.O.O.h S Y Q ~ ! ! W W ) { .. . . . . . . . .|  . . .|  . . . .} ' ^ K k ; * . . & & & & & & & & & & & & & & & & & & & & & = = & O.O.O.O.O.O.O.O.",
"O.O.O.O.O.O.O.O.O.O.h V U E ~ ! Q Q Q ^ ' { }  . . . .| |  . . . . . . . . . .{ ^ I B w + @ & & & & & & & & & & & & & & & & & & & & & & & & = . & O.O.O.O.O.O.O.",
"O.O.O.O.O.O.O.O.b b h m L Q ~ ! Q Q Q ! ^ ) {  .o... . . . . . . .|  . . .....[ W V l 0 % = & & & & & & & & & & & & & & & & & & & & & & & & = & & * & O.O.O.O.O.",
"O.O.O.O.O.O.O.b b S V S I E ~ Q Q Q Q E E ~ ) { | | | | |  . . . . . . . . .| ) K a 4 0 , - . & & & & & * & & & & & & & & & & & & & & & & & & & = = * O.O.O.O.O.",
"O.O.O.O.O.O.O.b b J L Y E ~ ~ ! Q ~ Q ~ Q E ^ ( _ ( ` ]  ..... . . ...o...| ' Q C 0 1 0 1 - . . * & & & & & & & & & & & & & & * & & & & & & & & = = * O.O.O.O.O.",
"O.O.O.O.O.O.O.O.c L R ~ ~ Q Q Q Q Q Q ~ ! Q Q Q E E ~ ` }  . .| | | | | { ' Q K x , > q 1 - & . & & & & * & & & & & & & & & & & & & & & & & * & * = * O.O.O.O.O.",
"O.O.O.O.O.O.O.O.b K E ^ ~ ~ ! Q ~ Q Q Q Q ! Q E Q E Q ^ ) ` ` ` ` ` ) ~ T Y J Z j 5 5 9 1 = & . & & & & & & & & & & & & & & & & & & & * & & & & = = * O.O.O.O.O.",
"O.O.O.O.O.O.O.z b J T ~ ~ Q Q Q Q Q Q ! Q Q Q ! Q Q Q Q ! ! ! Q ~ ! T D b b N c a 9 9 9 , ; & . * & & & & & & & & & & & & & & & & & & & & & & & = * * O.O.O.O.O.",
"O.O.O.O.O.O.n h h D T ~ ~ Q ~ ! Q Q Q Q Q ~ ! Q ! ! Q Q Q E E Q Q E T L D V b g u 8 9 9 1 - . . & & & & & & & & & & & & & & & & & & & & & & & * = * * O.O.O.O.O.",
"O.O.O.O.O.b b b b S Y ~ ~ Q Q Q ~ Q Q Q Q ! Q Q Q Q ! Q Q ! ! Q Q ! ! ~ E L V g u 9 8 9 1 - . . & & & & & & & & & & & & & & & & & & & * & & & & = & * O.O.O.O.O.",
"O.O.O.O.O.b D H G I E Q ~ Q Q Q Q Q Q ~ Q Q Q ! Q ! Q Q ! Q Q ! Q ! ~ ^ Q I b u 0 q 9 9 9 , - = * & & & & * & & & & & & & & & & & & & & & & & & = = * O.O.O.O.O.",
"O.O.O.O.O.z S I R Q ! Q Q Q ! ~ E ! ! ! E ! Q Q ! Q Q Q ! ! Q ! Q Q ~ ^ Q H j > 9 9 9 9 9 9 1 : * . & & & & & & & & & & & & & & & & & & & & & & = * & O.O.O.O.O.",
"O.O.O.O.O.z V Y ! ^ ! ! ! Q Q Q ! Q ! ! ! Q ! ! ! Q ! Q Q Q Q Q ! Q Q E Y C e $ , 9 9 9 9 0 0 , * . & & & & & & & & & & & & & & * & & & & * & & = = & O.O.O.O.O.",
"O.O.O.O.O.z Z U Q ~ ! ! ! Q Q Q ! ! E ! ! ! ! Q Q Q ! ! Q ! ! Q ~ ~ T J V l w , 9 9 9 9 q 9 7 , & . & & & & & & & & & & & & & & & & & & & & & & = = & O.O.O.O.O.",
"O.O.O.O.O.h S U Q ~ ! Q Q Q ! ! ! ! ! Q ! ! ! ! ! Q Q Q Q Q Q ! ~ ~ T S z p 0 9 9 9 9 9 9 q 9 1 - * & . & & & & & & & & & & & & * & & & & & & & = = & O.O.O.O.O.",
"O.O.O.O.O.z V U W ~ ! Q Q Q ! Q Q ! ! ! Q Q ! ! ! E ! ! ! Q Q ! ! ~ T D b a 0 6 9 9 9 9 9 9 9 9 1 , = & . & & & & & & & & & & & & & & & & & & & & = * O.O.O.O.O.",
"O.O.O.O.O.z S U Q ~ ~ Q Q ! Q Q ! E ! ! ! Q E ! ! ! Q ! Q ! Q Q ~ Q T D h i 0 8 9 9 9 9 9 9 9 0 0 7 - & & & & & & & & & & & & & & & * & & & & & = & & O.O.O.O.O.",
"O.O.O.O.O.z S U Q ~ ~ Q Q Q ! ! ! ! Q ! ! Q Q Q ! ! ! ! ! Q ! Q ^ ^ T V t 9 9 9 9 9 9 9 9 9 9 0 9 9 1 , = & & & & & & & & & & & & & & & & & & * = = & O.O.O.O.O.",
"O.O.O.O.O.z V U W ~ ~ Q ! Q Q Q ! ! ! E Q Q ! ! Q ! E ! Q Q ! Q ^ ! I v > > 9 9 9 9 9 9 9 9 9 9 9 q q 9 , = & & & & & & & & & & & & & & & & & & = & & O.O.O.O.O.",
"O.O.O.O.O.z Z U Q ~ ~ Q ! Q Q ~ Q Q ! Q E ~ ! E ~ ! ~ ! ! ! ~ ~ R I Z l > 5 9 9 9 9 9 9 9 9 9 9 9 9 9 9 9 , - = . & & & & & & & & & & & & * & & = * * O.O.O.O.O.",
"O.O.O.O.O.z Z U W ~ Q Q Q Q Q Q ! Q ! Q ! ! ! ! ! ! E ! Q ! ~ E I V g t 8 9 9 9 9 9 9 9 9 9 9 9 9 9 9 9 9 9 1 - & & & & & & & & & & * & & & & & = = * O.O.O.O.O.",
"O.O.O.O.O.b Z U Q ~ ~ Q Q ! ! Q Q ! Q Q ! ! ! ! Q ~ ! ~ ~ E R P D b g t 9 8 9 9 9 9 9 9 9 9 9 9 9 9 9 9 0 q 1 - . . & & & & & & & & & & & & & & = = * O.O.O.O.O.",
"O.O.O.O.O.h Z U Q ~ Q ~ Q Q Q Q ! Q Q ! ! E ! ! ! E ! ~ ~ E H B b n z a 8 9 9 9 9 9 9 9 9 9 9 9 9 9 9 9 q 9 1 - . . & & * & & & & & & & & & * . = = * O.O.O.O.O.",
"O.O.O.O.O.c S Y Q ^ ~ Q Q Q ! ! E ! Q ! E ! E ~ ~ ~ ~ E T J V z b N c p 8 9 9 9 9 9 9 9 9 9 9 9 9 9 9 9 9 q 1 , - = & & . & & & & & & * & = = = . = O.O.O.O.O.O.",
"O.O.O.O.O.c S T E ~ ~ Q ! Q Q Q ! ! ! ! ! ! ! ! ~ ~ ~ Y G N N N N N c a 9 9 9 9 0 9 9 9 9 9 9 9 9 9 9 9 9 9 9 9 1 - & . & & & & & & & & . = = . * O.O.O.O.O.O.O.",
"O.O.O.O.O.h V I E ( ~ Q ! Q ! Q ! ! E ! ! ! ! ! E E Y G b h c N b c g t 8 9 9 9 9 9 9 9 0 9 9 9 9 9 9 0 9 9 q 0 9 1 - * & & & & & . = * = . & & O.O.O.O.O.O.O.O.",
"O.O.O.O.O.O.O.E ^ ` ^ Q ! Q Q Q ! Q ! ! ! Q ~ ~ E L V N b b N M l p 0 9 9 9 9 9 9 9 9 9 9 9 9 9 9 9 9 9 9 9 9 9 9 9 7 , - . . & = = = - - & O.O.O.O.O.O.O.O.O.O.",
"O.O.O.O.O.O.O.O.Q Q Q ~ ~ ~ ! Q ! Q Q Q ! Q Q W Y V h c b N N b f 9 , 8 q 9 9 9 9 9 9 9 9 9 9 9 9 9 9 9 9 9 9 9 9 q 9 1 - . . = . & * * & * O.O.O.O.O.O.O.O.O.O.",
"O.O.O.O.O.O.O.O.O.Q ~ ` ` ( ( ~ Q Q ! ~ ^ ! T J V V b b b N N m g q 8 8 9 9 9 9 9 9 9 9 9 9 9 9 9 9 9 9 9 0 9 9 9 q 9 9 : = = - & * O.O.O.O.O.O.O.O.O.O.O.O.O.O.",
"O.O.O.O.O.O.O.O.O.O.! ~ ~ ! Q Q ~ ~ ~ ! ! R J n c b b b n n m b g 0 8 9 9 9 9 9 9 9 0 9 9 9 9 9 9 9 9 9 9 9 9 9 9 q 9 1 - . . * * O.O.O.O.O.O.O.O.O.O.O.O.O.O.O.",
"O.O.O.O.O.O.O.O.O.O.O.O.O.O.! Q _ ` ( ^ T L D V N N b N n c l a 0 9 9 9 9 9 9 9 9 9 9 9 9 9 9 9 9 9 9 9 9 9 0 0 r r r 9 , O.O.O.O.O.O.O.O.O.O.O.O.O.O.O.O.O.O.O.",
"O.O.O.O.O.O.O.O.O.O.O.O.O.O.O.Q ~ ^ ~ Y D z c b n n n n n c t 8 8 9 9 9 9 9 9 9 9 9 9 9 9 9 9 q 9 9 9 9 9 9 9 9 9 q q 9 O.O.O.O.O.O.O.O.O.O.O.O.O.O.O.O.O.O.O.O.",
"O.O.O.O.O.O.O.O.O.O.O.O.O.O.O.O.Q ~ O.O.O.O.O.O.b n V S V b j 8 8 9 9 9 9 9 9 9 9 9 9 9 9 9 9 0 q r w 0 r r 9 9 O.O.9 O.O.O.O.O.O.O.O.O.O.O.O.O.O.O.O.O.O.O.O.O.",
"O.O.O.O.O.O.O.O.O.O.O.O.O.O.O.O.O.O.O.O.O.O.O.O.O.n V Z B c a 9 9 9 9 9 9 9 9 9 9 q 9 9 9 9 9 9 q 9 q 9 w r 9 O.O.O.O.O.O.O.O.O.O.O.O.O.O.O.O.O.O.O.O.O.O.O.O.O.",
"O.O.O.O.O.O.O.O.O.O.O.O.O.O.O.O.O.O.O.O.O.O.O.O.O.O.n n B c p 9 8 9 r r 0 0 q q 0 0 0 0 0 w q 9 9 9 9 9 9 9 O.O.O.O.O.O.O.O.O.O.O.O.O.O.O.O.O.O.O.O.O.O.O.O.O.O.",
"O.O.O.O.O.O.O.O.O.O.O.O.O.O.O.O.O.O.O.O.O.O.O.O.O.O.O.O.O.O.O.O.9 9 r r w w w w w w r q r r 9 q O.O.O.O.O.O.O.O.O.O.O.O.O.O.O.O.O.O.O.O.O.O.O.O.O.O.O.O.O.O.O.O.",
"O.O.O.O.O.O.O.O.O.O.O.O.O.O.O.O.O.O.O.O.O.O.O.O.O.O.O.O.O.O.O.O.O.q 9 9 9 9 9 9 9 9 9 9 9 9 9 O.O.O.O.O.O.O.O.O.O.O.O.O.O.O.O.O.O.O.O.O.O.O.O.O.O.O.O.O.O.O.O.O.",
"O.O.O.O.O.O.O.O.O.O.O.O.O.O.O.O.O.O.O.O.O.O.O.O.O.O.O.O.O.O.O.O.O.O.O.O.O.O.O.O.O.O.O.O.O.O.O.O.O.O.O.O.O.O.O.O.O.O.O.O.O.O.O.O.O.O.O.O.O.O.O.O.O.O.O.O.O.O.O.O.",
"O.O.O.O.O.O.O.O.O.O.O.O.O.O.O.O.O.O.O.O.O.O.O.O.O.O.O.O.O.O.O.O.O.O.O.O.O.O.O.O.O.O.O.O.O.O.O.O.O.O.O.O.O.O.O.O.O.O.O.O.O.O.O.O.O.O.O.O.O.O.O.O.O.O.O.O.O.O.O.O."
};
